P2
512 512
255
162
162
162
161
162
157
163
161
166
162
162
160
155
163
160
155
157
156
161
161
154
156
154
157
153
157
154
152
156
154
154
156
154
158
155
160
158
167
160
166
166
165
166
172
171
175
173
170
172
172
167
175
168
167
162
161
147
148
153
140
130
119
118
106
97
97
94
92
88
97
103
96
104
101
105
105
105
105
104
110
110
108
107
105
104
109
109
109
108
106
106
108
110
109
107
109
109
110
110
108
104
106
106
108
109
111
118
111
113
118
121
119
112
122
121
122
125
122
121
124
123
130
129
123
122
127
132
131
132
129
135
129
128
131
131
127
135
137
132
134
131
131
128
130
134
126
129
126
133
130
129
131
128
131
129
128
135
133
136
134
128
134
130
135
133
133
134
135
132
135
132
136
134
132
133
133
136
133
134
134
132
133
131
132
133
135
137
134
133
131
133
131
135
136
132
135
136
137
133
138
136
135
133
137
135
136
132
133
140
132
131
139
134
131
129
132
131
126
131
131
132
131
129
132
131
128
135
133
133
135
131
132
133
133
131
133
130
131
131
133
136
134
132
135
132
135
134
138
131
131
131
133
129
129
133
138
138
142
134
132
132
129
128
128
133
134
129
132
134
133
131
128
129
127
131
132
126
130
135
134
129
127
126
130
127
131
134
127
126
132
131
128
131
127
131
125
128
130
126
128
127
132
126
129
121
124
124
121
119
122
121
119
117
114
111
113
115
105
102
103
104
112
116
118
122
132
135
139
140
145
146
151
153
152
153
159
159
159
163
158
162
161
155
155
148
148
153
149
154
151
151
155
151
157
155
152
157
156
154
154
159
159
156
158
154
153
151
157
153
151
154
152
154
153
152
153
152
151
151
158
154
154
152
152
153
157
154
158
158
157
154
154
156
160
160
160
157
156
156
152
155
155
158
177
192
198
206
208
211
211
212
215
218
218
218
218
220
216
211
204
192
172
152
122
107
106
101
103
104
111
105
113
116
117
119
117
119
118
121
123
127
121
119
117
120
125
121
118
123
122
125
128
121
119
123
118
121
124
123
120
122
121
121
123
122
124
129
118
124
126
124
126
126
127
123
123
124
125
118
118
128
122
126
126
126
130
124
126
126
122
130
124
126
127
119
123
114
121
116
119
118
115
120
124
137
162
168
169
171
170
155
128
162
0
3
0
18
0
24
0
27
0
6
9
0
33
6
0
9
0
15
21
0
12
0
21
0
21
0
0
18
0
0
12
0
21
0
21
0
48
0
18
3
0
0
21
0
18
3
0
6
15
0
45
0
12
0
39
0
0
54
0
3
0
33
0
0
9
0
6
0
9
39
0
33
0
12
0
0
3
0
18
6
0
3
0
0
15
0
3
3
0
0
0
9
3
0
6
0
3
6
6
0
6
0
3
0
0
42
0
0
6
15
15
0
33
0
0
18
0
0
12
0
24
15
0
0
0
18
0
12
0
36
0
0
9
12
0
18
21
0
15
0
9
0
0
36
0
18
0
30
0
0
15
0
15
0
0
27
0
15
12
0
30
0
21
0
0
0
12
0
18
0
18
0
0
3
0
18
0
3
6
0
9
0
0
0
0
15
0
3
0
12
0
9
15
0
6
0
15
0
21
0
3
0
18
0
15
0
0
45
0
0
39
0
0
0
12
12
0
15
0
6
3
0
12
6
0
27
0
0
18
0
0
3
6
0
15
0
3
0
0
15
0
0
18
0
12
0
33
0
0
0
18
0
0
0
15
0
36
0
0
9
0
0
0
12
18
0
3
9
3
3
0
9
0
9
21
0
0
18
12
0
0
0
21
0
3
30
0
0
21
6
0
21
0
30
0
3
18
0
9
0
33
0
33
0
9
9
0
0
12
3
0
3
0
0
0
36
0
0
0
0
12
6
0
0
21
0
9
0
12
0
9
9
0
0
18
0
0
27
0
15
15
0
21
0
0
27
0
24
0
0
24
0
24
3
0
18
3
0
0
15
9
0
18
0
3
0
30
0
0
15
0
9
0
0
6
0
0
0
33
0
6
0
0
0
21
0
12
3
6
0
0
0
12
0
9
0
0
12
0
9
0
0
12
27
0
18
0
9
0
0
0
9
0
0
0
18
3
6
15
24
0
30
0
0
12
0
3
0
39
0
15
6
0
12
0
9
0
3
0
30
0
0
0
0
27
0
0
18
0
0
30
0
0
27
0
0
12
6
0
9
0
0
9
0
0
48
0
12
12
0
6
0
15
0
0
0
24
0
0
48
0
12
0
0
30
0
6
12
0
42
0
3
27
0
39
0
36
0
12
6
0
3
0
0
57
15
0
9
42
36
128
162
0
3
0
18
0
24
0
27
0
6
9
0
33
6
0
9
0
15
21
0
12
0
21
0
21
0
0
18
0
0
12
0
21
0
21
0
48
0
18
3
0
0
21
0
18
3
0
6
15
0
45
0
12
0
39
0
0
54
0
3
0
33
0
0
9
0
6
0
9
39
0
33
0
12
0
0
3
0
18
6
0
3
0
0
15
0
3
3
0
0
0
9
3
0
6
0
3
6
6
0
6
0
3
0
0
42
0
0
6
15
15
0
33
0
0
18
0
0
12
0
24
15
0
0
0
18
0
12
0
36
0
0
9
12
0
18
21
0
15
0
9
0
0
36
0
18
0
30
0
0
15
0
15
0
0
27
0
15
12
0
30
0
21
0
0
0
12
0
18
0
18
0
0
3
0
18
0
3
6
0
9
0
0
0
0
15
0
3
0
12
0
9
15
0
6
0
15
0
21
0
3
0
18
0
15
0
0
45
0
0
39
0
0
0
12
12
0
15
0
6
3
0
12
6
0
27
0
0
18
0
0
3
6
0
15
0
3
0
0
15
0
0
18
0
12
0
33
0
0
0
18
0
0
0
15
0
36
0
0
9
0
0
0
12
18
0
3
9
3
3
0
9
0
9
21
0
0
18
12
0
0
0
21
0
3
30
0
0
21
6
0
21
0
30
0
3
18
0
9
0
33
0
33
0
9
9
0
0
12
3
0
3
0
0
0
36
0
0
0
0
12
6
0
0
21
0
9
0
12
0
9
9
0
0
18
0
0
27
0
15
15
0
21
0
0
27
0
24
0
0
24
0
24
3
0
18
3
0
0
15
9
0
18
0
3
0
30
0
0
15
0
9
0
0
6
0
0
0
33
0
6
0
0
0
21
0
12
3
6
0
0
0
12
0
9
0
0
12
0
9
0
0
12
27
0
18
0
9
0
0
0
9
0
0
0
18
3
6
15
24
0
30
0
0
12
0
3
0
39
0
15
6
0
12
0
9
0
3
0
30
0
0
0
0
27
0
0
18
0
0
30
0
0
27
0
0
12
6
0
9
0
0
9
0
0
48
0
12
12
0
6
0
15
0
0
0
24
0
0
48
0
12
0
0
30
0
6
12
0
42
0
3
27
0
39
0
36
0
12
6
0
3
0
0
57
15
0
9
42
36
128
162
0
3
0
18
0
24
0
27
0
6
9
0
33
6
0
9
0
15
21
0
12
0
21
0
21
0
0
18
0
0
12
0
21
0
21
0
48
0
18
3
0
0
21
0
18
3
0
6
15
0
45
0
12
0
39
0
0
54
0
3
0
33
0
0
9
0
6
0
9
39
0
33
0
12
0
0
3
0
18
6
0
3
0
0
15
0
3
3
0
0
0
9
3
0
6
0
3
6
6
0
6
0
3
0
0
42
0
0
6
15
15
0
33
0
0
18
0
0
12
0
24
15
0
0
0
18
0
12
0
36
0
0
9
12
0
18
21
0
15
0
9
0
0
36
0
18
0
30
0
0
15
0
15
0
0
27
0
15
12
0
30
0
21
0
0
0
12
0
18
0
18
0
0
3
0
18
0
3
6
0
9
0
0
0
0
15
0
3
0
12
0
9
15
0
6
0
15
0
21
0
3
0
18
0
15
0
0
45
0
0
39
0
0
0
12
12
0
15
0
6
3
0
12
6
0
27
0
0
18
0
0
3
6
0
15
0
3
0
0
15
0
0
18
0
12
0
33
0
0
0
18
0
0
0
15
0
36
0
0
9
0
0
0
12
18
0
3
9
3
3
0
9
0
9
21
0
0
18
12
0
0
0
21
0
3
30
0
0
21
6
0
21
0
30
0
3
18
0
9
0
33
0
33
0
9
9
0
0
12
3
0
3
0
0
0
36
0
0
0
0
12
6
0
0
21
0
9
0
12
0
9
9
0
0
18
0
0
27
0
15
15
0
21
0
0
27
0
24
0
0
24
0
24
3
0
18
3
0
0
15
9
0
18
0
3
0
30
0
0
15
0
9
0
0
6
0
0
0
33
0
6
0
0
0
21
0
12
3
6
0
0
0
12
0
9
0
0
12
0
9
0
0
12
27
0
18
0
9
0
0
0
9
0
0
0
18
3
6
15
24
0
30
0
0
12
0
3
0
39
0
15
6
0
12
0
9
0
3
0
30
0
0
0
0
27
0
0
18
0
0
30
0
0
27
0
0
12
6
0
9
0
0
9
0
0
48
0
12
12
0
6
0
15
0
0
0
24
0
0
48
0
12
0
0
30
0
6
12
0
42
0
3
27
0
39
0
36
0
12
6
0
3
0
0
57
15
0
9
42
36
128
162
0
11
5
23
0
27
0
35
2
16
18
0
47
20
0
11
0
27
35
0
18
0
26
0
19
0
0
18
0
0
7
0
26
0
34
0
56
0
19
2
0
0
19
0
17
1
0
3
9
0
45
0
16
0
43
0
0
75
18
21
0
36
0
0
7
0
4
0
17
47
0
34
0
23
8
3
0
0
25
16
2
3
0
0
27
9
11
12
3
5
9
18
10
0
16
11
9
16
9
0
0
0
3
2
0
46
0
0
6
20
9
0
27
0
0
20
0
0
5
0
34
24
0
0
8
35
10
17
0
36
0
0
7
15
0
24
30
0
20
0
2
0
0
37
0
16
0
26
0
0
15
0
18
0
0
22
0
15
12
0
23
0
13
0
0
0
5
0
16
0
16
0
0
0
0
20
0
0
3
0
15
0
1
3
14
33
5
7
0
9
0
10
18
0
10
8
22
0
31
7
2
0
22
1
21
0
0
49
0
0
43
1
3
0
20
19
0
17
0
6
4
0
11
6
0
39
6
0
18
0
15
19
15
0
20
0
9
0
3
19
8
0
19
0
16
0
42
0
0
0
24
0
0
1
28
8
48
0
0
6
0
0
0
20
20
0
10
23
16
3
0
4
0
10
21
0
0
22
21
4
10
0
19
0
4
34
0
0
26
9
0
14
0
26
0
2
17
0
6
0
38
0
35
0
13
13
0
0
7
6
8
9
0
0
2
45
0
0
0
0
24
13
0
0
32
8
18
0
15
0
11
14
0
0
24
4
0
23
0
16
18
0
16
0
0
22
0
22
0
0
30
0
33
11
0
25
9
0
0
28
21
0
17
0
0
0
33
0
0
16
0
13
2
0
5
0
0
0
36
0
0
0
0
0
24
0
20
8
6
0
0
0
20
14
17
0
0
14
0
17
0
0
27
45
10
28
5
10
0
0
0
11
2
1
0
18
0
0
0
0
0
0
0
0
14
0
8
0
40
0
15
10
2
10
0
9
0
6
4
36
0
0
0
0
32
0
0
11
0
6
38
0
0
26
0
3
18
10
0
13
0
0
0
0
0
47
0
7
17
0
10
1
19
0
0
0
26
0
0
49
0
19
5
0
28
0
3
8
0
36
0
5
29
0
32
0
39
0
6
0
0
0
0
0
97
77
72
110
172
185
128
164
21
0
0
14
0
0
0
1
0
0
10
0
0
0
0
5
0
0
9
0
0
0
0
15
14
0
3
26
0
5
9
5
0
0
0
0
0
0
4
0
8
12
0
0
5
30
0
0
42
0
16
0
21
0
23
0
3
22
0
0
0
0
35
8
2
0
31
0
5
0
0
25
8
0
0
28
0
0
0
0
11
24
1
0
9
0
22
15
0
2
0
0
10
0
0
13
0
36
0
4
5
37
0
3
5
0
0
28
0
0
19
9
25
0
0
8
0
0
39
2
0
1
17
0
0
0
0
0
16
5
0
18
0
0
0
15
8
0
0
31
2
15
17
28
0
0
0
0
20
7
11
0
0
0
0
50
14
19
7
0
23
0
24
2
27
26
14
1
6
0
27
0
13
19
0
5
0
38
7
0
3
0
12
32
0
0
1
0
0
13
11
7
0
0
0
0
4
0
0
6
0
17
0
0
3
0
18
0
2
5
28
0
5
0
0
0
0
0
18
0
3
0
16
17
0
0
0
0
41
0
0
0
0
0
1
0
0
0
36
0
5
0
21
0
0
11
0
0
26
0
0
0
2
14
0
0
8
0
9
4
0
31
0
42
0
22
5
0
0
0
28
0
0
16
3
0
0
31
22
0
0
0
2
35
0
10
6
0
0
14
14
0
38
0
0
0
22
0
10
0
2
0
4
0
0
0
5
12
19
0
0
0
0
51
0
18
0
19
7
0
20
0
19
0
12
0
38
0
14
0
22
8
0
0
0
0
18
0
31
0
0
24
0
0
0
0
9
1
0
15
0
0
1
15
0
4
15
0
0
0
0
0
20
0
5
8
0
0
14
0
0
0
0
0
12
0
15
0
0
27
40
15
0
6
10
0
0
0
19
0
2
27
0
0
0
2
3
0
0
0
0
0
0
30
4
0
21
1
9
10
3
0
5
0
0
0
16
13
16
25
31
4
1
0
0
0
17
0
0
34
4
0
35
0
14
0
0
2
4
0
20
12
21
0
1
0
15
0
6
0
0
0
32
0
0
0
25
0
0
10
0
3
25
11
0
8
0
28
0
0
8
23
0
0
47
0
3
0
0
41
0
0
0
16
8
15
0
30
0
36
0
0
6
0
19
0
0
0
24
0
0
16
0
14
19
37
48
49
19
0
77
160
0
38
0
11
25
4
0
0
28
0
48
0
6
20
0
0
43
0
0
37
0
25
0
4
0
0
9
0
0
0
37
15
0
13
0
24
0
18
11
14
0
0
3
0
0
0
17
0
10
0
0
0
16
0
8
0
0
0
0
0
67
0
11
0
30
0
37
1
69
0
34
0
0
0
22
0
18
34
0
0
0
18
0
28
0
8
0
0
0
9
30
22
22
0
21
0
1
12
0
0
0
76
0
5
0
0
0
39
30
0
7
0
0
0
0
34
0
0
0
0
10
0
8
0
0
35
38
30
0
0
0
31
44
0
2
0
39
0
23
10
0
0
0
25
0
21
15
0
0
1
0
0
43
6
0
0
0
0
0
22
0
23
0
5
0
10
0
0
6
9
0
0
0
34
0
4
17
0
0
16
0
24
0
22
0
0
0
1
0
12
0
19
8
15
11
3
0
9
0
27
6
0
9
12
0
8
0
19
2
0
34
0
45
0
0
20
9
0
0
5
33
0
0
14
0
16
0
18
47
0
0
25
11
11
0
9
16
0
0
0
16
0
22
0
11
16
0
13
8
0
0
10
31
0
0
0
13
2
0
10
0
0
0
24
0
14
0
0
0
12
7
0
0
31
3
0
0
0
0
0
24
2
0
0
6
30
0
24
0
5
0
0
5
0
0
1
12
1
11
9
0
0
0
0
0
24
5
9
40
0
0
9
0
0
0
10
0
0
2
0
0
23
6
1
12
0
0
0
0
0
27
0
0
6
18
11
0
0
0
26
0
0
0
2
0
2
7
3
7
4
6
2
0
38
0
47
0
15
0
39
4
0
0
0
0
0
0
0
0
0
8
0
12
22
27
9
9
19
0
0
0
0
0
14
0
4
32
0
0
10
0
7
0
6
12
0
7
6
6
0
0
0
0
0
52
19
1
0
10
0
0
3
3
5
17
14
9
11
8
13
31
28
20
0
0
15
0
0
0
13
0
5
16
0
0
8
49
0
0
7
15
7
0
12
7
46
0
2
13
13
24
0
0
0
0
27
0
20
2
40
0
0
34
0
0
0
16
21
0
18
0
0
0
0
22
6
0
30
0
3
4
28
0
0
5
0
0
0
0
0
0
0
6
11
11
0
8
0
36
5
0
34
22
24
42
46
30
0
0
0
58
159
7
0
0
0
1
0
0
0
16
14
11
0
0
0
0
3
0
0
0
4
0
0
0
3
3
0
0
3
0
0
0
1
18
0
0
0
0
10
0
7
0
0
0
34
12
11
0
0
37
0
34
0
4
32
0
2
52
0
17
0
21
0
40
0
3
0
0
0
0
0
0
0
25
0
0
0
33
0
32
13
0
0
0
0
9
9
33
0
6
0
0
7
0
0
23
0
0
3
0
13
0
2
0
0
16
4
0
0
0
0
10
15
13
25
14
20
32
27
0
31
1
0
0
45
0
0
0
0
37
0
0
0
0
0
10
0
3
0
11
0
18
45
0
25
27
15
21
0
27
4
14
18
0
0
0
31
19
0
1
0
0
0
0
0
3
4
0
24
0
0
0
0
18
8
0
0
0
0
0
0
10
2
6
0
1
8
0
0
0
9
19
0
20
0
11
0
0
0
5
0
0
0
9
0
23
12
0
42
41
0
0
51
14
0
0
55
7
14
10
11
7
0
0
0
0
24
21
0
0
0
0
0
21
0
0
0
7
17
0
17
14
0
9
4
6
16
0
3
23
0
0
0
16
4
5
9
25
0
0
0
19
5
9
7
0
4
16
4
0
34
3
0
14
4
0
0
19
15
15
0
16
0
49
0
3
27
0
3
10
5
10
15
30
0
15
3
9
0
17
0
0
48
0
20
0
0
0
0
0
5
0
39
0
12
34
11
0
0
39
0
0
37
11
33
10
0
45
8
15
0
0
0
55
0
1
0
4
0
30
0
0
26
0
28
23
0
4
0
0
22
10
0
0
0
0
3
0
2
0
5
0
0
44
0
0
2
0
14
0
0
4
0
0
0
0
7
2
0
7
16
0
0
0
0
0
9
0
5
0
0
0
49
4
13
15
6
0
16
0
24
0
0
0
0
4
26
17
8
0
1
18
4
0
0
0
0
0
11
11
11
21
19
27
0
0
0
0
4
0
36
0
27
0
22
0
6
2
0
0
1
0
0
0
14
0
14
0
0
0
13
7
37
0
32
11
7
21
0
8
0
8
26
0
0
3
26
10
0
33
15
0
12
6
0
31
0
0
17
0
0
0
0
9
0
14
24
30
0
12
15
32
4
10
0
3
0
9
0
24
15
0
21
40
37
0
0
0
0
0
0
47
155
0
10
7
13
27
1
0
39
0
4
18
21
0
14
21
5
0
59
19
18
0
21
0
23
14
0
3
0
0
29
0
6
2
0
0
16
0
43
0
22
0
55
0
9
0
0
21
10
0
0
12
0
0
17
0
0
29
0
44
0
12
0
71
0
5
0
0
0
25
19
22
0
49
0
22
17
0
0
0
0
41
26
3
17
0
15
17
0
0
29
1
25
0
34
0
0
33
83
0
12
14
0
55
0
27
0
20
0
0
26
0
6
0
0
14
0
0
24
0
14
0
51
0
10
0
31
16
0
0
0
11
12
0
31
17
21
0
25
20
2
6
0
0
14
0
0
13
0
0
16
0
0
0
17
0
0
29
0
73
0
19
6
0
10
0
0
0
0
0
0
35
0
0
0
0
7
0
27
0
24
0
9
12
0
0
64
0
21
0
8
0
0
0
16
15
13
12
10
19
16
0
6
0
0
51
0
15
14
0
22
0
19
0
39
16
0
0
0
5
0
0
15
3
2
16
22
0
60
0
23
17
0
22
20
27
27
6
14
0
7
23
0
14
0
0
17
7
0
0
19
3
32
21
21
0
0
0
27
0
14
8
0
0
15
0
0
26
6
0
16
7
0
0
41
0
0
0
24
9
0
3
15
0
25
0
15
0
9
6
16
0
0
0
5
16
4
29
3
0
1
0
21
0
12
33
0
44
15
0
25
0
0
0
0
0
0
32
21
2
0
0
4
0
0
0
0
22
2
0
0
34
0
33
0
0
1
2
0
0
17
0
0
0
0
5
0
3
1
1
0
0
0
6
1
15
0
14
0
0
0
26
4
33
0
19
22
29
0
14
17
0
22
25
0
0
7
6
0
7
0
13
28
13
3
13
15
0
0
16
5
0
0
4
0
0
7
0
26
0
0
12
5
0
0
0
19
4
8
0
13
0
0
9
0
11
0
0
17
4
14
0
23
15
22
0
0
0
0
31
10
0
13
0
12
0
0
3
46
8
0
52
0
19
0
4
41
0
0
13
0
0
0
9
11
14
0
0
0
2
0
4
8
0
14
4
0
0
0
12
0
0
13
23
0
2
0
0
9
0
32
8
0
0
12
22
0
18
0
14
3
0
5
14
0
0
12
39
0
8
15
50
49
0
1
0
0
0
0
0
0
49
155
0
0
5
0
0
0
0
29
0
0
0
0
2
14
0
7
0
0
0
0
8
2
0
0
9
0
14
3
0
9
25
0
0
0
42
23
0
0
0
18
0
5
0
0
17
0
11
14
24
4
5
40
0
0
19
18
0
3
0
0
12
0
3
0
6
2
21
0
0
0
0
0
0
19
18
0
0
0
0
36
0
7
0
0
8
1
64
1
0
10
1
6
0
0
0
0
18
0
0
0
35
0
0
0
0
0
35
4
5
0
0
0
0
28
0
0
14
34
0
5
11
0
0
15
0
0
8
0
25
0
9
0
0
17
0
5
0
0
0
0
0
56
0
9
7
0
0
4
0
0
13
16
27
0
0
2
0
0
15
0
7
5
0
11
0
5
10
31
0
24
6
27
41
2
0
10
0
0
6
65
0
13
18
19
0
32
34
0
38
0
0
62
0
0
0
0
0
13
2
0
0
0
26
5
0
0
0
18
0
29
0
0
0
5
0
3
0
16
0
13
0
4
0
0
23
25
0
0
0
1
15
0
0
0
0
0
0
11
3
0
0
0
5
9
0
11
0
1
21
0
0
0
0
0
9
0
9
37
0
0
8
26
0
11
34
0
39
0
0
15
0
19
0
35
0
18
7
0
0
0
0
10
0
0
10
0
0
21
0
16
0
11
0
0
0
0
18
0
0
0
24
0
0
0
28
2
36
0
5
6
17
0
12
0
0
0
25
0
35
0
0
0
11
3
12
0
0
0
0
9
0
0
12
0
0
16
0
11
0
9
12
11
0
15
0
25
11
1
21
9
0
0
47
0
17
0
0
1
0
20
0
0
0
0
0
0
8
0
10
2
0
0
0
0
0
0
0
3
16
0
0
0
0
12
0
11
15
0
37
0
7
0
32
4
0
44
0
2
5
0
12
33
0
0
0
24
13
15
12
12
4
4
5
2
6
0
0
0
10
7
25
32
13
25
0
0
0
0
0
0
13
11
22
1
12
21
3
0
0
0
19
0
16
0
7
9
0
33
0
0
71
40
0
6
0
0
1
23
0
32
0
5
6
22
0
0
1
13
33
3
0
0
22
7
0
25
10
37
0
0
0
10
29
0
0
0
6
0
9
6
0
0
0
14
14
0
14
0
6
24
30
0
35
40
0
0
0
10
0
0
44
156
1
0
24
0
1
14
0
21
8
0
0
21
0
20
0
0
20
0
16
21
0
17
1
0
0
8
0
3
34
0
0
11
7
0
0
0
0
27
0
29
0
0
0
2
15
17
0
0
0
0
5
0
3
9
0
0
18
0
46
43
45
7
0
0
0
0
0
3
13
31
34
75
0
0
2
2
0
28
6
3
0
0
13
4
5
0
0
0
18
43
11
0
0
0
0
0
9
0
0
23
42
4
21
19
0
0
0
0
16
36
0
16
29
25
27
0
13
0
0
0
0
0
21
0
0
35
12
0
5
37
0
0
0
0
0
44
0
25
19
0
0
4
0
0
0
20
2
38
8
0
20
0
14
0
11
0
0
27
0
0
0
32
0
30
0
41
0
0
5
0
0
0
0
0
3
0
18
19
0
0
0
0
0
9
0
0
0
0
24
0
0
0
44
0
0
0
0
0
3
26
0
34
0
26
0
10
9
0
0
36
0
50
0
0
7
4
0
13
0
0
0
0
0
27
0
0
0
0
0
0
0
37
11
5
10
11
16
0
0
31
0
0
0
0
0
0
0
22
0
0
0
25
0
0
2
0
1
0
0
25
0
9
0
0
0
0
9
15
3
0
6
0
0
20
0
5
0
7
9
0
18
0
0
11
6
0
0
16
0
21
0
29
0
3
6
1
8
16
8
14
40
0
2
0
0
0
22
0
0
0
27
11
0
11
28
12
0
12
0
27
9
0
0
4
4
25
10
3
19
26
0
1
12
10
0
26
0
24
10
17
0
34
0
0
23
0
0
0
11
0
0
3
12
0
21
25
6
11
0
11
24
2
19
1
14
18
0
0
7
0
3
13
3
1
42
0
14
16
13
6
15
1
0
0
33
0
40
0
10
11
25
0
0
6
0
0
0
11
10
16
0
0
0
0
0
0
28
15
17
4
0
11
0
11
0
6
0
0
10
3
9
14
19
20
31
13
0
0
0
0
7
0
0
0
0
13
0
14
0
28
21
0
3
0
0
13
21
2
0
0
0
0
0
0
0
0
0
6
3
0
0
0
0
0
13
8
16
0
2
0
36
0
0
0
0
0
4
15
4
0
0
0
0
17
0
34
25
0
1
0
0
0
0
12
41
0
12
22
38
0
38
8
0
0
0
0
38
0
0
35
51
156
0
0
15
21
0
0
0
28
0
0
4
0
0
0
2
0
20
13
0
9
0
0
0
15
0
0
4
13
9
2
0
0
7
0
0
40
0
0
0
0
0
6
8
8
9
11
23
38
19
16
0
13
36
26
0
3
0
0
0
0
0
0
30
0
0
0
21
0
0
0
0
30
0
7
25
0
0
6
0
0
0
10
4
0
1
22
15
16
0
0
2
9
5
29
6
3
55
0
0
0
0
0
0
19
0
22
19
0
0
0
0
0
0
0
0
30
0
34
8
0
13
0
18
8
0
41
0
0
0
25
0
38
0
28
0
0
0
0
0
0
0
45
0
4
19
1
0
0
37
3
12
8
32
0
13
0
0
16
5
0
34
82
5
0
2
0
12
0
0
0
10
0
10
7
0
2
7
12
0
26
21
0
10
0
29
2
16
0
0
0
41
2
0
0
0
28
0
44
0
16
0
20
0
0
8
0
22
0
0
21
0
3
0
0
5
0
5
40
14
4
26
30
32
0
0
7
0
55
0
22
0
0
4
0
47
0
9
0
13
0
9
5
3
4
62
1
6
0
26
0
0
44
0
7
1
0
0
46
0
27
0
36
0
35
0
15
0
0
9
11
0
17
9
0
3
7
15
0
9
0
31
7
9
0
3
52
0
27
23
61
44
32
2
6
9
22
9
17
0
0
2
0
0
29
9
18
13
0
0
14
14
0
0
0
33
0
0
0
12
0
13
0
32
0
0
0
0
12
14
0
3
0
0
15
0
0
0
0
15
3
0
18
0
0
0
8
0
0
44
0
6
0
0
0
0
0
9
0
0
0
0
0
0
4
0
0
19
8
0
0
0
5
0
6
0
0
0
10
0
22
0
0
0
0
0
0
10
0
0
0
13
11
13
0
35
0
0
0
0
0
21
0
0
0
0
0
0
0
18
0
6
14
0
0
0
0
4
0
24
1
4
18
10
13
20
7
0
0
0
20
0
0
0
35
4
18
0
3
0
14
15
0
0
36
0
16
0
0
7
33
0
0
23
0
8
20
7
0
5
0
0
0
28
0
0
2
13
0
23
9
13
9
38
2
14
0
7
0
0
1
0
15
0
0
2
0
2
0
24
0
14
34
0
0
12
18
48
0
24
9
0
0
0
0
0
0
0
12
0
0
48
158
10
0
0
0
0
41
0
37
0
23
0
0
0
0
113
0
0
52
0
10
6
20
32
0
19
0
0
0
0
0
22
3
0
31
27
0
0
9
36
8
0
10
0
0
0
0
25
0
19
0
0
24
0
23
0
0
0
16
0
9
8
0
0
9
18
0
7
0
0
53
16
0
2
0
0
3
8
31
6
0
0
0
0
0
23
0
0
0
0
30
0
0
0
12
0
0
0
16
1
0
0
0
0
23
16
0
29
0
5
0
1
4
17
0
0
1
0
8
0
1
43
0
35
34
0
0
0
0
29
0
0
2
0
79
0
9
0
18
8
0
8
2
16
0
24
0
0
0
0
0
9
0
19
14
0
0
0
32
0
0
13
0
30
21
34
0
13
14
0
0
0
0
0
8
8
0
0
6
0
0
12
19
7
17
0
0
15
0
2
0
0
0
37
3
5
0
0
0
0
35
0
1
6
39
0
17
2
1
5
25
0
0
32
0
20
0
2
0
0
1
0
0
23
0
22
14
0
0
0
9
29
0
4
27
0
0
16
0
16
0
20
4
21
0
0
0
26
0
22
0
0
66
0
8
12
4
0
4
0
0
0
31
0
0
55
12
11
0
11
3
4
0
0
0
21
0
15
1
0
5
0
5
24
1
0
41
0
4
49
0
56
0
0
0
0
0
0
13
0
26
34
0
0
0
29
11
0
0
0
4
18
0
15
0
15
20
22
0
8
0
28
0
0
0
0
0
28
0
0
0
43
0
28
0
11
0
0
0
0
37
0
0
6
0
4
18
0
0
7
0
40
0
0
6
0
9
0
0
0
18
27
0
24
9
15
0
7
0
32
0
26
9
0
18
0
0
15
0
14
0
25
12
7
0
28
4
0
0
48
0
0
0
16
0
5
5
0
40
0
64
13
0
15
12
3
0
8
12
42
17
4
14
6
0
27
3
24
0
4
0
14
21
15
21
16
17
5
0
0
0
13
0
0
0
0
6
0
31
0
0
0
32
6
8
0
1
4
20
0
0
27
8
0
0
0
43
0
0
17
0
33
0
0
59
0
15
0
0
4
0
0
0
0
0
0
29
0
0
0
0
11
10
0
0
0
0
10
0
30
0
0
15
0
0
57
0
37
55
38
43
0
0
0
0
0
27
0
18
0
0
50
157
0
0
0
32
0
0
0
17
0
0
13
0
0
0
18
6
0
16
0
21
38
0
8
0
15
0
15
8
22
17
0
0
0
0
0
8
0
0
0
17
1
0
30
12
5
0
12
0
19
0
0
8
0
24
0
10
0
0
32
0
0
0
0
34
0
0
11
46
0
0
0
11
18
0
17
6
0
32
2
4
0
36
29
0
0
11
0
46
9
0
19
15
6
34
3
0
0
9
3
39
0
4
22
24
8
0
9
6
0
20
34
17
0
0
1
13
0
0
0
0
0
0
15
11
0
15
0
0
20
0
17
0
0
15
0
5
0
6
5
10
0
25
0
19
0
14
23
20
0
29
1
0
10
0
0
22
11
24
0
0
91
22
45
0
23
0
11
0
11
8
6
27
34
0
27
0
46
13
0
0
0
0
33
1
0
0
0
28
6
35
0
0
0
0
25
4
0
38
10
0
0
0
12
0
0
31
0
15
0
0
0
4
0
25
0
0
0
39
20
0
8
0
0
0
0
0
24
17
0
0
18
2
0
0
6
0
28
0
6
37
20
0
0
39
0
0
0
28
0
0
0
7
0
0
2
17
11
13
4
0
0
6
0
0
62
0
42
2
0
0
11
0
0
44
0
13
0
9
3
0
0
33
0
0
34
0
24
0
62
0
72
0
27
4
0
13
32
0
6
0
2
0
40
29
0
1
13
0
40
22
0
0
42
0
0
0
0
7
26
11
32
0
0
0
0
0
13
23
44
3
43
0
4
0
0
23
17
0
0
0
22
3
2
17
0
0
0
25
0
0
0
0
0
0
40
0
0
12
0
15
0
2
8
0
0
2
8
0
25
0
0
59
0
25
0
0
29
0
0
4
2
0
17
0
13
0
0
23
0
0
36
0
0
12
9
0
0
6
0
0
0
5
0
0
0
0
0
0
11
8
0
0
0
1
0
0
0
0
7
2
24
0
32
7
29
19
0
0
0
0
19
0
22
60
45
0
29
11
0
0
61
0
15
5
0
38
0
0
33
0
8
0
19
0
24
28
0
13
18
27
30
0
0
22
0
17
0
4
34
1
11
22
6
0
0
10
0
0
5
0
34
33
8
0
22
36
3
0
0
0
0
7
37
3
42
8
9
40
42
0
0
5
85
0
0
0
0
0
9
0
50
158
1
14
0
0
8
12
0
4
0
0
32
1
5
0
0
0
21
0
0
0
0
0
6
0
26
0
0
0
0
0
0
7
0
21
10
9
0
24
0
0
0
0
7
0
24
7
0
8
0
0
19
10
0
31
12
0
44
0
8
6
84
3
4
0
0
29
0
0
29
32
3
3
16
0
20
2
0
13
0
0
8
0
4
0
9
26
0
0
79
0
0
0
0
1
5
39
0
1
0
2
0
0
0
3
0
18
14
6
2
0
20
0
12
0
0
11
14
0
19
0
29
0
0
0
0
43
0
10
0
0
20
9
0
0
0
0
0
35
0
23
0
30
0
16
0
0
12
9
0
0
0
1
5
12
0
35
0
0
17
0
4
0
10
0
0
0
0
0
0
0
47
0
0
4
6
0
0
0
0
31
8
17
0
7
0
0
21
21
6
0
0
5
0
2
0
34
3
18
3
1
7
16
34
0
22
45
0
19
0
0
29
20
0
10
0
33
0
4
0
21
0
19
0
24
0
27
25
0
0
16
0
16
5
0
6
0
27
0
0
15
0
0
32
0
0
29
0
44
0
1
0
0
8
16
6
0
0
46
0
0
15
5
0
0
0
0
0
45
0
0
30
0
0
29
0
7
0
0
25
0
0
19
0
0
0
0
7
1
50
0
68
0
9
14
0
42
10
0
21
0
52
0
0
0
0
0
51
0
0
0
2
0
9
35
0
38
0
0
29
0
2
0
23
0
0
6
0
0
0
0
10
1
16
11
0
0
0
8
0
0
10
0
36
6
0
23
10
5
0
2
3
10
16
5
6
0
1
31
15
12
0
23
20
14
20
0
0
0
0
5
6
0
0
0
10
13
0
23
8
0
3
0
11
0
7
0
0
0
0
0
5
15
0
13
8
0
6
7
6
0
0
36
17
6
30
0
0
0
22
29
8
22
0
15
12
0
4
2
0
0
0
7
7
8
26
30
51
0
0
0
9
0
2
0
0
0
12
2
0
13
6
0
0
7
0
7
0
24
19
0
10
12
0
0
2
14
0
0
0
0
0
19
3
17
0
0
0
0
20
12
0
0
24
10
1
43
9
0
6
7
0
0
0
0
0
0
0
0
36
0
2
0
26
16
23
8
25
22
0
0
0
0
160
0
16
28
4
52
16
0
51
158
5
17
3
0
10
6
0
17
18
15
25
0
0
0
126
0
0
3
18
0
9
0
18
0
25
0
53
0
11
0
0
28
0
0
0
13
0
17
10
8
20
27
8
0
0
0
13
13
0
11
0
0
0
3
15
0
15
0
0
0
0
0
54
11
0
22
0
20
2
0
0
0
5
34
0
25
0
30
3
15
0
25
0
16
0
0
0
0
16
10
0
15
0
12
0
31
24
0
0
0
13
15
18
25
0
1
0
0
0
29
0
0
0
0
0
0
4
3
20
13
0
26
5
19
6
54
0
0
0
16
0
6
26
32
0
0
19
22
0
0
11
0
29
0
0
41
0
0
6
0
10
0
3
0
0
0
30
19
0
0
30
10
0
0
26
0
3
0
0
32
0
0
23
0
0
7
8
0
0
0
0
0
0
0
0
0
46
0
8
0
38
0
15
5
38
0
0
24
0
0
0
0
23
3
0
0
0
0
12
0
21
0
28
0
7
11
0
0
0
1
0
50
0
12
17
0
0
9
2
2
13
0
0
30
24
0
10
0
7
6
0
2
7
0
3
3
10
18
0
0
0
33
34
0
0
11
0
0
21
0
29
0
9
6
24
20
22
14
0
0
21
0
1
0
0
0
13
0
0
17
8
0
19
17
21
9
31
0
7
32
0
0
10
14
0
0
0
0
60
0
5
5
32
27
51
0
30
0
0
8
2
0
0
11
0
21
0
89
0
5
35
0
0
0
13
0
4
0
6
13
29
0
13
5
6
22
14
3
0
17
0
6
0
0
0
0
17
0
6
28
9
5
0
9
0
9
0
0
0
10
11
10
0
0
0
0
2
10
25
0
0
0
5
0
0
19
0
5
0
7
3
21
22
0
0
65
12
0
0
0
0
0
0
0
0
0
16
0
9
15
0
0
14
0
0
5
0
0
14
17
6
0
0
0
0
2
0
6
6
1
0
10
14
4
8
3
37
7
29
0
0
0
32
0
26
0
0
0
0
40
0
25
0
2
10
31
26
0
0
5
0
31
33
0
11
0
4
11
47
12
18
0
1
26
0
9
14
0
0
26
0
0
21
0
0
0
0
15
0
6
0
3
2
29
0
6
20
0
7
0
29
60
44
18
16
25
12
0
0
7
0
0
6
0
0
0
0
47
0
50
48
156
0
0
1
12
1
21
0
0
0
0
0
13
12
0
0
0
10
0
31
0
14
0
21
4
0
0
20
0
9
37
0
0
0
1
0
37
0
5
0
0
4
5
0
0
8
12
0
18
18
30
0
0
21
19
7
0
13
46
21
58
48
0
0
3
0
0
0
13
0
14
0
0
0
11
0
0
0
0
0
7
40
39
0
32
0
38
29
0
13
0
0
25
0
45
0
0
4
10
21
0
0
8
0
0
12
6
0
12
1
0
0
0
29
13
34
0
35
2
1
0
34
0
30
0
0
16
0
23
0
21
3
0
0
7
0
0
0
3
0
13
0
14
0
34
1
0
0
0
40
0
0
0
12
0
36
0
0
0
16
0
15
0
39
21
0
17
17
0
0
67
0
5
15
12
9
0
9
13
5
5
27
21
0
51
0
0
20
0
0
0
8
0
0
0
0
0
14
0
0
0
9
0
0
10
0
15
13
1
21
0
22
1
0
0
0
40
0
38
11
22
0
5
0
0
0
14
28
2
0
11
5
0
26
0
0
2
0
3
0
15
0
29
4
0
0
40
8
0
13
5
8
5
0
0
0
5
11
8
0
0
38
0
0
0
0
0
0
14
0
0
1
13
20
14
0
6
6
0
5
26
0
0
5
6
0
1
0
5
0
4
0
13
0
0
0
2
0
0
0
0
9
0
3
0
0
0
19
0
0
5
52
0
36
39
0
2
0
53
33
0
0
16
6
6
0
0
0
19
4
0
0
0
5
0
0
4
0
13
0
7
23
0
12
0
17
30
42
0
14
0
0
0
6
20
0
18
4
0
27
0
0
0
44
0
13
31
0
0
0
7
0
24
14
9
31
15
0
2
0
0
9
0
0
0
0
0
0
10
16
0
5
33
0
0
6
5
0
0
6
0
13
0
0
0
28
36
0
0
0
4
40
10
18
3
1
6
0
0
11
11
7
5
3
26
7
20
35
28
19
0
0
0
2
0
0
45
0
0
3
51
0
3
0
0
0
0
7
22
13
5
0
9
0
0
1
0
31
0
0
0
0
41
0
0
24
0
6
10
5
0
0
0
7
0
31
18
10
0
30
5
24
31
0
5
13
18
0
3
1
36
16
28
1
21
0
15
0
0
0
9
0
0
28
0
11
10
12
0
0
10
53
157
4
0
0
21
0
0
0
0
21
23
18
0
0
0
0
0
0
0
1
5
0
8
9
10
0
9
0
0
11
19
0
0
5
1
15
7
0
0
4
0
3
0
0
0
20
0
0
5
0
0
3
0
14
0
0
9
0
0
0
0
0
0
14
0
0
10
5
0
0
19
18
0
0
35
0
74
0
0
0
41
0
0
0
0
0
6
36
18
1
19
14
0
10
43
11
0
12
0
0
2
8
0
0
9
2
6
0
0
13
0
44
0
0
0
2
0
20
0
30
10
0
0
0
0
48
0
0
11
0
0
0
0
0
21
29
14
13
0
17
0
3
1
0
0
0
8
12
7
0
4
7
2
25
21
0
5
0
0
0
0
0
0
19
20
0
18
0
23
0
0
10
0
12
0
0
93
13
0
0
0
16
0
0
7
0
0
2
14
43
3
4
17
7
0
13
0
84
0
11
4
3
0
0
2
16
14
11
0
22
18
31
13
21
12
0
58
0
0
13
27
0
43
0
17
2
9
0
0
35
0
0
12
10
0
13
21
0
0
4
0
26
19
0
2
0
5
3
0
0
0
0
0
10
1
0
0
43
0
13
0
0
0
3
31
13
12
2
0
0
34
9
0
45
3
0
0
6
6
6
0
7
0
0
0
19
0
7
21
5
28
0
0
18
0
1
26
9
19
24
0
64
0
33
7
0
5
23
13
32
9
0
0
0
0
0
0
3
32
0
5
0
66
0
28
8
11
0
8
0
0
5
46
10
73
0
20
0
0
0
16
0
0
32
0
0
0
0
0
25
16
8
0
10
0
0
0
7
0
10
0
30
0
3
0
1
0
12
0
30
23
0
22
17
0
0
0
0
24
6
0
8
7
14
0
0
20
0
24
25
0
0
24
0
1
0
9
26
0
0
0
0
0
15
0
0
0
13
0
0
15
20
9
27
2
5
14
14
0
0
0
10
0
7
9
3
12
23
13
50
0
0
0
0
65
4
0
0
5
4
6
10
1
0
18
26
17
0
4
0
21
0
3
0
29
0
0
0
10
19
9
0
42
0
0
0
16
0
15
13
24
49
2
0
17
0
0
0
0
11
0
0
0
4
0
10
0
0
8
15
0
23
32
31
13
4
0
0
0
30
0
0
18
0
16
21
0
1
0
0
0
53
157
9
28
0
11
8
0
0
20
0
0
0
2
15
33
0
15
6
16
25
0
0
0
4
0
13
3
27
32
13
7
3
26
11
7
2
16
3
0
22
0
27
0
0
7
15
0
0
41
0
5
8
18
0
4
2
0
20
0
0
0
0
0
0
0
55
22
0
53
0
3
27
0
16
24
38
0
0
5
8
0
10
0
0
33
0
0
0
0
0
35
0
0
3
0
5
0
0
11
0
0
4
35
26
0
0
25
0
0
43
0
32
0
0
0
0
0
5
26
0
0
0
31
2
0
0
19
3
0
0
26
20
0
0
9
0
4
0
9
10
8
29
0
22
0
52
0
0
0
0
2
2
0
10
0
7
0
27
0
17
0
16
0
0
22
0
0
0
0
32
0
20
0
24
0
0
0
0
41
35
10
0
0
11
0
1
49
0
14
21
0
14
0
44
0
0
0
0
13
34
0
11
5
28
0
45
0
0
0
0
0
0
25
6
0
0
65
0
0
0
0
0
7
0
0
0
37
0
40
2
0
0
0
0
0
0
0
25
0
26
0
21
6
12
11
0
0
6
0
3
0
0
9
28
0
0
1
0
0
0
16
17
25
0
0
0
0
12
0
26
0
0
0
0
0
44
18
0
0
11
8
0
0
9
0
0
0
0
3
11
0
7
0
0
0
12
15
0
0
0
0
0
1
0
13
0
14
0
2
0
8
17
0
0
17
0
0
21
15
0
20
0
33
0
0
17
0
0
3
17
0
24
0
0
0
0
0
11
23
17
0
17
20
1
0
0
35
0
0
0
0
20
3
1
0
13
0
37
1
17
0
11
0
0
20
0
9
39
0
0
5
0
0
0
13
14
23
29
0
5
16
1
0
1
14
0
32
0
0
24
7
0
7
22
19
0
0
0
0
0
27
7
0
0
0
0
0
0
0
0
0
1
13
23
2
4
0
2
16
0
4
0
12
0
2
31
0
1
37
0
0
22
0
0
0
0
31
12
0
3
0
26
0
59
0
19
21
0
1
0
0
18
21
37
0
17
66
0
44
21
0
0
3
4
0
0
84
0
3
0
0
0
14
0
3
0
26
0
0
1
19
0
38
0
0
0
13
0
22
45
10
23
12
0
36
0
0
0
0
0
41
0
2
0
16
0
13
0
29
38
0
50
154
0
0
0
0
30
10
0
10
0
18
0
38
0
6
0
7
2
12
0
20
0
1
28
4
0
0
0
0
0
0
10
0
2
2
0
0
0
0
15
0
12
0
2
41
0
12
0
26
16
2
6
0
0
32
0
19
14
51
58
56
10
82
33
0
26
0
0
0
0
24
5
0
12
0
0
48
0
0
0
7
20
34
9
0
59
5
15
17
0
0
4
0
45
0
22
48
0
58
15
0
0
9
0
13
17
31
0
20
1
0
0
35
26
48
20
0
4
0
0
39
5
26
0
1
0
24
0
17
23
0
1
7
8
16
12
0
12
0
0
0
0
11
16
0
26
0
11
46
10
0
8
0
32
0
0
0
4
15
18
0
0
0
19
0
4
0
28
0
0
0
27
0
18
11
6
0
1
0
5
0
15
22
0
31
0
2
0
0
0
0
0
0
0
0
2
0
0
46
7
16
11
0
1
2
0
7
15
0
3
8
0
0
0
8
23
16
0
0
7
14
27
8
18
7
0
37
0
33
0
7
84
0
0
34
0
0
29
0
0
0
14
0
0
0
23
34
0
0
0
29
0
0
12
0
19
16
9
0
38
0
0
0
50
83
0
0
0
0
10
1
11
8
19
0
5
2
2
0
42
0
0
58
0
44
0
53
0
0
0
26
0
30
13
18
0
34
0
0
2
19
20
9
2
0
0
55
0
0
19
0
0
0
0
24
0
0
12
4
0
9
0
42
0
26
0
0
0
8
0
0
0
0
10
21
0
5
31
0
15
0
14
1
0
15
0
0
6
3
6
0
26
0
15
0
20
2
0
0
0
26
25
0
0
7
0
7
0
0
0
6
13
14
0
15
0
0
6
3
0
0
17
0
0
0
5
0
3
0
0
18
0
0
0
0
13
0
0
26
0
0
0
5
30
16
8
1
0
16
0
0
0
23
12
10
11
10
9
0
10
7
0
0
0
0
1
5
14
24
31
34
0
0
0
0
0
0
0
0
0
0
0
0
16
0
0
8
0
11
4
37
0
22
0
0
0
0
0
0
6
0
22
7
1
0
28
0
0
0
3
0
38
0
0
17
26
23
0
0
0
9
0
25
6
12
8
0
3
15
16
36
0
27
0
0
0
0
0
11
0
0
16
0
0
81
0
29
0
0
0
0
52
156
10
0
47
0
0
0
0
21
3
24
0
3
0
13
33
0
31
0
18
0
0
32
22
0
0
6
33
6
0
0
0
0
0
0
8
3
0
14
41
11
0
0
0
0
7
16
0
0
1
2
6
0
0
24
0
17
0
0
9
5
11
70
47
9
0
53
0
0
0
0
0
0
0
28
0
1
24
23
0
0
0
16
0
0
32
2
2
0
0
0
0
19
4
0
0
12
26
0
9
2
4
0
0
0
12
0
0
1
0
0
0
36
0
0
0
0
0
0
0
22
0
1
0
0
0
24
0
0
1
0
0
0
0
5
0
10
13
0
21
0
0
0
2
0
0
20
2
0
0
10
30
2
0
11
22
23
0
0
0
0
9
0
0
11
0
32
19
0
25
0
0
13
0
0
0
4
26
0
10
0
3
0
13
0
4
0
19
0
12
11
0
41
0
12
0
2
0
6
0
0
9
8
0
29
0
0
23
0
0
0
36
0
0
14
0
17
4
0
0
48
21
13
0
2
0
12
0
27
4
0
11
0
0
7
0
0
41
0
27
19
0
15
13
7
0
0
17
28
0
0
0
0
14
0
6
17
0
0
64
0
0
0
0
69
15
0
40
36
0
0
0
1
0
0
31
0
13
3
54
21
0
0
0
0
0
0
0
0
16
0
10
0
2
11
0
17
0
0
0
11
0
0
0
37
6
0
13
0
40
1
0
128
0
10
24
19
0
18
27
0
6
0
0
21
0
0
0
6
6
9
13
18
6
0
0
17
0
0
6
0
24
0
0
0
13
14
0
0
4
0
10
0
25
0
12
0
31
27
12
0
0
22
29
0
14
0
0
11
3
0
0
17
0
14
0
18
0
55
26
0
0
21
19
14
0
15
0
3
0
8
0
0
24
0
32
1
36
16
12
13
0
0
10
2
0
13
0
63
9
0
0
6
21
18
12
0
0
13
5
5
0
7
6
17
29
23
0
6
11
35
21
5
0
0
58
36
9
0
29
44
4
2
0
19
29
0
12
0
16
2
0
5
0
4
2
2
7
0
38
0
0
28
1
0
0
0
0
0
13
0
14
0
0
0
0
0
2
15
0
7
0
10
0
0
28
25
0
24
33
22
44
24
0
0
26
0
0
54
144
11
9
0
0
75
7
0
28
0
50
0
52
155
0
0
0
5
8
15
0
20
0
0
41
9
12
0
0
0
0
5
0
8
0
0
0
2
25
0
0
30
0
11
31
21
3
15
0
21
0
0
12
0
3
7
20
1
6
0
3
0
30
0
25
13
0
70
0
9
0
0
0
0
0
0
0
0
0
64
0
0
25
0
25
22
0
39
0
12
22
0
0
88
0
2
12
0
0
1
50
0
10
51
20
0
0
17
0
0
43
0
7
0
2
0
1
18
6
0
0
17
0
14
0
24
0
0
23
22
0
47
8
0
45
6
20
2
31
0
0
0
17
34
0
0
23
0
0
6
0
0
13
21
0
11
0
0
33
6
14
0
0
0
0
19
0
11
0
0
0
21
0
0
0
0
16
2
1
0
0
0
2
0
23
0
0
28
18
0
4
15
0
0
0
0
27
0
12
0
21
18
0
0
36
2
0
0
7
33
7
21
24
1
0
24
0
4
0
0
17
105
0
1
0
23
12
3
0
12
0
11
0
48
0
0
5
28
0
8
4
0
4
0
0
24
0
1
3
0
22
0
0
0
0
3
0
18
3
12
21
59
25
0
39
29
0
4
0
0
37
0
2
44
0
0
5
0
14
0
0
0
0
33
0
33
16
0
0
17
0
0
0
0
18
16
0
0
0
0
9
31
0
0
6
0
0
18
0
0
15
28
13
0
17
0
0
0
12
0
6
0
0
0
0
70
0
17
0
0
0
7
2
5
0
10
0
45
9
28
0
16
4
0
0
18
0
19
0
0
58
0
11
0
0
0
17
11
18
0
8
0
11
20
38
0
13
0
9
0
0
2
0
0
0
0
0
0
0
5
17
0
16
6
0
0
20
0
1
7
0
0
0
3
2
5
0
18
0
51
0
0
0
8
0
0
5
0
0
0
0
0
2
2
15
0
11
21
0
3
11
0
0
0
0
0
21
0
23
19
2
1
0
0
2
1
0
0
0
1
0
26
0
41
19
0
0
0
0
8
48
0
0
5
0
4
0
18
11
0
22
0
4
28
0
17
24
33
33
0
19
0
16
48
12
21
26
0
30
17
27
0
7
45
43
0
0
25
0
21
2
0
25
0
8
0
26
0
5
47
17
58
23
21
0
0
0
0
0
6
0
0
0
0
16
0
0
0
0
10
0
0
0
30
50
159
24
0
21
0
0
2
1
5
11
0
4
0
3
5
11
6
33
4
7
14
15
14
3
0
11
0
0
0
0
6
0
8
0
0
23
0
6
0
12
1
0
25
0
10
0
2
0
0
0
0
0
0
2
0
0
32
0
0
40
29
0
62
0
0
0
16
0
5
49
5
0
0
27
0
0
0
4
0
0
181
0
0
0
14
4
0
0
0
0
30
0
0
0
9
0
41
0
2
7
0
0
0
24
20
0
57
22
0
0
22
46
0
7
41
0
0
0
0
0
0
43
0
0
15
0
0
0
8
0
0
0
0
10
0
8
29
14
0
0
3
0
29
0
15
0
0
0
13
0
11
0
4
0
0
19
2
1
0
30
0
9
16
12
0
0
18
3
0
22
2
0
0
16
9
0
4
14
8
0
38
12
18
10
0
16
0
19
0
29
0
5
0
17
39
0
0
0
8
0
0
32
14
0
20
0
12
0
0
0
8
0
13
8
0
24
0
0
0
0
0
0
0
15
0
0
0
0
0
31
0
9
0
0
18
0
0
5
0
0
5
0
0
8
2
1
15
0
0
0
0
0
0
0
12
14
23
9
16
0
10
6
2
0
28
7
0
3
0
0
34
0
0
3
8
12
0
0
0
0
0
26
0
7
0
43
15
2
8
0
14
0
0
2
18
1
0
0
0
17
0
0
0
0
0
14
0
0
0
10
7
0
0
0
18
0
0
31
0
0
0
24
62
0
0
0
0
0
0
1
0
0
24
5
6
0
0
14
14
24
7
2
0
8
0
31
0
21
3
0
0
21
0
0
17
23
0
0
0
4
10
2
0
27
0
23
19
0
9
1
23
14
2
0
0
21
14
23
0
0
0
0
12
0
0
0
4
0
0
18
0
0
12
1
0
24
0
0
5
3
9
0
0
0
6
0
0
5
0
0
0
0
0
0
19
24
0
23
0
12
1
0
0
0
0
5
0
15
7
24
45
31
20
0
0
0
0
0
0
0
1
45
17
0
57
0
23
14
0
1
3
0
0
0
0
11
25
36
20
0
0
4
0
0
3
0
0
8
24
17
0
0
38
26
39
0
15
0
0
19
0
15
0
21
0
54
3
27
52
0
0
0
0
14
0
0
0
0
0
43
4
93
0
36
55
0
0
13
3
54
0
54
156
0
11
0
0
12
0
0
0
48
0
24
0
0
0
0
6
0
0
0
10
0
17
9
0
0
0
0
17
0
0
9
28
3
27
0
0
44
0
3
4
0
0
0
0
6
0
29
14
2
42
33
0
0
11
0
38
0
16
0
38
24
15
0
3
20
0
2
0
0
9
0
10
7
47
0
0
46
31
0
0
0
0
0
0
1
40
13
0
0
0
0
34
57
47
0
0
0
36
10
0
8
3
0
0
0
0
0
0
10
0
0
0
0
40
0
0
29
0
0
0
33
0
5
3
9
13
0
0
20
0
53
4
0
52
0
11
0
0
0
14
22
0
0
23
43
6
43
18
5
0
0
36
0
0
7
0
32
0
0
0
7
5
0
6
41
0
0
0
0
0
5
0
0
0
0
10
3
0
0
0
7
0
0
0
40
0
0
47
0
0
0
5
0
0
33
0
0
11
0
25
0
0
0
4
0
22
0
24
0
0
0
0
0
0
39
0
19
0
52
0
0
14
15
3
19
62
0
1
0
16
38
0
2
0
10
5
0
31
23
26
57
0
0
4
0
0
0
0
17
0
0
16
0
0
0
0
0
0
0
0
0
0
10
0
0
11
38
19
23
0
6
16
0
18
21
0
3
2
18
0
3
0
0
16
0
0
10
0
3
0
31
0
0
1
18
15
0
0
0
58
0
0
21
0
18
0
29
3
0
30
0
0
6
0
46
0
12
5
20
0
0
14
26
0
9
28
0
0
4
0
0
0
0
0
4
22
0
0
0
0
17
11
0
0
35
0
0
0
0
20
0
0
0
5
0
0
28
0
3
0
0
15
20
0
0
0
0
11
2
0
10
0
0
1
8
0
0
0
6
23
0
22
0
0
0
5
13
0
0
22
0
0
0
17
0
12
0
6
0
0
0
0
0
16
8
0
35
46
0
0
18
0
0
0
32
13
1
0
2
13
0
0
6
0
6
0
32
12
0
8
6
33
0
0
0
13
0
9
59
0
0
0
0
11
0
0
10
0
0
18
0
28
0
21
0
0
0
0
2
1
24
0
30
5
26
0
0
3
0
0
10
0
0
0
0
0
17
0
0
1
0
0
22
2
76
10
25
29
0
0
0
41
79
0
59
131
19
24
0
28
5
0
0
0
0
0
0
0
0
0
61
156
3
20
0
0
15
16
33
1
8
0
11
0
0
2
6
1
37
0
0
13
0
25
9
0
0
18
0
19
8
0
8
0
0
0
16
16
2
0
19
0
0
15
0
20
45
0
0
0
0
0
0
0
0
1
31
19
0
4
0
6
0
0
7
3
0
0
17
18
0
0
0
14
0
0
4
18
0
0
10
36
0
15
0
3
0
0
0
0
57
6
20
0
0
0
16
37
0
0
3
0
10
1
26
0
0
0
47
0
0
0
0
29
5
0
33
0
13
25
0
0
11
0
2
9
38
0
17
22
0
17
0
0
0
41
0
0
0
81
0
0
4
0
15
0
0
0
0
0
4
0
16
0
0
0
0
12
0
8
18
17
0
15
0
19
0
0
26
8
0
23
0
21
8
0
76
0
0
0
40
20
5
26
8
0
11
9
4
50
9
27
0
0
0
8
19
0
0
18
13
0
0
28
0
0
0
0
9
1
0
43
51
0
38
0
0
0
0
0
0
0
31
0
0
0
0
0
0
20
0
18
0
1
0
15
6
0
0
0
0
16
15
0
0
27
0
23
0
0
49
29
0
15
20
0
29
33
0
0
8
35
0
37
0
0
27
4
0
0
0
13
0
16
0
27
11
0
8
14
0
2
17
0
0
0
0
0
13
0
0
19
0
21
0
21
0
0
29
1
0
0
0
0
7
0
0
0
18
20
0
0
8
0
0
0
0
15
0
0
0
16
0
0
18
0
0
2
0
1
38
9
0
10
34
0
0
0
24
9
1
0
0
8
10
0
30
0
27
21
0
14
0
0
0
29
3
4
0
0
13
0
3
0
8
4
7
0
19
0
11
0
22
14
0
8
0
14
0
30
0
33
0
0
16
29
3
14
0
0
8
0
28
31
0
0
0
0
5
0
4
23
9
0
7
0
8
0
0
0
0
0
0
0
0
7
0
41
3
9
15
0
13
10
0
9
0
0
0
8
6
15
21
45
2
41
0
0
18
0
27
0
21
21
0
25
6
39
40
0
18
41
9
0
0
7
0
0
43
0
0
0
0
11
0
0
0
0
20
0
0
28
21
5
0
0
15
0
17
0
66
21
0
36
0
6
43
27
7
0
0
95
18
0
0
0
0
0
0
33
0
0
45
0
1
0
65
3
23
36
28
0
54
155
4
0
5
0
21
0
0
0
37
26
0
19
0
0
8
5
3
0
0
0
0
0
13
2
0
0
5
0
8
18
0
12
15
0
0
6
0
16
7
0
2
5
2
10
0
0
0
22
13
14
0
34
5
0
0
0
0
19
9
0
13
26
0
0
30
0
0
0
19
3
64
0
0
3
0
0
0
14
18
0
41
0
33
10
12
10
0
3
0
24
0
12
7
14
0
0
8
36
0
5
0
26
0
30
25
13
1
11
0
16
0
18
0
17
0
0
10
0
0
0
38
0
20
7
0
5
0
4
0
9
0
15
0
15
0
59
14
0
0
6
22
0
24
0
24
15
0
1
5
18
29
0
11
42
0
8
0
0
0
4
0
0
11
14
0
7
4
0
0
16
17
35
14
0
8
12
0
9
0
0
0
0
0
35
0
0
0
0
0
0
55
105
0
16
0
19
39
0
0
0
0
12
0
32
20
0
5
0
0
0
0
0
28
0
0
0
19
23
0
0
0
0
8
0
6
24
0
16
2
0
0
0
17
18
8
0
48
0
0
0
0
0
19
0
0
22
4
0
8
0
14
0
0
0
14
0
0
0
11
0
0
0
29
0
0
9
17
0
26
0
0
10
0
2
0
2
0
33
0
22
0
0
0
27
0
7
0
0
2
22
0
23
0
1
0
0
0
0
0
0
42
4
17
0
13
0
11
22
17
8
0
29
86
0
0
6
0
2
0
0
9
10
0
0
0
0
14
12
0
25
17
36
0
26
35
0
5
1
41
9
0
4
3
12
17
0
0
0
5
0
6
0
39
17
5
7
0
10
14
5
11
0
15
0
0
0
25
0
0
0
4
0
0
0
8
0
0
7
0
0
4
0
14
0
0
14
23
0
16
12
0
0
0
37
0
0
0
4
0
0
2
0
12
0
0
10
0
16
26
14
14
0
0
0
6
25
8
0
2
9
0
7
0
14
0
7
11
0
9
2
7
21
35
50
0
0
0
0
4
0
0
0
9
38
0
0
8
8
0
0
3
0
36
13
2
33
6
0
25
28
9
14
0
7
11
0
0
21
2
22
12
0
0
0
34
13
0
0
0
0
9
42
23
69
2
3
0
0
16
117
122
0
21
0
43
0
10
34
0
0
10
0
0
0
0
0
0
0
4
1
58
153
0
0
11
0
16
0
3
12
0
0
0
6
0
14
0
0
0
0
45
4
0
0
0
0
19
11
32
0
0
0
0
0
6
0
9
24
0
3
0
0
6
0
0
19
0
5
0
2
1
1
0
16
0
0
31
12
0
18
15
0
0
0
0
0
0
0
1
0
0
0
47
0
2
0
17
0
18
0
0
5
0
26
0
14
0
0
0
6
0
0
0
0
0
0
18
47
0
0
0
15
0
9
0
13
8
0
0
10
1
0
0
9
11
6
0
1
0
44
0
0
0
0
3
0
0
0
0
0
10
21
8
14
0
49
0
0
0
31
0
19
2
0
25
0
4
25
0
19
0
0
18
1
0
0
1
0
19
0
13
0
7
15
0
0
4
0
4
0
0
2
0
0
0
0
57
0
0
17
30
9
31
0
15
9
0
48
9
46
19
12
0
25
31
0
0
0
77
0
11
19
33
16
0
6
0
3
9
0
31
42
17
0
1
0
29
7
0
26
0
3
5
10
12
32
9
0
0
0
0
0
37
0
11
0
0
0
0
3
7
0
12
0
38
0
16
29
9
0
0
0
17
17
0
0
0
0
6
0
30
0
3
17
0
3
0
10
0
0
0
3
0
2
0
17
0
16
0
19
0
80
0
15
0
15
8
33
6
0
13
0
0
21
3
10
17
32
3
21
16
0
1
0
4
8
21
0
13
0
0
0
3
0
0
24
0
10
5
0
27
26
0
0
0
0
7
1
11
0
17
0
0
0
0
0
1
0
0
0
0
4
7
0
28
0
0
12
2
0
22
0
0
0
2
0
5
0
5
0
0
0
19
0
48
0
0
14
0
0
0
7
0
3
9
18
21
12
20
0
39
0
7
0
0
1
0
0
0
0
7
0
0
0
9
0
0
13
0
2
0
1
0
18
0
15
7
0
32
0
0
3
0
0
2
0
0
0
33
25
0
14
0
17
0
0
0
11
0
8
9
17
13
23
17
44
0
0
0
3
14
3
1
0
0
0
0
12
0
27
15
0
5
25
26
0
7
0
0
1
14
0
0
0
0
14
0
67
7
16
17
0
0
0
29
0
0
0
31
5
14
0
0
50
22
13
21
62
0
0
0
0
33
0
7
0
0
0
0
23
0
0
8
0
0
0
0
51
0
44
61
0
48
157
6
25
0
18
0
3
0
17
9
17
19
3
0
0
0
23
15
0
11
0
0
24
14
4
0
0
0
25
13
24
0
15
0
34
0
0
1
6
32
0
20
0
47
0
0
10
8
0
0
19
0
55
14
0
25
0
0
7
0
0
0
13
0
30
0
33
54
0
12
0
0
13
0
3
26
4
0
38
0
11
9
22
0
18
0
98
12
0
16
20
34
0
15
3
0
14
0
0
0
0
11
10
5
3
0
0
0
0
13
14
9
0
2
21
0
0
0
27
33
0
23
29
0
0
0
15
51
0
0
1
16
12
0
0
0
12
0
30
0
0
0
26
0
18
0
0
0
9
0
19
2
0
5
0
31
0
16
19
0
0
1
23
12
0
12
11
0
0
14
7
18
0
12
0
3
0
23
3
0
0
10
0
17
0
1
0
3
0
0
31
0
0
0
41
58
0
0
0
18
0
0
0
0
13
0
6
0
35
0
0
12
3
10
0
8
0
9
20
2
0
15
0
0
0
0
3
25
0
0
0
14
19
0
0
0
18
6
0
55
0
0
0
8
0
0
0
0
48
15
9
0
23
1
1
2
26
0
11
0
0
12
0
64
0
0
0
2
0
0
23
14
0
16
0
5
1
0
17
0
2
0
20
0
0
0
9
0
10
40
17
0
3
0
0
0
0
0
13
16
2
0
0
0
3
0
0
20
0
0
0
12
37
0
44
14
0
33
0
0
6
0
37
0
25
0
0
0
0
5
7
16
0
0
0
26
0
40
0
0
7
0
6
16
0
54
0
0
1
0
0
16
0
10
0
6
0
33
0
0
0
0
0
0
0
0
0
0
0
11
12
3
13
14
0
0
0
18
21
0
0
31
6
20
3
2
9
0
0
31
0
29
29
0
17
12
4
0
18
0
11
14
0
8
0
0
0
13
0
2
15
16
0
0
0
0
20
36
16
13
2
6
0
0
11
6
17
2
0
17
14
4
0
9
66
9
44
0
0
0
0
28
2
24
24
9
0
0
54
28
14
0
17
7
0
0
28
14
33
14
4
14
0
64
0
0
3
16
0
0
0
30
0
0
0
12
0
11
0
13
44
33
47
43
19
0
0
0
32
0
0
41
0
6
0
28
0
6
9
7
6
0
34
33
0
0
0
21
0
0
0
49
159
11
0
0
29
0
2
0
0
0
0
25
0
0
4
1
3
11
0
27
3
7
14
0
0
9
8
5
0
0
11
0
0
34
0
0
0
0
11
0
0
0
0
0
9
0
0
18
0
10
0
0
0
0
0
2
0
0
18
0
8
8
17
0
2
0
0
0
0
0
0
32
0
12
0
13
0
0
0
8
0
0
17
0
6
9
0
0
0
32
0
0
10
35
0
7
0
1
0
28
6
0
6
8
0
0
19
4
17
19
0
8
0
14
38
0
26
0
0
12
0
0
27
0
10
0
0
3
0
2
0
0
0
33
0
0
62
0
21
0
12
0
0
0
9
0
0
0
21
0
12
9
30
6
0
33
0
0
35
0
19
0
0
0
0
5
11
40
0
15
0
5
8
0
29
45
21
0
9
0
24
11
0
21
2
19
12
20
0
20
14
0
0
17
28
12
40
6
0
5
0
0
0
0
0
19
0
2
3
24
0
0
9
0
10
0
0
0
13
0
2
0
0
14
0
0
15
0
4
0
0
9
0
0
27
35
0
0
18
0
17
14
0
9
2
0
0
0
0
25
16
0
8
53
8
0
0
13
9
15
0
28
0
0
0
42
14
18
11
3
0
0
15
1
0
0
0
0
27
0
0
0
0
11
5
4
0
0
0
0
0
0
6
25
11
0
0
0
14
19
2
0
0
0
13
0
0
0
0
11
32
0
0
23
13
0
33
12
26
0
33
0
0
0
0
0
13
0
28
0
31
14
33
11
26
0
9
0
0
19
25
8
0
23
0
0
0
7
54
0
11
0
2
44
0
0
0
0
0
36
16
4
0
12
0
21
0
0
30
0
0
5
0
3
0
15
0
0
5
0
20
19
0
0
2
10
10
19
8
0
0
0
0
20
13
0
0
5
0
0
0
0
0
7
18
38
0
18
0
0
18
0
0
21
0
0
0
0
31
17
2
0
23
12
0
2
0
0
1
0
3
17
23
16
19
30
0
0
0
0
5
0
0
0
0
27
14
0
0
8
3
0
0
0
13
0
0
0
0
0
0
0
11
0
5
29
0
13
15
28
0
48
0
14
0
39
0
0
17
9
35
0
51
0
1
0
0
0
0
0
29
2
0
18
0
0
0
30
0
0
0
0
0
0
2
27
58
27
0
27
11
77
157
0
0
13
0
0
0
10
17
0
7
0
15
0
13
0
0
12
0
26
0
0
0
10
0
24
0
9
31
3
21
5
15
2
0
34
36
2
6
0
23
12
16
0
11
0
0
1
4
24
0
27
0
51
0
25
0
8
40
0
33
0
17
0
71
0
4
5
0
0
32
3
0
64
0
0
0
30
18
15
0
0
35
0
0
4
7
9
4
17
0
10
12
6
0
36
14
22
2
0
2
19
0
14
0
32
0
9
26
0
0
13
0
0
0
0
29
0
0
26
0
0
0
0
0
9
36
0
0
4
8
17
0
48
0
41
0
0
19
0
18
0
19
0
0
0
32
7
46
0
5
0
4
0
0
11
7
0
17
0
15
0
14
25
0
39
0
5
0
0
0
0
19
0
28
0
21
0
37
0
0
0
0
4
0
0
0
1
0
0
0
22
0
17
0
0
11
0
8
9
0
0
0
19
0
37
4
0
0
1
0
0
3
0
17
14
0
0
0
0
19
35
0
0
0
0
2
0
0
24
0
0
0
0
0
0
21
20
0
0
28
0
0
21
14
7
0
0
12
0
0
0
0
0
0
0
0
0
0
11
19
20
44
0
26
0
0
0
8
10
8
0
0
0
29
0
16
7
8
1
9
17
0
7
7
30
0
0
0
0
16
0
0
5
0
0
16
0
0
3
2
0
46
0
0
0
0
0
3
40
0
0
7
0
37
0
43
9
0
0
11
8
20
7
28
0
5
0
13
2
0
0
1
0
0
0
0
27
18
0
11
0
21
6
0
0
9
0
0
0
11
0
0
0
0
26
7
33
0
0
0
0
8
20
2
24
0
8
0
8
23
3
0
21
26
3
6
24
0
4
0
2
0
12
2
0
0
0
30
14
21
42
0
24
0
5
14
0
0
5
0
34
0
23
0
0
0
0
0
0
0
29
29
0
33
0
0
2
13
30
9
0
8
0
0
10
1
13
6
0
9
7
7
14
1
47
23
11
0
0
10
0
0
13
6
0
7
7
0
0
0
25
51
3
2
19
19
0
0
41
5
12
0
0
14
0
0
8
0
0
0
54
0
0
1
0
0
18
47
17
86
3
1
0
0
0
31
0
0
0
1
0
0
15
38
75
0
0
0
99
11
0
39
5
24
0
14
1
0
0
0
63
157
0
0
4
6
19
0
12
0
0
12
0
0
0
39
3
1
15
0
0
0
39
4
1
0
11
15
0
8
0
5
0
0
0
0
0
0
6
13
18
0
0
5
0
17
0
14
1
0
11
0
17
0
16
0
56
0
0
0
0
67
0
37
0
0
0
25
24
3
0
0
0
0
7
0
28
0
25
0
7
17
1
0
0
52
0
0
0
0
15
0
0
12
2
0
0
0
11
0
0
0
16
0
38
0
26
0
0
0
0
0
10
0
1
0
0
0
0
5
4
0
38
30
7
31
0
0
0
17
5
0
0
0
0
0
0
11
41
37
0
25
0
0
0
1
0
2
0
14
0
5
0
9
20
10
0
13
0
0
5
0
0
0
32
0
0
0
0
0
30
14
0
2
0
0
40
0
8
25
0
11
0
0
68
0
9
0
23
0
29
0
45
4
16
0
9
0
23
0
37
1
0
6
14
0
0
0
7
10
0
6
4
0
19
0
0
20
33
0
0
12
0
18
8
15
42
20
0
5
21
10
0
38
0
23
0
0
16
0
0
30
0
28
0
26
0
0
0
27
0
37
4
15
0
3
59
17
23
0
12
0
0
0
0
14
0
0
0
0
24
0
14
13
0
29
0
0
2
0
18
3
38
0
0
0
11
29
0
14
21
0
0
3
5
0
0
44
0
36
35
0
1
0
7
28
2
50
43
0
0
30
0
1
13
0
5
6
0
15
13
13
0
18
0
0
0
3
0
0
9
0
0
0
16
4
21
0
0
27
0
10
0
0
0
9
7
9
0
15
0
30
0
4
0
19
0
0
9
0
14
20
6
0
0
21
0
0
7
17
5
0
0
0
0
0
2
0
27
0
0
0
8
0
3
17
0
0
9
0
0
0
0
0
0
37
18
0
31
17
4
0
0
0
12
0
0
14
9
0
14
15
0
21
0
0
0
0
0
26
50
0
22
3
0
11
13
0
0
2
0
0
8
14
3
14
37
37
20
0
0
0
1
45
5
22
2
38
23
0
1
0
0
0
0
26
6
0
38
0
34
0
8
17
0
0
45
0
50
0
1
24
0
13
20
36
0
0
1
20
11
46
29
15
0
0
0
0
0
6
34
23
0
28
0
0
0
0
69
0
0
0
0
22
0
1
28
6
0
23
25
25
57
158
2
30
0
0
7
1
2
22
8
0
21
50
4
0
0
4
7
0
11
0
0
14
6
0
6
0
0
0
1
5
27
11
10
17
21
0
10
0
0
13
0
0
5
0
0
26
0
0
34
0
0
32
0
0
33
0
0
9
0
0
0
22
0
0
5
5
0
0
0
25
9
11
17
0
35
0
0
0
6
36
5
43
14
8
32
0
0
0
3
38
0
7
0
7
45
0
47
1
19
12
31
0
7
0
0
4
12
0
25
5
23
0
37
0
36
17
18
12
4
0
0
0
12
0
12
2
7
0
43
0
14
4
24
4
24
0
0
18
0
0
12
0
11
48
0
0
1
0
24
15
1
0
0
26
0
29
0
0
17
1
4
3
28
14
0
30
8
25
0
2
0
4
0
24
0
0
10
0
5
0
9
0
11
0
5
0
19
12
0
10
0
9
0
0
0
0
15
0
39
16
3
0
0
0
17
0
28
0
0
24
2
0
3
0
28
0
9
25
37
0
6
0
0
0
0
9
12
0
2
0
0
33
0
0
12
17
0
0
26
19
0
39
0
23
0
37
0
21
0
17
0
4
29
0
0
0
4
0
0
15
40
0
0
19
19
0
0
31
4
0
0
0
0
4
0
1
2
0
0
11
0
1
9
0
1
40
0
10
22
0
19
21
0
46
0
11
0
25
0
0
14
11
6
0
0
0
0
0
0
14
0
0
11
0
1
4
19
36
4
0
0
15
10
31
5
1
4
55
0
57
20
5
54
17
6
8
0
0
32
2
20
0
28
24
0
0
0
0
0
29
7
0
21
0
0
15
0
0
0
17
0
0
0
8
8
17
0
0
0
2
0
41
0
17
15
0
0
0
0
26
0
0
0
10
9
0
7
0
22
34
8
21
0
0
0
0
8
37
0
0
16
12
10
0
0
13
15
0
0
0
0
20
1
41
0
9
0
22
41
63
34
23
39
45
16
29
14
36
17
16
1
13
17
8
1
21
0
0
0
0
0
0
0
0
0
0
0
3
1
0
33
2
2
4
32
22
41
0
0
0
0
0
18
0
15
0
18
0
20
0
0
14
0
0
0
54
4
5
0
0
0
0
0
0
0
0
32
13
0
2
0
29
6
1
2
45
0
3
23
19
0
0
0
8
0
7
0
10
0
0
51
157
0
0
0
18
9
0
0
0
0
0
18
0
0
0
0
0
0
17
0
0
0
0
2
12
0
19
0
8
2
0
9
0
0
0
0
20
3
7
11
0
10
0
0
0
10
0
11
0
26
0
0
0
41
5
1
36
28
15
26
52
18
0
9
24
0
0
0
0
11
0
36
11
0
0
0
4
18
0
0
0
0
36
0
5
14
21
14
6
10
46
0
0
0
0
0
3
7
0
0
0
0
0
0
0
0
5
10
39
0
0
0
0
0
0
8
5
0
0
0
0
29
0
0
0
17
0
0
0
0
0
0
5
4
0
0
7
26
34
0
7
29
0
0
24
0
0
0
0
0
23
0
0
10
19
0
0
19
0
20
0
0
0
0
3
1
26
0
24
0
2
0
29
0
29
0
13
0
0
0
7
59
0
43
10
0
0
0
0
21
0
0
0
23
6
8
29
38
0
0
11
0
53
49
18
4
0
1
47
0
0
19
0
21
13
0
16
18
0
0
22
0
7
16
0
0
0
0
0
3
3
9
9
29
1
2
0
6
0
19
0
0
1
0
13
1
6
0
7
0
25
6
4
0
0
24
7
27
0
0
17
6
0
0
12
0
0
0
0
0
4
21
0
29
0
4
2
0
0
0
0
0
29
3
0
1
0
0
0
6
0
7
0
0
0
0
21
13
0
0
4
0
18
0
0
9
2
14
0
21
0
37
12
1
22
4
0
4
0
36
8
0
0
6
5
0
0
0
0
0
0
0
25
0
0
0
0
0
11
0
0
11
0
0
0
0
11
0
7
0
0
0
14
0
24
9
24
0
9
5
25
1
4
0
0
4
0
19
2
0
25
0
0
0
0
30
11
29
12
3
7
0
5
9
0
26
4
0
19
0
0
0
4
24
0
20
21
0
28
0
7
0
8
13
25
9
11
0
19
18
32
10
4
9
16
0
6
0
0
0
0
0
0
0
0
0
0
0
0
0
0
0
4
8
22
40
47
113
158
121
62
17
20
70
0
77
8
6
0
10
38
0
3
0
0
0
0
5
11
0
5
0
0
21
3
44
0
11
0
0
0
28
0
0
11
0
63
40
91
139
69
34
0
27
69
0
0
0
60
21
0
0
0
0
0
0
0
0
0
0
32
19
7
12
0
30
0
8
0
53
7
57
156
0
7
25
0
0
29
0
34
3
0
0
0
23
32
1
1
0
24
0
0
18
14
0
14
0
31
0
18
14
12
19
24
0
21
0
18
0
0
0
9
0
11
7
20
0
0
0
0
19
0
26
25
0
2
0
0
0
0
0
0
5
13
0
0
0
34
2
39
0
20
10
0
0
0
61
0
0
0
7
16
0
0
0
0
11
0
5
0
53
0
0
13
0
5
0
0
39
0
31
12
42
11
0
2
9
7
0
0
0
0
25
8
4
1
0
22
17
0
59
4
22
0
0
16
17
0
7
24
5
24
0
0
47
0
14
0
15
0
15
3
0
0
66
0
0
8
9
31
5
11
12
0
19
0
2
17
0
0
19
0
0
0
25
11
0
24
0
24
15
0
0
14
17
0
0
0
0
19
12
0
30
0
0
10
4
0
48
0
0
14
0
10
25
0
0
1
0
0
0
10
0
0
9
0
0
0
0
24
0
16
0
12
0
0
0
6
6
0
11
8
8
0
0
21
2
0
2
42
3
3
5
0
5
30
0
0
0
7
0
11
4
0
4
4
0
0
0
22
29
0
0
4
0
10
0
25
2
0
0
0
0
0
28
0
0
33
0
28
18
5
0
0
23
18
2
0
22
3
0
24
0
0
25
0
15
17
20
25
21
0
0
1
34
0
11
0
10
0
0
14
0
31
0
0
13
0
1
6
15
0
0
5
5
18
0
23
0
9
0
0
0
30
0
0
0
8
8
0
20
5
14
0
7
20
31
9
0
17
0
0
0
0
13
0
0
2
0
21
14
0
32
10
0
0
0
0
7
8
0
0
0
0
17
20
0
24
0
13
7
0
27
5
24
21
0
0
8
0
0
16
8
0
21
0
0
0
0
12
13
0
17
26
0
0
2
13
19
19
2
3
0
3
0
2
0
10
0
0
0
0
0
23
0
7
11
0
0
0
22
35
33
50
44
36
36
13
16
18
13
30
13
1
9
0
0
12
0
0
0
0
0
0
0
0
7
0
7
31
0
0
8
0
0
19
0
27
0
20
24
19
25
0
28
0
0
11
0
0
2
11
0
33
0
15
33
4
0
0
0
0
0
0
0
32
50
0
0
46
17
8
4
36
26
0
0
59
56
21
5
0
0
0
0
0
0
0
0
0
35
0
56
161
20
11
0
0
4
0
0
37
0
21
0
0
0
0
11
19
0
0
6
0
2
2
0
10
16
0
0
0
0
0
0
0
0
0
4
19
13
0
0
21
16
0
0
0
7
0
9
0
25
0
5
0
0
0
9
1
0
0
0
0
0
0
7
0
39
0
0
19
2
43
0
0
55
0
0
0
0
17
0
0
19
18
12
0
0
21
0
0
5
0
0
7
3
6
0
0
0
29
1
0
0
0
0
31
9
0
32
0
17
16
0
0
10
0
0
22
0
13
0
6
14
2
7
0
12
25
0
0
0
11
0
15
0
11
20
0
13
0
1
11
0
9
7
0
0
19
0
0
0
0
27
0
0
4
12
0
0
29
0
15
8
33
0
0
15
0
7
0
12
0
11
25
0
31
0
0
24
2
0
0
9
0
25
0
9
0
22
0
30
0
0
11
20
0
45
34
12
9
17
0
0
0
0
0
3
0
0
15
0
25
0
16
0
0
19
0
0
20
0
12
0
1
0
0
16
33
7
0
0
0
22
0
0
16
30
3
17
20
10
0
0
4
25
8
12
0
0
0
0
13
0
9
0
3
0
0
28
3
0
13
0
13
2
0
0
32
5
0
0
0
29
12
12
2
20
0
0
10
12
22
0
21
0
0
17
0
2
0
13
10
0
0
2
0
0
21
34
0
31
21
0
2
0
0
5
0
39
0
6
19
28
22
0
0
0
52
1
9
3
27
0
36
0
21
0
10
13
0
31
0
0
15
0
1
0
1
0
0
13
0
21
14
30
0
36
9
0
15
0
0
11
0
22
34
12
5
0
11
0
24
0
1
0
0
2
0
1
14
0
5
22
0
2
0
0
5
0
18
0
0
0
0
0
0
12
0
50
0
0
10
0
0
13
3
0
0
0
0
0
0
0
0
12
7
0
15
0
8
12
0
2
21
0
0
0
0
5
0
0
16
3
43
0
8
0
0
7
0
0
0
4
0
5
10
14
1
21
23
56
0
0
0
0
0
0
0
1
0
25
0
0
4
19
0
0
0
0
0
0
0
0
3
0
0
33
20
0
0
0
7
0
1
28
10
12
39
62
3
0
0
0
0
0
0
4
0
0
0
0
25
67
0
0
1
0
35
2
0
0
0
60
0
0
33
0
0
13
47
0
0
56
160
4
0
0
15
0
0
0
6
0
8
14
38
0
17
0
4
0
0
45
0
1
3
0
20
0
21
1
18
12
0
7
0
14
0
22
10
0
17
12
9
0
17
8
0
5
1
11
0
0
39
4
23
1
0
36
0
21
12
17
12
0
0
0
0
13
0
23
0
0
0
0
23
0
0
25
0
21
19
68
0
0
0
8
1
5
5
14
5
0
22
0
40
6
6
10
11
5
0
0
0
19
0
0
6
0
0
17
0
26
0
14
7
15
0
4
20
18
15
0
18
18
0
16
10
43
0
7
10
0
26
0
0
37
0
0
19
0
4
0
0
24
0
0
17
5
0
55
0
0
0
7
0
0
0
0
22
25
20
0
9
14
0
0
14
0
0
0
0
20
0
41
18
0
23
0
9
13
1
0
17
0
0
7
0
0
0
0
0
0
0
39
0
33
4
2
0
0
9
3
0
52
6
0
4
0
0
0
0
0
26
0
13
0
0
2
0
0
0
7
0
0
18
0
0
28
0
48
0
0
11
0
0
2
11
0
0
0
0
41
0
15
0
11
0
0
1
28
7
0
12
38
0
6
19
0
13
4
2
13
31
12
4
0
0
0
9
16
39
26
0
8
0
0
0
46
3
0
0
8
0
8
0
8
0
49
0
12
0
24
14
0
0
27
0
25
0
16
0
0
7
7
22
0
25
0
0
11
3
0
0
0
0
36
7
0
23
0
0
0
10
7
0
77
23
0
24
0
0
0
0
15
0
0
3
11
4
0
0
23
0
10
0
5
0
0
0
18
0
14
0
27
1
0
0
0
0
0
6
0
10
20
0
1
0
0
0
13
0
1
0
0
0
13
0
33
18
21
0
7
25
0
19
3
0
4
0
18
0
2
0
12
0
0
5
0
21
12
28
3
0
30
0
0
6
13
45
0
39
0
0
0
0
37
0
6
0
14
0
0
3
31
14
17
1
17
0
12
33
11
15
1
9
5
3
15
29
0
16
54
40
0
0
0
39
0
48
0
23
9
0
0
9
0
3
4
23
0
16
27
9
0
0
0
6
0
1
40
0
26
0
23
60
30
42
80
28
0
0
0
0
16
0
19
13
0
0
0
9
0
0
26
0
0
121
0
0
17
13
0
32
0
5
2
5
0
19
8
0
0
0
46
160
11
0
14
0
16
20
21
0
0
0
14
0
0
4
0
46
0
7
0
0
0
18
0
0
0
0
0
5
0
14
16
0
27
7
26
0
0
9
0
0
11
0
7
0
30
0
0
17
0
0
0
0
15
6
13
11
0
0
0
56
3
0
54
7
0
20
0
0
55
0
0
46
0
16
39
0
0
0
0
0
40
7
0
7
0
2
2
0
0
0
3
4
0
0
23
0
21
33
15
30
0
17
0
24
6
14
0
25
0
0
4
11
20
0
0
0
7
5
0
0
0
0
4
0
12
0
26
0
0
6
0
0
1
0
1
0
1
0
40
0
39
0
49
15
0
0
0
0
5
0
42
0
0
13
14
43
0
0
13
0
22
0
0
12
21
29
2
38
25
0
0
0
9
0
8
0
0
16
0
5
0
0
0
0
19
0
21
0
0
14
0
0
0
0
19
0
0
22
0
0
0
4
27
0
6
23
0
46
5
0
33
8
2
4
0
10
14
26
0
3
69
18
0
5
0
0
10
20
8
0
20
28
0
4
0
0
0
14
12
0
0
0
9
5
1
18
0
8
20
0
7
7
19
0
0
0
16
0
0
10
0
0
0
21
13
0
0
0
0
0
0
5
11
0
16
0
10
0
17
0
23
0
0
0
5
0
0
0
0
10
42
0
3
12
0
0
21
0
0
4
0
12
0
32
21
0
0
34
0
44
0
0
24
0
0
5
25
0
0
9
41
0
0
0
0
0
0
0
0
11
8
0
0
25
0
18
25
0
0
0
7
0
26
27
19
11
9
0
37
0
0
1
0
29
6
24
0
0
4
16
0
9
3
14
0
17
2
8
0
0
3
0
18
0
25
0
0
0
0
1
0
47
9
0
2
0
4
0
27
0
9
0
0
0
2
0
0
5
0
2
14
0
22
0
11
0
0
0
21
23
24
30
8
0
30
0
34
6
0
0
12
15
34
0
34
0
0
0
0
10
0
0
0
0
3
22
0
0
63
13
8
0
0
0
30
13
0
0
21
10
23
0
0
0
11
9
0
0
4
5
15
48
5
26
0
3
44
0
49
24
28
0
32
0
0
0
4
0
0
0
0
0
0
32
5
12
48
28
11
42
60
28
9
7
0
0
0
0
27
0
0
0
0
27
0
31
9
20
0
33
44
158
0
0
0
0
0
0
0
17
73
74
33
0
19
0
3
0
19
0
0
34
0
10
4
0
29
0
25
5
0
0
16
7
0
0
0
10
0
0
18
0
0
7
13
0
0
5
17
0
3
2
0
8
17
2
0
0
0
0
13
2
16
0
0
0
3
0
0
0
0
28
0
69
0
0
11
0
36
8
4
6
0
0
0
18
0
15
0
0
37
0
14
0
4
0
23
0
0
2
21
0
15
14
6
32
0
0
18
8
0
0
0
26
0
0
0
34
28
0
13
28
0
22
5
0
53
0
0
0
0
11
33
68
0
34
0
38
0
0
0
15
35
0
0
0
0
30
13
0
8
11
15
0
0
0
0
0
0
6
8
0
9
0
0
16
2
0
0
9
0
0
12
17
5
0
16
52
29
51
22
36
80
48
31
0
18
2
0
9
48
0
0
20
6
0
4
0
33
4
0
16
0
12
0
0
19
0
0
11
0
0
0
15
0
0
27
0
71
0
0
16
0
0
0
15
5
19
0
0
0
24
0
24
10
32
0
7
0
14
2
29
0
4
17
6
10
7
3
0
24
0
1
10
0
9
0
1
2
3
0
29
30
3
26
0
8
0
12
1
11
11
1
0
15
0
32
0
20
0
0
1
3
0
10
0
19
16
0
10
0
0
5
43
25
0
0
0
15
13
0
0
16
0
0
11
0
0
0
0
0
41
7
0
0
0
0
48
0
38
0
0
8
0
5
29
7
33
0
33
0
48
0
15
8
0
10
0
0
0
0
0
4
0
0
0
0
0
11
0
16
0
0
16
0
9
0
0
0
0
23
0
0
18
0
0
0
22
0
25
0
5
0
11
0
0
4
3
52
0
9
0
0
0
0
22
0
0
0
0
0
1
4
7
22
0
15
0
29
0
0
25
8
7
0
0
0
4
2
15
6
0
0
23
0
0
21
0
22
0
0
0
0
0
21
0
22
6
0
16
0
0
0
4
6
9
7
4
31
4
16
38
22
0
0
0
0
25
0
44
0
6
0
49
5
29
0
0
51
36
22
0
9
0
26
0
13
7
18
0
5
14
41
12
7
21
0
0
0
0
0
17
7
22
0
24
0
0
0
0
0
0
0
0
0
0
0
0
15
0
58
0
58
0
0
2
0
20
2
6
0
0
44
159
0
1
0
29
0
0
6
2
0
0
0
0
0
3
19
3
0
0
5
0
5
8
0
12
28
0
32
15
22
0
16
0
0
5
4
2
9
11
35
0
4
0
0
18
15
0
0
16
10
8
0
30
0
0
20
0
0
20
0
0
2
26
0
1
0
0
0
41
0
0
0
0
0
0
23
0
31
0
9
45
5
0
5
0
0
13
0
0
31
0
5
5
0
0
19
3
18
0
7
0
0
9
0
0
15
0
2
0
29
3
0
0
19
11
0
23
1
1
7
3
1
0
3
0
18
7
48
0
45
0
0
0
0
12
0
0
0
18
0
0
12
0
19
0
0
0
9
0
6
0
0
9
37
0
31
0
0
6
0
11
0
0
0
17
13
13
0
17
0
0
0
6
0
12
0
3
0
0
11
0
0
0
0
22
0
0
21
0
1
0
0
17
1
0
0
10
0
0
9
0
0
0
6
0
4
3
0
0
17
11
6
0
0
0
31
0
0
0
0
7
15
19
2
31
0
14
0
23
0
2
0
5
0
0
0
23
0
0
0
0
22
2
0
0
0
0
25
0
32
0
8
0
0
7
19
32
0
0
0
23
0
2
30
0
0
16
0
25
2
17
0
10
0
0
14
0
45
0
0
0
0
0
24
0
6
5
12
18
0
0
12
0
0
0
13
4
19
0
0
0
9
0
21
19
10
4
17
21
0
0
0
18
0
17
35
63
0
74
18
11
10
0
3
0
0
0
0
0
0
0
0
13
5
0
13
15
0
17
5
0
0
0
29
0
2
0
0
0
0
13
0
1
16
13
26
0
29
0
3
1
0
17
5
0
0
3
0
0
0
28
0
0
19
0
5
0
20
0
26
0
0
3
12
0
1
4
39
0
3
0
4
0
0
0
16
0
0
0
11
26
0
2
0
0
5
31
0
48
0
0
31
0
2
0
0
0
15
0
11
0
0
0
33
13
16
3
0
0
4
8
8
0
0
0
0
16
11
8
9
37
45
5
0
0
0
0
0
7
0
11
0
0
0
7
0
0
0
0
0
0
0
0
8
0
0
31
0
23
26
14
8
20
24
16
0
0
0
36
48
0
0
0
0
0
0
0
13
0
0
0
0
0
0
35
2
0
55
0
28
0
0
0
41
28
0
0
26
0
2
35
52
164
16
0
2
10
0
0
0
0
0
2
0
27
3
0
11
0
24
11
11
9
7
13
0
0
0
0
0
7
0
0
6
0
0
22
0
0
11
0
0
0
0
11
0
0
17
2
2
12
0
11
4
0
0
15
24
0
38
0
49
16
13
8
0
0
29
26
0
1
0
0
0
40
36
29
0
2
0
0
0
0
0
44
70
0
0
27
0
0
0
0
8
0
35
14
0
0
27
23
0
0
0
6
0
0
19
20
0
0
0
21
12
0
0
1
0
6
21
0
0
13
0
0
31
0
0
7
0
0
0
7
7
30
0
30
0
0
0
5
11
10
7
1
0
28
0
19
0
0
0
2
43
0
63
0
38
3
21
8
11
53
0
42
0
8
6
6
0
0
0
10
40
0
63
0
1
1
0
22
13
5
15
41
0
1
0
32
0
0
2
3
21
6
5
0
0
0
30
0
4
0
4
17
0
0
4
8
0
54
0
0
0
0
2
5
51
0
0
23
3
0
8
1
0
11
0
0
0
0
32
0
1
1
25
0
0
19
0
31
0
28
0
0
18
0
0
6
28
0
0
0
33
12
16
0
0
20
0
8
13
0
0
0
0
0
0
0
15
14
0
21
0
0
12
3
31
0
15
0
0
34
7
38
19
16
0
0
0
4
8
0
0
0
0
9
0
18
0
16
21
0
21
0
0
0
0
0
0
24
11
11
0
7
0
11
0
0
0
0
0
0
26
0
0
19
0
6
17
2
32
29
0
9
0
19
2
0
0
16
0
34
20
0
28
0
2
9
0
13
0
0
0
0
0
0
7
0
37
11
19
0
0
7
0
0
0
0
0
0
19
42
0
16
0
21
0
0
0
9
8
15
4
0
0
11
7
13
0
12
0
22
0
30
0
41
5
0
52
0
12
0
6
0
38
0
0
0
0
0
0
0
16
0
18
34
0
0
0
0
10
0
0
0
19
30
15
0
0
0
5
4
2
4
1
2
13
1
4
16
12
26
48
42
0
0
0
0
0
74
18
29
0
0
5
11
0
19
29
25
0
0
0
17
1
40
0
0
6
7
57
14
21
16
0
0
0
0
12
0
2
41
0
36
29
8
0
4
68
89
84
152
102
48
52
45
64
0
64
0
3
18
0
7
9
0
0
16
0
0
0
0
58
164
7
34
3
15
5
0
33
15
17
16
4
0
4
0
34
2
0
0
0
10
0
0
0
6
5
1
8
0
0
14
22
6
33
32
0
6
35
0
12
0
0
4
0
15
5
2
0
8
0
5
40
0
7
0
20
0
10
0
0
0
11
0
11
22
1
0
0
0
0
23
60
0
0
35
0
31
18
0
0
16
0
0
0
0
28
0
39
0
7
9
4
3
0
0
61
0
0
11
0
44
0
27
9
1
4
48
0
24
7
29
0
0
14
7
0
16
0
25
17
2
17
29
0
0
0
3
0
21
48
0
0
0
0
26
0
35
0
0
0
0
11
0
22
4
10
0
40
0
16
0
20
0
0
0
30
0
3
0
0
24
0
20
0
7
12
0
31
0
0
38
4
0
13
0
14
0
0
0
0
18
19
0
0
31
3
3
0
26
11
0
0
10
0
40
0
0
0
5
17
0
10
0
35
0
0
0
11
50
20
0
62
0
0
0
29
0
0
34
0
0
0
15
0
14
2
21
18
30
10
4
28
0
0
0
0
23
0
0
0
10
2
0
10
0
24
0
2
0
0
0
9
0
0
4
20
27
4
0
0
0
3
20
0
2
24
0
30
0
0
6
0
1
29
0
4
0
0
7
0
0
9
0
0
8
17
10
0
11
18
18
0
0
8
24
0
19
0
0
0
0
0
28
0
0
0
0
18
0
0
0
0
29
0
0
2
13
22
17
3
0
21
0
1
31
47
0
0
0
2
0
18
3
0
2
0
0
12
0
4
0
0
6
19
10
0
0
7
0
34
0
0
0
0
31
0
0
0
17
0
0
13
0
41
10
13
0
34
7
5
0
0
0
12
0
18
20
0
8
0
0
12
5
0
8
0
9
5
4
0
0
0
11
0
0
0
20
0
0
2
0
31
0
14
15
0
13
3
3
30
9
1
0
11
2
0
5
7
15
0
18
0
0
5
25
11
12
25
2
0
0
9
0
2
0
5
0
15
7
14
4
12
75
10
0
0
0
0
0
0
48
0
0
12
0
0
0
8
0
24
17
8
4
0
7
32
0
21
50
3
31
0
0
0
0
0
0
15
49
0
0
0
1
40
0
0
0
0
0
0
0
0
0
0
0
0
0
0
0
0
0
0
0
0
32
6
0
0
15
0
0
50
163
8
0
0
0
32
0
15
0
0
15
24
0
0
26
0
0
8
16
19
12
8
15
20
0
9
9
0
1
20
0
17
0
0
4
4
0
10
0
0
24
4
7
8
3
0
0
19
0
9
0
3
0
5
0
9
7
0
28
0
0
14
0
4
7
0
0
0
5
19
0
0
61
0
0
58
0
0
80
9
0
44
0
0
0
0
0
0
0
0
0
0
0
50
0
0
0
37
0
1
0
0
0
0
0
0
0
0
0
0
0
0
8
36
0
11
0
2
0
18
0
0
33
0
0
49
0
0
0
3
0
3
9
0
0
24
19
5
38
0
0
0
0
28
0
4
0
0
0
11
0
6
0
22
0
0
13
0
0
16
11
1
0
42
0
15
0
21
29
0
0
13
25
20
0
4
0
48
0
8
0
0
0
0
0
9
9
0
0
0
4
0
0
0
46
0
25
0
8
0
11
15
0
15
5
0
0
0
0
0
0
28
0
9
17
5
22
0
0
2
20
8
0
0
0
0
4
0
0
7
0
6
33
13
15
7
0
17
0
34
0
4
0
0
0
14
0
12
0
27
0
0
36
12
21
0
0
0
0
14
0
0
30
0
0
33
0
28
2
0
10
18
3
0
3
3
9
0
0
0
0
4
0
1
11
0
15
12
0
0
0
42
3
3
3
16
7
0
23
0
61
0
0
32
5
6
0
29
5
0
3
4
16
0
13
0
4
0
7
1
0
44
14
0
0
0
0
44
0
0
0
59
0
0
23
22
4
0
0
45
0
7
8
0
0
0
0
16
0
0
34
0
17
9
22
0
6
0
20
0
15
20
0
0
0
0
15
0
5
0
29
0
4
28
0
0
21
5
33
0
6
0
9
0
22
0
0
6
16
7
31
0
11
0
0
1
8
0
4
12
0
12
11
0
0
0
12
0
0
16
0
3
28
0
1
0
15
9
2
0
1
0
0
0
14
37
34
13
9
0
4
0
4
6
0
10
2
15
0
11
0
0
53
11
16
0
0
0
18
22
0
16
0
26
13
42
2
0
0
0
0
0
17
0
0
18
18
0
42
29
22
33
0
20
0
0
13
6
9
0
26
0
0
0
38
0
23
53
0
7
0
30
0
65
0
0
0
14
24
38
0
6
0
0
7
0
0
0
0
22
0
44
160
0
0
2
8
0
0
0
0
0
0
3
0
0
11
0
16
12
0
12
0
0
0
0
0
4
32
0
0
4
0
7
0
0
9
0
0
28
31
0
8
0
0
5
19
7
18
7
0
4
9
15
2
0
0
4
0
0
3
0
14
0
0
12
0
0
41
0
0
0
6
7
0
35
20
56
2
0
0
3
0
0
35
0
9
4
0
21
0
9
9
47
0
0
31
0
0
0
34
0
9
0
0
18
0
0
15
24
0
0
14
3
0
18
0
3
4
17
0
2
6
0
7
46
0
8
37
0
1
37
0
21
8
0
42
0
0
0
30
0
41
6
0
17
0
43
0
37
29
0
13
0
0
7
0
1
69
0
40
8
0
17
0
0
0
12
27
0
0
11
23
6
0
0
2
21
20
21
0
30
0
17
11
23
0
17
0
72
0
10
11
9
8
16
14
0
0
0
0
28
0
0
9
0
42
16
5
19
0
2
0
20
31
0
2
0
1
0
27
0
0
0
0
0
5
0
24
31
4
30
10
0
0
0
0
19
0
0
0
0
3
0
1
29
5
8
24
0
27
22
3
0
23
0
2
0
8
0
36
6
0
0
19
0
0
0
0
4
0
0
7
6
0
0
0
4
16
0
58
19
0
1
0
0
26
9
40
0
2
0
8
0
0
22
0
6
0
0
31
0
18
0
22
0
0
9
27
0
2
0
2
2
0
0
37
1
0
0
0
37
1
0
50
20
0
27
0
0
0
13
8
8
0
19
0
0
22
7
0
15
1
14
0
10
0
33
4
0
0
9
0
0
0
0
0
14
0
9
8
0
2
26
0
6
9
2
7
1
0
3
0
15
0
3
0
24
0
0
0
0
8
0
0
0
0
4
0
9
0
18
0
0
6
1
17
19
8
0
9
0
0
0
0
0
24
21
0
19
19
0
50
0
0
3
21
0
11
0
0
8
0
0
0
0
0
1
13
0
6
11
12
1
0
0
0
4
0
0
1
28
13
11
25
21
8
0
0
0
18
0
23
0
0
6
0
16
0
15
0
13
0
9
0
0
30
13
24
0
47
0
21
0
0
0
0
18
0
0
0
0
12
0
0
29
0
0
7
0
0
2
4
32
0
0
0
28
0
56
0
0
5
0
0
50
21
0
9
0
0
4
0
49
159
0
35
0
10
9
34
5
28
16
0
8
0
0
10
0
1
0
0
0
36
4
0
8
13
0
2
2
0
4
15
0
6
9
8
0
10
0
6
0
52
0
0
0
5
0
5
0
0
0
0
3
9
38
0
0
1
0
119
0
54
42
15
0
1
0
2
0
57
1
0
44
7
0
0
4
0
0
9
18
0
0
31
0
24
41
16
17
0
0
39
7
0
0
45
25
5
23
0
0
48
16
0
0
6
23
0
8
0
5
0
0
0
43
32
0
21
1
0
0
0
0
0
0
2
0
0
18
0
24
0
0
0
0
20
0
5
13
10
0
38
20
0
0
0
0
14
0
0
0
26
38
2
20
37
0
13
0
5
0
1
15
8
19
0
3
0
8
0
0
0
13
0
0
0
0
0
0
0
0
0
0
0
22
0
22
0
0
0
36
0
0
0
0
0
29
0
19
0
17
0
0
25
0
35
0
0
0
0
0
23
0
13
0
19
28
11
0
5
26
9
12
0
0
0
0
0
0
0
0
0
3
0
0
38
0
2
0
45
4
21
0
5
0
22
0
0
0
0
1
17
0
0
0
0
7
0
11
0
18
0
34
1
0
0
12
3
4
2
3
14
18
0
19
0
22
0
0
0
33
0
3
1
0
18
7
13
0
0
21
17
6
0
0
0
24
15
0
17
0
28
0
6
31
12
0
0
0
0
28
3
0
0
0
48
0
0
17
0
4
0
0
0
0
0
0
12
0
0
0
4
0
5
0
13
0
21
17
9
8
0
17
0
28
0
10
0
2
1
0
0
14
19
12
3
0
5
22
4
11
36
0
0
0
0
0
0
0
10
0
0
41
0
20
0
20
11
2
0
0
5
21
12
20
0
0
0
20
0
0
46
9
21
14
0
0
19
0
0
1
0
19
0
0
0
0
0
7
0
0
6
0
16
0
20
0
0
0
0
37
0
3
0
0
0
41
18
12
6
5
7
12
16
0
3
7
0
3
7
0
30
1
0
42
39
0
0
0
0
0
5
14
17
5
0
6
0
28
0
30
2
16
0
0
8
95
0
55
15
0
8
0
17
0
0
0
0
0
10
6
3
7
0
0
53
25
0
34
0
89
17
32
6
21
0
0
4
1
0
40
0
13
0
0
0
0
0
12
37
6
0
45
162
10
9
0
5
20
24
0
0
3
0
6
0
2
7
0
26
0
3
60
0
1
0
25
0
0
20
0
0
0
0
0
0
0
3
0
0
0
0
0
22
0
13
17
0
0
0
0
10
23
0
0
10
0
0
20
5
7
0
0
2
2
0
0
18
31
0
0
31
0
5
7
0
10
17
20
34
0
0
54
25
0
0
0
23
0
0
32
0
0
17
54
8
0
0
0
0
0
30
0
0
0
0
0
11
0
0
5
0
3
0
24
0
0
9
0
2
16
21
5
14
12
18
0
44
28
0
17
31
27
0
20
19
0
0
34
0
0
0
0
0
15
0
36
0
0
0
6
7
19
0
0
0
0
0
0
26
0
0
0
10
8
0
6
0
0
16
0
11
0
0
0
0
0
34
4
0
4
5
35
19
0
13
35
0
9
5
20
0
12
0
0
0
34
31
3
0
3
11
42
3
0
15
0
51
13
15
27
29
0
15
0
9
0
0
3
0
0
0
0
0
0
0
28
36
0
0
0
3
0
0
0
0
0
0
0
0
0
0
0
10
2
4
2
0
21
26
0
0
0
0
6
0
86
0
38
0
9
0
13
0
0
43
1
24
19
11
2
14
0
2
2
0
27
2
0
0
4
0
0
0
34
0
0
17
14
0
15
0
0
5
0
43
45
0
1
8
0
0
0
0
6
0
0
39
0
7
0
0
0
8
32
0
0
32
0
0
0
0
7
12
25
0
31
3
0
4
0
20
18
0
0
0
4
21
0
4
0
3
0
0
0
0
0
0
0
3
0
9
0
0
0
0
0
1
0
23
1
0
0
0
0
23
24
9
12
0
3
0
0
19
0
0
37
0
0
4
0
0
0
29
0
2
0
20
0
7
0
0
0
6
0
8
0
0
3
0
0
34
0
13
0
1
0
0
25
2
0
3
2
0
0
12
0
4
7
15
21
0
12
0
0
18
0
0
0
25
37
12
5
0
12
0
0
7
9
0
0
7
7
7
19
5
24
61
37
0
0
0
35
0
19
2
0
9
5
2
17
0
5
0
0
0
40
46
45
0
28
9
0
0
0
0
0
0
25
33
20
0
25
12
6
22
0
16
0
0
32
0
0
0
0
0
61
6
47
6
3
0
0
1
0
0
0
0
4
0
0
10
3
0
48
161
0
0
0
6
0
0
17
3
0
0
7
0
0
5
30
3
31
16
0
0
7
0
0
0
0
7
0
0
14
33
1
32
0
45
0
14
18
22
11
0
0
0
0
0
18
0
5
10
2
0
42
6
26
0
3
14
3
0
0
27
0
0
0
13
0
0
0
0
0
53
0
8
29
1
0
0
3
0
0
17
0
32
0
15
0
0
26
0
1
0
0
12
10
0
0
53
0
0
0
34
4
0
0
35
0
0
0
0
15
30
11
0
1
1
0
13
0
0
13
0
0
34
0
0
0
6
0
0
0
29
0
3
0
0
0
28
0
35
6
0
0
0
10
0
30
14
0
0
0
11
11
15
5
85
0
0
80
0
0
12
0
0
0
0
0
1
0
54
0
2
0
2
0
0
8
3
0
0
16
0
1
34
0
0
0
7
20
0
0
0
23
0
0
0
0
0
0
1
0
0
16
25
0
0
0
0
0
0
0
0
0
0
0
0
0
25
0
0
103
0
0
132
176
3
0
91
186
57
0
31
123
0
0
0
37
0
0
0
0
0
0
0
8
0
20
18
18
42
0
0
12
0
0
0
0
0
6
0
11
0
0
0
24
5
0
13
0
5
10
0
11
0
0
0
0
0
0
3
24
9
0
0
6
0
0
13
10
54
0
22
16
3
0
0
0
42
7
34
0
0
16
38
11
0
0
30
0
52
2
0
20
0
15
17
0
20
38
0
10
12
0
0
0
9
0
0
12
0
0
15
0
0
0
37
0
15
27
0
18
0
10
24
50
0
2
44
0
18
6
15
26
25
0
0
6
0
0
24
0
29
0
7
0
0
0
11
0
15
9
2
17
8
6
23
0
47
29
0
2
0
1
28
14
0
8
13
0
0
19
30
15
0
0
0
7
8
5
0
0
3
10
18
3
0
0
0
0
20
30
0
0
6
0
0
14
0
0
7
10
0
32
17
0
0
0
2
15
21
29
0
9
3
10
2
0
7
0
5
0
5
15
0
5
38
3
21
0
0
0
11
0
0
8
0
0
48
0
0
0
0
50
8
46
40
0
8
19
0
0
0
34
23
30
0
1
0
3
0
7
21
0
2
0
9
6
0
11
0
10
38
29
10
0
0
0
0
0
30
11
66
0
1
0
1
0
8
19
3
0
27
45
164
23
0
0
22
0
19
3
0
0
12
10
0
0
8
0
0
0
0
0
33
0
0
41
0
0
33
0
4
0
1
0
9
0
0
0
0
28
0
6
24
19
28
0
8
12
0
15
0
0
0
20
0
0
0
17
7
0
20
0
0
0
0
22
0
0
18
0
24
0
39
0
0
0
0
0
16
0
38
0
7
0
40
0
0
25
0
38
10
38
0
45
16
32
0
0
0
0
15
0
0
24
0
2
47
0
27
0
42
15
0
0
0
6
39
2
0
21
1
21
0
2
17
0
0
10
3
0
0
8
0
0
0
37
0
30
0
0
0
19
0
14
0
25
0
24
20
0
10
13
0
17
0
0
0
1
0
17
0
0
24
17
12
0
3
0
15
8
11
0
136
76
0
22
6
0
0
22
0
74
5
0
0
0
26
9
0
0
50
8
0
8
10
50
62
38
0
0
0
3
34
3
0
0
0
0
0
0
0
101
32
7
38
29
0
15
0
0
106
0
0
125
147
0
0
86
143
0
0
106
98
0
0
58
153
88
0
45
96
41
0
0
0
0
0
0
0
0
0
0
2
19
0
0
30
17
0
0
37
6
3
15
13
13
0
0
0
4
0
18
0
18
0
3
35
0
26
0
0
18
0
13
0
7
3
4
5
0
12
0
0
18
0
10
20
0
0
0
31
0
13
0
14
0
0
21
8
0
10
3
0
0
0
17
0
0
18
0
0
18
36
0
0
0
35
13
0
0
23
2
29
0
8
0
17
0
0
0
0
6
0
4
0
0
0
0
32
0
0
17
0
0
2
1
2
0
8
5
0
12
4
0
19
19
1
0
13
0
0
0
6
0
0
0
0
0
4
0
0
29
12
0
0
3
5
0
20
10
0
0
12
1
0
16
0
16
0
0
13
0
0
16
0
9
27
20
0
3
0
30
0
0
0
0
0
73
0
12
18
3
16
0
2
0
0
0
0
12
8
31
0
8
0
19
2
0
0
0
6
7
11
10
5
0
34
22
40
0
0
0
0
77
0
0
0
28
11
28
0
24
23
13
20
4
27
0
68
9
0
0
0
0
0
33
8
22
0
0
0
19
0
0
0
8
0
0
41
15
0
5
0
17
0
0
18
18
84
19
0
75
0
0
67
0
6
0
8
0
43
0
0
47
163
9
0
31
18
14
0
0
0
0
0
8
0
0
28
14
0
33
0
0
6
0
0
13
0
8
0
18
0
0
0
0
7
0
2
0
0
17
0
0
24
0
0
25
0
0
26
51
9
0
0
12
0
0
26
3
0
0
72
0
43
43
0
7
8
0
27
0
27
0
35
0
53
40
16
34
0
20
7
11
0
24
0
0
19
24
44
6
0
0
2
0
0
0
0
48
0
0
19
0
0
14
0
0
29
0
0
0
0
0
0
10
21
4
4
2
0
0
0
35
0
9
0
2
0
0
5
0
29
15
4
20
0
16
0
20
0
0
24
0
47
8
0
7
11
0
11
0
0
0
23
12
6
0
0
0
1
9
16
17
33
0
0
20
1
0
0
10
0
0
0
0
0
0
22
0
17
8
25
0
40
0
24
15
0
0
0
0
9
0
16
0
0
0
11
0
41
1
0
0
0
0
0
10
0
59
0
0
92
96
0
26
29
0
29
0
18
22
0
0
142
93
0
0
115
19
0
0
84
49
0
0
115
93
0
0
62
120
125
28
11
42
118
0
0
0
0
0
0
0
4
0
14
0
0
0
25
0
12
0
14
0
0
0
0
2
50
0
0
0
16
14
0
0
0
0
4
11
0
18
4
9
0
12
10
6
0
0
0
0
9
0
0
0
0
2
19
0
54
0
3
0
0
0
0
0
0
4
0
0
0
15
0
1
0
21
23
0
29
25
0
0
0
0
0
0
40
0
0
7
8
4
5
0
17
32
0
24
20
0
0
39
0
39
10
6
11
0
0
0
9
0
0
17
0
0
2
27
0
0
0
2
0
0
0
18
16
13
0
9
0
24
0
16
13
0
19
0
0
0
10
10
1
0
2
0
11
0
7
0
0
7
0
22
0
0
0
27
0
0
11
6
4
0
0
0
0
27
0
44
0
0
25
16
0
0
6
0
3
8
21
0
12
0
2
0
0
7
20
22
0
20
9
0
2
0
2
13
0
1
0
10
13
20
5
41
62
22
0
0
0
135
16
28
4
0
21
0
0
25
0
41
42
9
0
0
0
0
5
0
29
4
0
22
12
15
6
0
0
17
0
17
0
0
30
0
0
0
0
46
25
6
16
5
15
0
0
8
0
15
0
0
25
0
0
24
9
0
3
7
6
45
163
7
0
0
1
0
0
40
5
16
7
0
35
0
9
3
14
0
0
20
6
0
0
10
0
14
0
10
6
27
21
0
0
0
3
8
15
33
0
0
9
0
20
0
15
4
0
0
13
0
15
0
9
2
0
0
48
0
11
0
15
46
0
19
0
23
5
0
0
0
28
0
7
0
0
0
0
29
0
2
0
36
25
0
19
0
0
42
0
0
15
0
47
0
7
0
0
32
0
6
9
6
10
0
16
0
13
26
0
0
6
0
0
12
0
8
8
32
5
0
4
37
4
13
0
32
0
0
0
0
0
3
0
0
11
0
3
12
6
20
0
0
0
15
0
0
7
8
23
25
12
0
8
2
41
5
0
0
0
0
0
11
8
29
0
14
0
0
5
19
0
47
0
0
11
0
0
0
33
4
0
1
0
13
0
25
6
20
4
13
24
19
0
7
0
0
0
11
0
0
0
70
0
0
121
0
0
55
60
0
0
0
0
0
17
31
26
0
54
82
22
0
18
108
3
0
58
57
0
0
23
121
16
0
0
84
77
0
0
22
117
140
81
0
8
14
70
0
0
0
0
0
0
6
0
0
0
0
9
20
0
1
30
0
25
0
0
0
32
0
7
0
0
22
16
0
1
0
0
10
11
7
0
0
29
8
7
18
14
34
0
4
6
23
3
9
23
0
40
21
0
0
0
11
47
3
4
0
9
10
0
8
7
17
0
0
0
0
0
0
24
0
17
22
21
0
15
0
16
0
0
0
5
0
0
0
0
27
0
36
9
9
0
0
0
0
22
0
2
33
0
0
10
2
0
13
0
0
21
0
29
0
8
25
0
0
0
32
0
0
12
15
0
32
0
7
1
23
8
11
6
0
5
0
11
0
33
0
15
0
10
0
0
0
14
13
0
9
0
17
0
4
0
16
51
8
15
0
0
7
2
0
35
0
0
0
25
0
48
0
4
0
0
0
0
1
0
0
16
27
30
0
0
3
6
8
3
12
0
0
11
0
4
1
6
12
43
18
13
0
0
0
0
0
0
21
0
0
29
36
19
8
41
61
35
23
0
0
31
0
0
0
0
0
0
0
0
23
13
2
2
0
39
57
0
0
31
0
0
8
0
14
0
0
0
0
11
5
4
0
0
0
15
6
24
0
0
0
0
0
1
53
163
5
12
0
21
0
14
0
0
0
0
1
2
0
3
0
31
22
0
0
0
1
11
25
0
3
4
13
0
0
0
23
0
9
23
0
4
3
0
0
0
9
10
0
0
0
8
0
45
0
3
7
11
0
0
0
18
0
20
0
2
6
0
0
0
10
26
0
0
6
0
0
0
19
3
65
0
0
0
0
0
0
0
0
0
0
0
21
0
46
0
0
34
0
23
0
1
0
0
0
0
0
4
0
14
0
23
0
6
0
0
0
0
19
0
0
0
0
0
0
0
0
0
0
0
26
2
0
0
35
3
0
29
7
10
28
0
11
0
0
45
22
20
0
0
0
0
0
0
0
0
8
0
0
28
7
33
0
0
14
11
0
0
0
0
38
14
20
26
0
0
0
1
0
19
0
3
2
0
0
0
0
32
0
0
0
28
21
0
0
0
0
0
21
0
0
0
69
23
0
72
0
1
57
5
0
68
17
0
0
0
5
6
0
6
0
0
126
0
0
15
21
74
0
0
84
35
0
0
78
53
0
0
53
134
14
0
0
49
96
13
0
0
43
100
121
84
45
0
42
12
0
0
0
0
4
36
0
0
7
0
0
66
0
1
15
0
16
8
0
0
16
9
0
11
0
12
10
0
0
0
9
5
0
8
0
1
0
24
21
0
26
0
4
21
0
0
3
0
16
0
0
1
0
0
5
18
0
47
0
5
3
6
13
0
1
16
0
30
0
13
0
15
0
0
0
0
0
10
0
5
0
27
0
0
45
0
0
0
0
0
0
15
21
12
0
24
0
0
48
0
0
0
34
6
0
2
15
0
1
12
0
0
0
0
23
0
0
3
0
0
11
0
0
0
0
0
0
0
0
0
21
11
9
0
0
8
0
0
0
1
17
24
0
0
22
1
5
13
0
17
7
0
0
0
0
0
0
0
35
0
0
0
0
11
0
35
0
0
0
20
22
4
0
14
23
0
0
0
33
23
6
18
12
10
0
0
3
2
4
9
5
9
3
8
18
12
17
50
0
0
13
0
0
0
26
0
0
31
36
38
22
16
0
0
0
0
6
7
18
55
0
11
0
45
3
7
0
12
0
20
0
0
7
0
0
0
126
9
61
0
1
0
60
63
21
13
0
11
0
6
6
0
0
12
56
2
21
58
11
0
45
162
1
14
1
0
11
4
5
1
15
23
0
12
2
32
0
0
9
0
0
8
0
4
0
3
14
0
0
7
0
22
13
0
0
0
0
2
0
3
35
8
46
0
1
19
0
1
0
1
0
9
0
7
0
23
13
2
12
0
0
7
27
0
0
0
38
0
0
36
18
27
0
20
0
38
11
8
13
0
53
0
23
11
0
12
28
11
0
0
0
0
0
5
0
22
0
0
0
4
5
5
0
22
0
21
0
16
0
6
24
0
10
0
19
11
26
0
28
17
22
18
21
2
24
14
12
0
0
45
0
0
0
0
0
0
8
0
9
48
0
0
0
4
0
19
0
0
19
0
18
40
0
0
12
8
0
0
65
11
0
11
9
3
0
0
23
0
19
0
9
0
7
34
0
0
9
70
0
10
26
0
0
56
5
0
11
0
0
7
0
0
0
0
36
0
53
67
0
39
44
1
14
51
0
72
78
11
0
0
28
0
0
35
0
0
123
95
0
0
14
116
0
0
23
29
0
0
28
73
0
0
0
76
50
0
0
12
66
44
0
0
0
29
0
8
17
40
85
77
106
29
0
0
0
0
0
0
0
0
70
0
0
20
4
0
0
10
0
0
13
0
0
10
9
46
0
0
8
0
25
0
0
15
0
72
0
0
16
3
2
0
0
0
0
0
0
0
0
0
4
3
12
0
27
3
16
35
0
13
0
0
13
0
17
6
44
25
0
7
0
25
0
0
7
21
0
0
22
8
7
19
4
9
43
0
20
0
0
36
0
0
17
0
14
13
0
0
0
0
0
0
0
0
16
5
4
0
6
0
12
0
12
8
0
0
5
0
15
0
9
22
0
4
5
0
25
0
25
3
0
56
0
0
0
24
0
20
0
0
0
5
0
43
0
0
0
0
0
25
15
0
0
0
16
0
23
0
19
0
51
16
0
10
3
2
0
12
0
0
9
0
4
6
0
0
2
12
0
0
0
32
14
9
0
8
4
8
0
0
11
0
0
13
10
14
13
12
42
37
29
0
0
0
0
22
14
50
0
73
9
0
32
0
0
0
0
0
0
0
0
0
6
0
0
1
0
10
0
1
0
8
37
0
41
2
18
4
0
0
0
27
0
0
0
0
35
0
24
27
0
0
7
0
0
0
0
8
0
17
0
12
51
161
1
0
15
0
0
0
9
20
0
1
0
9
9
23
1
39
11
0
24
0
16
0
0
0
4
0
6
16
0
2
0
0
0
10
11
25
15
13
0
0
0
23
5
24
0
2
7
0
0
16
12
8
0
2
10
0
0
22
29
38
0
0
0
0
0
6
0
0
0
7
0
3
11
27
0
0
0
0
0
0
42
0
0
0
11
0
15
7
0
0
0
9
10
29
0
55
47
0
4
0
32
0
26
1
0
14
4
0
0
15
14
11
0
12
6
0
0
0
10
0
0
0
0
7
10
0
0
21
0
17
0
0
45
0
8
0
0
15
15
6
0
14
0
11
0
44
72
0
0
0
7
5
0
13
0
0
0
11
0
7
38
0
20
15
0
0
0
0
34
0
47
0
0
0
8
53
0
0
5
0
0
0
0
28
0
0
26
0
0
0
0
11
30
32
29
0
7
1
0
0
0
33
58
0
0
71
0
40
0
59
0
5
32
55
24
0
0
97
0
0
0
52
0
0
40
93
37
0
47
52
0
0
0
25
91
19
0
0
32
27
0
0
11
49
38
0
0
2
6
48
82
107
94
0
0
0
0
0
0
0
0
0
17
2
1
17
20
0
0
0
0
11
0
0
0
0
37
8
0
16
0
25
0
0
0
0
2
0
12
5
0
0
0
10
9
31
0
24
20
0
21
0
0
0
0
0
0
11
0
11
18
0
0
0
0
11
2
23
0
6
0
0
0
9
0
0
0
19
0
4
0
0
0
0
42
0
9
29
0
11
0
10
0
0
14
8
16
17
24
13
7
0
0
4
0
20
11
0
0
28
13
0
7
0
28
6
9
0
1
27
4
44
0
0
25
0
19
0
0
9
0
0
0
0
0
24
15
0
19
15
0
23
0
0
0
33
0
0
0
25
3
0
25
0
20
0
0
0
0
0
0
0
22
0
0
16
0
0
15
0
0
0
11
0
0
4
0
0
0
28
9
12
16
1
7
6
0
3
17
6
5
5
0
5
9
1
16
9
3
0
0
0
0
43
0
0
16
54
0
21
4
0
0
0
11
1
5
12
0
0
32
3
3
0
0
8
26
0
0
28
0
0
20
0
0
0
5
0
0
0
15
10
32
0
8
0
7
0
3
0
2
0
11
32
0
0
3
36
0
0
47
160
0
3
0
0
20
21
0
0
0
27
0
18
0
7
13
0
0
0
0
12
0
0
6
19
5
0
0
51
5
0
5
10
11
0
0
0
5
0
9
13
0
0
0
4
0
0
0
5
25
0
0
22
27
0
0
5
6
0
0
0
24
5
2
28
0
15
0
1
0
15
0
31
0
0
0
54
17
8
0
0
3
0
0
14
0
0
20
0
0
43
20
0
0
0
0
0
22
0
4
0
19
0
4
0
0
0
32
0
8
0
0
13
0
0
0
0
29
19
42
0
0
34
0
0
0
6
0
19
14
29
0
30
0
0
16
0
0
21
0
0
0
41
0
0
0
0
0
0
8
31
10
4
0
28
2
18
1
57
0
12
22
4
0
0
74
0
68
0
0
0
0
0
0
29
0
0
0
9
9
13
0
17
0
3
0
0
0
0
0
46
55
0
26
0
37
72
0
54
74
25
9
0
0
21
20
59
0
0
0
0
0
102
47
0
0
120
65
0
0
32
0
0
72
48
32
0
35
42
58
0
0
76
94
73
0
0
37
25
0
0
2
101
4
0
0
2
24
28
11
24
26
29
38
70
91
93
25
0
0
0
0
0
31
15
0
0
0
0
33
0
0
4
3
18
0
0
0
0
0
0
0
25
0
25
17
0
0
3
7
23
0
34
0
47
4
0
0
0
0
0
12
0
32
4
21
0
10
0
27
0
8
0
26
65
2
26
0
0
18
2
0
2
0
1
0
30
0
9
2
0
0
24
0
5
0
14
0
9
14
0
0
78
0
0
0
0
0
0
0
19
0
0
4
38
0
0
12
28
2
0
6
11
62
0
23
0
0
8
5
0
0
0
3
0
6
20
8
0
0
8
0
5
22
0
0
10
24
0
26
5
5
0
0
0
16
0
0
12
48
11
0
0
1
0
0
8
11
22
0
11
22
0
7
41
0
4
43
10
11
9
10
24
0
49
0
10
0
0
0
10
35
20
13
0
5
7
0
0
0
0
0
17
10
20
27
14
7
43
47
40
0
0
0
0
0
8
27
49
47
0
0
0
0
0
0
0
1
13
18
0
0
0
14
3
24
0
3
0
4
0
40
7
0
0
5
44
6
20
5
0
0
6
0
0
0
0
38
0
0
6
7
0
28
0
0
18
0
0
46
0
45
162
13
12
0
17
5
0
6
11
22
4
0
8
0
0
0
3
11
0
0
13
0
13
3
0
0
11
7
6
3
0
27
0
12
0
11
28
0
0
1
0
27
2
0
11
8
0
13
9
15
0
7
0
0
5
0
7
0
20
0
5
10
0
10
13
0
0
0
0
39
0
0
13
0
0
0
30
0
17
0
5
43
0
23
0
2
29
41
0
27
23
0
0
25
19
0
0
12
7
24
26
48
27
0
0
0
0
20
0
0
24
0
6
4
21
0
4
30
0
5
0
0
0
0
60
7
3
0
25
0
25
0
0
0
9
0
0
0
8
2
33
0
0
0
0
44
0
6
0
0
17
1
0
0
0
12
0
10
0
0
0
0
20
28
19
0
0
25
12
23
0
10
14
18
0
0
6
2
19
0
33
0
0
23
0
2
0
0
43
16
0
0
0
26
0
30
0
0
38
0
0
0
0
76
0
5
0
0
33
0
98
80
2
0
56
63
0
0
31
59
0
36
62
17
0
43
0
31
0
0
15
46
45
0
0
6
34
1
0
0
74
21
0
0
14
47
63
14
0
0
3
33
28
38
7
27
43
43
57
34
0
0
0
0
0
1
9
17
11
45
0
85
0
0
0
0
23
15
9
0
0
4
1
0
18
0
16
11
0
0
15
0
0
0
30
0
0
6
0
2
0
5
2
55
0
16
0
0
0
9
0
15
7
0
0
0
15
0
0
16
12
1
0
28
0
0
7
0
0
11
29
0
0
8
53
0
13
0
23
0
0
5
0
3
24
0
17
39
0
5
0
12
30
0
0
0
0
0
0
0
0
0
0
16
0
0
0
12
0
38
0
45
0
0
1
0
0
0
2
0
8
0
0
11
23
0
1
0
0
0
9
0
1
0
21
10
0
22
0
0
12
0
0
10
0
3
22
0
0
0
0
1
0
0
2
0
0
0
0
1
7
16
0
0
0
20
0
31
0
0
0
1
28
19
5
6
10
0
3
5
11
4
0
0
4
0
16
7
18
24
22
0
0
0
24
14
30
49
65
0
0
0
0
8
0
0
0
0
0
10
0
0
0
0
0
11
0
0
0
1
32
0
42
3
0
43
0
0
0
2
11
11
25
11
47
35
0
0
0
24
21
7
0
5
26
39
0
0
0
0
0
42
160
0
0
3
0
0
0
0
0
13
0
0
19
5
2
45
0
11
0
26
0
0
17
22
0
1
0
0
4
0
0
0
3
0
0
3
0
12
0
0
7
0
24
0
13
12
0
2
0
12
0
31
0
0
41
0
0
15
0
39
0
7
4
0
14
0
0
22
33
16
0
8
61
42
0
14
56
0
42
0
2
0
22
0
17
0
0
54
0
5
15
10
0
11
0
5
24
6
0
0
0
0
5
0
0
34
0
7
34
0
3
0
0
6
10
7
0
0
49
1
16
10
15
0
0
0
0
6
0
6
16
4
44
7
5
0
16
18
0
0
0
6
0
7
0
6
82
0
0
0
3
13
11
24
28
0
12
32
0
9
10
3
0
0
5
0
0
0
0
25
5
0
0
0
3
6
7
0
0
0
5
0
0
0
0
0
20
0
0
0
54
50
0
29
0
0
0
0
90
0
0
50
0
26
0
0
19
0
0
0
11
0
0
75
56
0
0
9
0
0
30
31
0
0
29
98
0
0
0
39
74
0
0
0
51
0
0
0
89
17
0
0
40
74
73
5
0
0
21
52
68
4
0
0
0
51
0
59
52
91
68
18
0
0
0
0
18
0
0
0
0
38
0
0
22
0
0
0
27
0
0
16
0
0
21
0
25
21
0
0
2
22
0
0
20
0
32
28
0
7
3
0
0
7
0
6
16
0
9
1
0
0
24
0
0
5
20
0
0
0
0
12
16
31
3
0
4
0
0
8
0
10
26
0
0
3
0
0
4
6
3
17
0
0
8
0
0
7
5
14
0
0
14
14
0
11
5
1
0
0
19
0
0
0
4
0
39
0
11
4
12
0
0
0
5
20
0
33
0
0
7
2
0
0
0
0
18
36
1
0
3
9
1
0
7
0
0
6
0
0
36
12
34
13
0
0
0
33
0
11
0
0
0
6
8
0
21
16
0
0
1
2
12
0
16
0
0
49
0
0
0
0
18
31
7
0
8
5
7
6
0
7
0
0
8
11
24
0
18
14
64
47
0
0
0
79
5
1
0
0
0
0
0
20
58
4
35
0
0
0
53
13
0
0
33
34
0
47
22
28
1
0
5
15
0
48
0
34
29
0
25
0
34
0
0
0
19
31
0
15
0
31
2
0
0
2
1
57
45
0
19
51
158
0
13
23
8
14
33
4
4
0
5
0
19
0
10
0
1
0
20
3
4
0
0
20
0
1
0
15
20
0
0
6
0
4
8
33
0
20
6
2
0
0
0
6
0
0
0
0
15
20
0
15
5
16
28
0
13
0
13
9
4
7
32
0
0
0
0
0
0
16
9
0
0
0
0
0
0
0
0
0
0
0
0
3
2
0
0
20
0
0
0
0
6
0
0
0
59
0
6
0
19
0
0
31
19
5
0
34
19
0
7
0
26
0
23
0
11
0
6
0
10
0
40
0
0
18
12
1
0
17
0
0
0
0
0
12
20
0
1
13
0
37
12
27
31
0
0
3
31
0
0
0
0
0
0
0
18
0
0
0
9
0
0
0
30
43
0
0
0
0
0
43
20
53
14
0
0
2
0
0
0
0
27
35
42
0
11
0
14
63
0
42
0
0
48
0
16
37
61
0
0
56
0
0
0
0
0
103
91
0
1
64
42
0
0
81
24
0
38
89
45
0
1
91
29
0
0
66
89
0
0
0
17
11
0
12
80
45
0
0
0
77
102
0
0
0
9
86
7
0
0
0
0
38
27
42
0
0
0
24
58
70
74
46
0
0
0
0
8
68
0
0
0
0
22
8
17
0
11
7
0
0
15
25
0
1
0
30
0
6
17
0
0
51
0
27
17
0
0
16
24
0
6
0
22
2
0
0
37
0
0
20
75
0
9
0
21
8
31
0
3
16
0
20
0
0
24
0
0
102
0
6
0
2
0
17
6
19
0
0
0
42
6
0
48
0
1
0
13
0
25
0
0
7
0
0
0
10
0
13
36
2
0
26
0
4
0
0
14
0
0
46
0
17
0
31
0
19
21
0
10
0
0
17
18
0
0
0
0
0
7
8
12
0
3
22
0
21
0
0
0
14
0
0
8
1
0
3
0
25
0
20
36
0
8
9
6
0
0
13
0
0
13
0
19
0
3
10
0
6
0
0
27
40
33
7
0
0
0
8
0
10
3
4
0
0
3
10
12
0
32
32
12
0
0
18
0
84
0
0
0
92
0
5
0
0
0
68
68
0
23
0
31
0
0
0
0
21
0
6
13
0
14
43
0
4
0
6
0
30
0
13
0
0
0
0
0
6
38
72
0
13
22
0
15
19
0
0
0
0
0
51
162
19
27
0
0
0
0
0
5
24
0
2
12
0
8
0
0
1
3
19
3
0
0
37
0
0
0
0
0
0
9
7
0
1
0
0
0
0
10
0
22
0
25
0
0
5
19
19
1
0
0
9
0
4
42
0
0
1
0
1
17
12
0
0
13
6
0
11
0
0
9
0
0
0
0
24
21
0
0
29
45
14
9
6
54
0
6
5
0
0
49
15
13
24
9
0
17
0
0
0
3
6
0
31
10
0
0
0
49
0
0
0
21
5
9
0
30
0
0
1
6
11
0
0
33
36
0
12
0
27
7
10
0
39
0
0
23
0
16
0
14
46
0
0
0
20
0
9
37
0
0
50
15
52
38
0
22
11
0
21
9
10
24
0
9
0
51
0
40
20
0
0
0
0
0
0
0
0
0
3
50
18
43
0
0
0
24
12
36
18
0
0
0
50
0
0
76
0
0
0
64
14
22
41
23
0
0
95
0
0
70
17
0
40
2
0
0
12
111
0
0
7
69
0
0
5
77
40
12
0
62
61
0
68
89
68
0
0
0
93
105
0
0
0
10
66
60
0
0
0
10
59
55
28
0
0
0
0
36
26
62
42
42
64
54
0
0
0
0
8
0
28
45
0
0
0
0
4
7
6
0
82
0
0
6
10
0
51
7
0
14
0
0
0
0
0
1
1
0
13
0
0
15
8
5
0
32
0
19
25
0
16
13
0
21
5
0
6
0
1
23
2
0
4
19
0
0
0
26
100
0
0
31
12
1
0
21
41
0
78
0
0
0
0
0
0
0
0
0
0
0
1
16
15
14
0
2
1
0
0
0
26
0
13
0
5
0
0
16
13
9
0
9
0
0
0
0
11
0
4
0
32
28
0
0
0
23
0
0
12
0
0
0
10
4
0
0
9
0
33
0
0
7
0
33
4
0
13
22
19
0
0
0
0
9
0
0
8
13
1
2
5
2
0
0
0
0
26
0
0
0
0
0
35
26
8
27
6
19
2
8
0
0
7
0
11
7
0
24
9
26
43
49
0
0
22
0
0
0
0
0
22
0
34
0
16
0
28
38
0
0
0
0
0
0
0
0
6
0
0
0
0
0
0
10
1
19
0
2
0
0
0
0
12
56
29
0
0
0
0
0
0
0
0
84
0
0
19
0
71
2
44
158
0
0
0
0
29
0
8
0
5
26
8
17
0
21
0
15
0
0
0
0
0
0
9
0
1
0
24
0
13
0
3
6
10
7
16
26
29
0
0
0
1
4
0
0
9
13
0
23
0
35
4
3
0
16
0
11
53
0
33
0
25
2
0
0
13
0
14
0
0
7
17
0
37
0
0
16
20
3
0
0
0
0
0
0
0
0
9
32
0
0
0
0
0
0
6
7
9
0
33
23
0
0
0
7
0
0
0
4
0
0
0
23
0
0
0
12
0
18
0
0
9
0
14
14
0
0
0
14
22
0
0
4
0
24
0
10
3
11
0
0
28
0
0
0
10
2
0
3
23
0
0
0
0
2
0
0
66
0
0
0
29
6
0
0
4
4
0
9
0
0
0
0
0
0
28
120
23
106
61
55
12
0
0
1
12
21
24
67
41
13
0
4
73
0
0
15
0
42
0
0
0
29
0
75
86
0
0
46
15
0
0
0
14
0
15
82
13
0
0
76
23
0
0
35
63
0
0
19
24
17
0
0
63
0
0
0
96
93
20
0
0
30
82
66
0
0
0
16
35
19
0
0
0
0
29
18
40
32
0
0
0
13
56
97
73
23
0
0
0
0
0
34
0
0
37
24
0
9
0
0
10
0
19
0
3
0
28
0
14
0
29
0
40
28
0
0
15
0
33
14
0
0
25
18
0
30
0
0
0
0
24
0
16
17
0
24
1
1
0
1
67
0
8
51
16
23
0
0
0
0
0
30
0
7
10
0
6
0
0
0
0
19
0
18
37
46
2
0
15
8
0
0
0
0
0
1
21
0
0
6
17
0
16
0
0
4
0
0
0
40
0
0
0
11
0
30
0
1
0
0
0
0
0
0
18
42
0
8
5
0
0
9
12
0
23
0
0
9
0
6
0
32
0
0
22
8
0
0
0
0
0
4
0
19
0
7
0
12
4
0
10
8
9
0
23
0
22
0
37
0
0
0
4
12
13
24
0
12
11
7
2
0
2
0
4
7
5
15
22
1
24
75
38
0
0
0
0
0
0
32
0
0
11
0
22
0
15
0
13
25
48
45
32
21
35
18
62
0
0
62
0
43
0
12
0
0
0
21
0
2
26
0
21
0
12
3
52
58
0
0
0
95
0
0
0
4
1
0
18
0
46
160
0
12
5
0
2
0
0
0
18
19
0
30
0
13
0
9
0
38
0
60
11
0
9
1
0
1
0
0
9
0
0
6
0
0
0
0
0
0
27
4
0
26
28
0
16
0
0
17
0
11
0
0
9
0
0
12
1
0
20
3
0
0
5
0
9
0
0
0
55
9
0
0
0
21
0
0
14
0
22
16
40
0
6
9
0
39
27
0
0
28
0
43
14
0
0
0
0
20
25
7
29
5
1
0
19
0
11
0
4
42
0
0
0
39
0
0
2
22
13
14
1
0
37
0
22
12
3
17
0
0
4
10
0
59
0
0
0
33
0
0
0
1
0
9
28
8
0
6
0
0
37
0
12
7
11
0
0
30
0
2
16
0
0
0
0
0
0
0
0
0
0
81
35
30
98
34
0
10
0
0
0
0
0
0
82
0
0
24
0
0
0
37
0
79
63
0
70
79
0
0
0
0
11
97
0
0
107
12
0
56
70
0
0
61
71
0
13
10
72
17
0
21
73
0
0
0
0
60
5
12
16
28
0
0
3
61
77
0
0
50
21
91
17
0
0
25
69
67
0
0
0
0
12
18
49
8
0
0
0
0
5
36
25
15
52
91
49
0
0
0
0
0
16
1
31
11
0
12
4
27
9
1
77
25
20
0
0
0
0
0
45
0
1
0
0
6
0
22
1
0
0
4
0
2
0
10
8
15
0
0
0
0
0
0
0
0
22
0
0
0
0
0
0
0
0
14
0
20
19
23
0
0
14
27
0
0
9
0
38
19
19
14
8
0
0
0
1
0
17
0
1
0
0
59
0
0
0
18
0
0
4
0
8
0
10
0
0
0
32
4
5
11
0
12
0
0
8
21
0
42
0
24
9
0
7
0
0
20
5
0
0
45
0
0
0
0
0
0
6
32
0
19
0
14
0
11
7
0
3
11
24
0
13
0
17
4
0
0
11
15
0
0
0
0
0
0
0
0
0
0
0
0
0
3
21
35
11
0
10
0
0
0
3
0
0
0
0
6
3
9
16
38
117
36
0
0
0
17
0
0
8
0
22
60
0
0
0
41
5
0
0
26
0
0
12
0
0
36
10
17
0
0
2
79
0
67
75
27
13
2
66
0
0
0
21
54
0
12
0
0
0
0
0
0
0
13
0
3
32
0
51
162
4
11
0
0
2
25
0
38
28
0
26
1
0
23
0
0
16
0
0
0
0
0
0
34
21
0
0
25
34
76
14
14
21
0
19
28
1
0
0
0
16
0
0
0
0
0
8
19
10
7
3
0
0
24
0
21
13
46
0
21
0
0
14
0
9
0
0
0
0
0
0
67
69
0
36
35
18
0
0
0
0
2
12
9
0
0
37
0
0
25
0
0
0
0
2
0
0
6
0
0
0
0
0
5
1
0
33
0
0
32
0
50
0
0
0
19
0
0
7
26
0
0
0
0
0
6
6
0
26
4
38
8
0
0
0
0
0
19
0
63
13
4
17
12
0
0
33
0
0
0
16
0
33
0
8
18
0
0
0
16
0
0
0
0
5
0
0
0
97
120
67
5
35
3
30
0
0
0
2
0
0
6
16
0
84
0
30
11
0
51
0
0
0
0
0
0
2
0
18
0
50
107
15
0
0
0
29
0
0
4
0
1
129
53
0
0
105
6
0
77
65
58
0
0
49
0
0
41
11
7
0
0
0
69
52
0
0
0
9
111
0
0
0
15
69
85
17
0
0
18
47
57
33
0
0
0
0
21
34
7
49
3
0
0
19
50
120
58
6
0
0
0
0
0
3
0
10
0
0
0
0
0
0
0
23
6
0
16
0
0
0
0
14
32
0
4
0
0
26
4
6
12
0
3
0
0
0
0
31
21
42
16
0
30
0
20
12
0
12
23
21
0
5
0
0
25
0
5
20
0
7
0
0
0
0
9
8
0
0
0
0
30
0
0
23
22
35
0
30
14
0
6
21
0
0
2
0
52
0
0
12
0
4
0
2
16
15
0
6
3
0
0
11
0
0
19
0
0
0
53
0
7
20
0
0
6
5
9
0
31
0
7
0
11
28
0
3
10
0
14
9
0
0
0
0
3
6
12
0
12
7
0
7
0
11
0
0
0
0
38
0
29
0
0
10
13
72
6
4
3
0
0
0
0
28
54
4
4
7
14
0
0
7
16
3
0
0
0
7
12
34
86
123
62
0
0
18
0
12
22
0
2
0
43
0
23
53
0
28
0
20
0
0
11
2
18
34
0
0
23
16
2
0
3
2
0
0
0
0
27
0
0
0
0
0
0
0
0
0
19
0
76
0
67
24
0
0
0
0
0
53
160
0
27
0
35
3
6
7
0
3
0
12
0
9
0
0
9
22
0
7
0
0
0
0
0
0
0
0
0
0
0
53
0
4
0
38
0
27
9
19
0
0
34
0
10
0
7
10
0
0
16
15
0
0
13
10
0
0
16
0
23
5
0
0
0
0
0
0
29
63
29
57
68
0
22
0
10
0
24
51
60
0
0
0
13
21
0
0
0
21
18
0
0
9
5
0
0
8
42
0
22
41
15
0
0
0
0
1
0
0
15
0
32
0
76
0
0
0
17
0
0
0
17
54
0
4
0
15
0
0
0
0
41
0
0
29
21
0
14
0
4
0
2
0
0
0
34
0
0
0
18
0
0
13
0
0
0
11
0
13
2
0
0
0
188
218
43
8
45
92
7
0
3
17
9
0
0
4
19
0
1
36
28
0
0
13
0
28
0
0
6
0
47
0
18
6
33
4
0
0
0
79
0
0
95
6
0
95
23
3
0
0
45
0
0
6
59
0
0
14
76
0
62
0
25
35
0
0
51
0
0
33
21
99
0
0
0
37
61
12
0
0
44
21
54
39
0
0
0
37
21
49
0
0
0
1
27
43
53
2
0
0
0
0
12
32
23
56
41
76
30
0
0
0
0
49
22
30
0
0
44
14
17
15
0
38
0
0
0
29
24
0
10
0
42
0
28
0
0
16
0
8
0
26
19
27
0
22
0
2
0
0
0
0
41
0
8
0
8
0
0
4
0
25
0
0
0
0
2
0
4
18
5
6
26
33
0
16
22
53
0
14
0
3
0
0
0
2
0
31
0
0
0
12
0
19
0
0
0
0
16
0
23
0
35
0
42
22
0
14
18
0
0
38
0
28
14
0
0
0
17
2
0
14
3
0
15
0
14
0
5
0
14
7
23
0
0
7
33
0
8
10
0
16
12
5
0
22
0
0
0
0
16
5
1
7
0
37
19
0
0
6
0
0
6
0
12
0
0
0
4
12
3
0
0
6
73
0
9
3
21
15
0
0
0
12
13
0
19
3
0
21
60
69
0
0
0
0
18
0
0
0
0
0
2
18
0
4
30
30
0
0
8
44
0
0
0
0
0
0
0
0
0
0
0
0
9
0
8
0
5
7
3
0
209
7
11
0
39
0
18
0
46
3
46
0
2
4
83
13
0
56
162
5
0
0
38
0
0
0
2
24
7
31
0
9
13
32
9
43
0
34
0
44
0
0
15
0
0
0
0
20
0
10
0
0
0
0
0
37
9
0
0
0
3
4
0
0
0
29
0
9
6
8
1
0
31
13
26
17
16
51
0
30
23
0
17
0
57
27
0
0
0
0
3
0
0
0
6
2
0
18
0
13
84
49
0
0
28
23
12
2
0
36
0
19
0
45
0
23
0
1
0
8
0
0
0
5
2
0
8
0
2
0
92
0
9
0
39
42
9
0
15
23
13
0
0
13
15
9
11
12
0
31
41
7
0
0
31
0
0
0
25
24
36
2
12
0
29
0
20
0
34
24
0
51
9
3
0
9
0
18
0
0
54
23
128
144
0
0
41
0
0
18
0
19
0
40
0
0
63
0
10
0
45
0
8
12
0
40
19
27
0
47
0
0
0
0
20
11
0
47
30
35
0
0
5
0
0
62
0
0
108
0
0
0
66
6
0
18
89
42
0
0
30
0
0
94
80
0
0
0
0
69
0
0
0
66
76
49
0
0
0
19
76
57
0
0
0
16
55
77
0
0
0
16
21
42
31
0
0
0
0
0
29
38
25
18
0
0
0
62
122
121
60
0
0
0
0
5
0
23
1
0
0
0
0
1
15
4
41
0
12
0
0
0
7
0
12
0
0
0
14
4
12
13
0
0
9
10
0
13
17
4
33
0
10
0
13
27
27
0
31
19
18
22
12
13
7
0
44
0
1
0
0
0
0
0
6
0
0
10
0
13
0
10
6
18
6
0
3
4
0
21
0
0
7
6
0
19
15
2
0
0
19
0
25
2
0
0
0
3
0
8
11
20
0
20
0
0
0
0
0
0
0
5
0
0
0
6
0
0
16
5
0
0
0
20
0
2
14
2
0
0
28
0
0
0
0
0
8
27
0
0
0
4
0
19
0
0
14
0
13
0
0
39
0
0
8
7
1
10
0
0
0
0
0
0
9
20
0
0
0
0
0
0
0
0
0
0
4
17
25
38
149
255
107
0
0
0
44
0
5
2
34
21
9
0
6
27
0
0
20
24
0
6
19
50
10
18
5
34
0
60
59
61
4
0
17
0
20
0
0
0
10
0
0
0
19
0
49
0
0
0
19
10
45
0
0
0
0
14
0
49
161
0
0
9
16
0
0
24
6
0
0
0
0
14
0
0
0
0
0
4
0
0
0
0
7
0
29
38
14
0
0
11
31
0
17
3
0
0
0
37
0
21
0
54
7
14
0
0
0
2
3
0
23
0
8
0
0
2
0
0
0
7
23
1
0
4
9
0
0
3
12
0
59
19
13
0
36
0
0
0
0
0
0
0
13
0
0
10
0
9
0
21
9
0
0
40
6
0
0
14
0
12
0
4
66
0
65
0
0
0
25
15
0
0
10
46
0
0
57
0
0
0
0
2
0
13
0
0
0
0
0
0
0
5
0
21
15
12
30
5
0
0
0
0
0
27
0
0
20
0
16
0
1
0
27
0
0
0
0
0
0
0
11
0
0
0
20
0
0
0
0
0
3
0
0
15
0
45
0
0
0
0
0
0
0
0
0
55
3
32
53
10
0
21
10
0
0
0
33
0
0
52
0
0
46
19
0
0
4
31
41
0
66
0
0
0
37
34
0
62
4
21
66
0
0
50
0
0
75
64
26
0
0
0
6
103
0
0
1
24
50
55
0
0
0
42
58
69
1
0
0
20
72
26
32
0
0
0
3
23
50
18
3
0
0
0
0
16
56
34
25
54
46
18
0
0
0
1
49
0
1
1
0
38
53
0
7
0
9
0
0
0
24
9
0
0
18
1
1
0
8
0
0
0
0
0
8
0
10
0
0
1
0
0
5
1
0
0
0
0
11
13
0
0
0
0
0
5
0
11
28
2
31
0
28
0
32
0
3
9
4
0
2
11
0
0
11
6
0
9
11
0
0
0
0
18
0
0
11
0
3
0
0
1
10
0
0
24
0
4
23
5
0
22
0
16
0
0
15
0
13
9
0
0
0
1
9
10
16
12
0
6
0
49
20
31
7
0
0
11
0
0
0
0
10
12
14
0
15
0
0
36
0
21
0
3
0
0
16
0
14
0
0
0
2
18
0
15
0
0
20
1
36
0
0
0
29
30
26
16
12
0
0
0
12
8
5
0
0
31
29
60
126
8
0
0
6
22
0
4
4
0
29
0
0
21
20
21
32
12
21
0
18
9
0
0
0
0
0
0
0
0
0
0
0
0
2
0
18
0
31
0
32
59
0
14
0
0
4
24
0
0
0
0
0
0
0
24
27
18
24
51
164
0
4
0
0
5
0
38
0
19
3
38
0
10
0
14
0
41
0
11
5
0
32
0
0
9
0
4
30
0
61
0
6
0
9
0
39
20
0
0
1
0
0
6
0
41
0
11
19
0
0
20
9
0
4
5
5
19
0
19
20
0
0
0
0
0
0
0
57
0
32
14
12
0
20
0
28
0
0
13
21
0
0
0
9
25
0
12
16
0
3
0
31
0
22
10
0
34
0
2
0
0
9
0
0
0
19
0
43
12
0
11
0
41
0
1
5
0
0
15
11
12
0
65
0
36
0
20
13
41
0
0
45
0
18
0
0
0
0
6
0
1
0
41
0
18
0
18
17
0
0
0
0
4
0
0
15
0
0
225
84
0
0
17
0
0
0
34
22
0
0
0
18
3
0
42
2
11
0
19
28
21
0
20
0
14
0
0
10
0
0
0
0
77
8
0
0
23
0
0
77
0
0
0
79
0
7
28
55
0
28
88
14
0
96
78
19
0
11
13
0
37
52
0
0
103
3
66
25
0
0
41
83
78
4
8
0
0
41
48
40
0
0
45
41
73
0
0
0
4
52
36
44
0
0
0
0
16
44
43
7
0
0
2
11
29
34
33
5
0
0
17
43
119
129
0
0
0
0
0
4
7
0
0
0
23
13
0
0
0
0
1
11
29
0
19
0
28
0
4
8
50
13
25
0
28
0
0
20
0
8
1
10
0
31
15
13
26
0
10
0
6
0
0
27
34
0
0
34
0
0
0
1
0
14
0
2
18
0
16
0
0
0
18
0
24
6
0
1
0
11
0
4
22
0
0
10
16
2
1
36
5
8
8
0
0
14
38
3
0
0
0
3
0
61
11
13
0
48
0
0
9
0
0
0
0
14
0
0
4
6
0
35
0
0
0
0
7
8
46
6
8
0
35
13
2
0
12
0
21
0
5
0
19
0
9
26
0
8
0
15
0
28
0
7
0
9
0
0
0
13
0
23
13
1
0
0
30
18
14
25
24
0
0
3
0
10
20
5
23
29
96
131
0
0
0
9
0
3
36
17
9
0
0
39
0
0
0
0
0
24
0
0
0
19
48
0
9
0
15
0
10
0
0
19
0
1
25
0
0
16
0
16
7
0
0
8
0
0
4
0
28
11
0
30
0
8
0
0
41
36
52
166
3
6
0
19
38
0
14
0
30
0
5
2
22
0
18
2
39
0
14
0
47
0
19
0
0
0
0
0
0
0
15
5
0
33
0
13
18
0
0
18
0
0
7
0
0
0
46
0
41
0
0
44
3
20
0
15
9
36
0
0
9
0
0
37
0
31
0
0
0
0
0
0
6
0
13
50
0
47
0
5
0
33
0
0
4
0
46
0
12
1
0
2
0
0
0
4
6
1
34
19
0
0
9
16
0
13
0
0
0
0
0
25
48
0
15
15
0
0
36
0
35
0
33
0
37
0
11
21
0
0
0
10
9
4
0
0
45
0
0
11
38
0
0
0
0
0
0
0
9
0
3
12
14
0
11
0
0
141
255
14
0
0
28
0
0
0
32
0
18
0
12
0
0
0
21
0
0
0
0
7
22
0
15
73
0
0
0
43
0
16
0
0
0
29
8
16
44
60
32
0
0
51
0
5
0
36
0
19
50
0
0
0
0
13
13
16
0
0
73
24
0
0
0
18
81
0
0
13
50
90
36
0
0
0
36
14
47
30
0
0
0
38
62
0
0
0
3
44
40
39
0
0
32
1
45
96
38
0
0
0
0
6
41
35
19
0
0
0
0
0
0
53
44
65
73
28
0
0
0
0
0
0
0
3
0
0
9
0
0
0
21
0
0
7
12
0
24
16
0
0
0
0
2
0
5
0
0
0
5
0
0
0
0
11
0
0
0
0
34
0
0
18
36
0
16
0
0
6
20
30
11
4
0
25
0
1
33
0
21
0
18
10
0
0
0
0
0
4
0
10
0
0
21
13
0
0
23
0
0
19
2
0
3
14
4
0
0
0
0
16
32
0
12
2
0
7
9
0
0
0
29
40
0
14
5
0
5
0
0
45
0
2
0
0
0
0
7
1
0
6
0
14
25
0
45
0
0
0
7
0
0
0
19
0
0
0
0
13
0
29
0
11
0
27
10
54
0
23
10
0
0
9
0
0
0
0
0
6
61
1
0
0
19
10
2
7
19
16
32
87
151
34
0
0
5
17
0
0
0
0
6
5
0
39
35
0
42
22
0
0
11
0
0
0
0
0
38
40
0
0
49
34
0
19
14
6
11
0
0
15
13
6
0
42
0
0
0
0
0
15
0
19
0
14
15
22
27
21
5
8
49
164
0
1
18
9
1
2
12
1
35
0
10
0
0
0
25
0
8
0
0
0
0
0
0
0
0
14
2
4
13
0
6
3
3
0
0
5
0
15
0
25
0
5
22
3
7
0
0
1
1
10
0
3
16
0
12
15
0
15
0
30
0
5
0
5
0
0
1
0
24
41
46
0
0
0
0
0
0
0
10
5
0
0
6
0
3
1
35
0
0
62
0
0
7
21
0
27
14
1
0
0
0
13
2
13
0
44
33
0
0
50
11
0
17
0
0
72
0
0
39
0
18
0
0
0
9
0
0
8
13
8
5
12
0
15
1
0
13
0
15
1
24
0
14
14
22
14
0
31
13
0
0
16
0
0
0
0
0
142
12
0
0
0
86
20
11
6
0
1
0
0
61
0
0
26
7
0
25
22
0
65
0
0
0
0
0
22
38
25
0
14
18
0
30
0
0
0
0
30
0
33
54
0
37
8
2
0
38
35
0
30
54
2
0
0
77
0
0
79
30
0
0
34
87
23
0
0
34
80
54
0
0
10
23
0
39
0
0
0
2
41
32
1
0
0
16
37
49
22
0
0
0
28
46
35
11
0
0
0
33
32
19
4
0
0
0
0
13
0
41
19
11
0
0
0
45
102
90
34
0
0
0
2
0
5
15
0
23
27
5
0
79
0
10
16
10
0
10
0
9
0
4
0
0
0
24
0
31
25
0
7
22
0
34
10
53
27
22
20
28
0
14
0
24
0
33
13
27
0
0
0
0
0
6
2
0
0
0
1
24
0
0
0
6
31
24
5
1
10
0
14
0
0
17
2
0
0
0
20
0
7
0
16
2
13
0
15
0
0
6
0
36
0
12
29
0
24
0
0
27
0
9
0
0
0
17
15
17
0
0
0
0
0
0
50
28
0
4
0
0
19
0
0
0
0
0
0
11
0
2
0
3
4
0
4
0
0
0
0
0
7
0
15
0
3
0
12
0
20
0
0
4
0
0
16
0
9
0
0
0
40
33
0
6
11
11
20
13
19
59
107
55
0
0
0
0
19
11
24
0
2
0
1
14
0
21
0
0
0
10
40
48
0
14
6
0
0
40
0
25
0
0
0
0
0
0
0
0
9
6
0
39
0
4
0
63
0
13
0
0
20
0
0
0
0
0
13
0
0
0
0
36
167
0
0
0
13
0
0
0
0
0
7
38
5
14
0
41
0
24
1
0
0
0
0
0
0
33
0
0
18
0
0
15
0
17
13
51
5
34
0
0
17
0
0
0
3
15
0
0
0
0
12
16
0
11
0
1
13
6
13
0
0
0
50
0
0
0
4
0
0
1
6
0
21
14
20
7
0
24
0
0
0
0
34
0
23
5
0
0
0
0
0
0
0
11
69
0
5
18
0
12
58
17
5
0
0
31
0
0
0
0
0
3
0
3
18
0
15
0
0
27
36
29
0
0
0
9
18
0
0
34
0
0
0
0
31
0
0
13
0
20
0
34
0
0
24
0
14
0
42
0
0
4
7
0
34
0
0
217
90
0
0
0
0
0
0
0
35
0
0
21
0
13
23
4
0
2
25
0
0
2
0
10
21
0
39
0
36
61
0
0
0
53
32
31
0
0
35
22
4
0
26
12
0
0
0
25
0
0
0
0
58
0
20
11
16
92
0
53
0
0
0
39
0
0
0
68
125
42
0
0
0
0
98
18
0
0
19
15
54
49
0
0
15
29
38
69
31
0
0
0
53
12
38
16
0
0
0
31
30
60
23
0
0
0
3
32
8
39
20
21
0
0
0
0
0
35
42
61
93
48
0
0
0
0
38
0
21
0
17
0
0
87
0
0
6
0
38
0
10
0
0
48
6
14
1
0
0
20
0
0
14
0
0
40
0
0
0
13
0
20
0
0
2
2
0
5
0
0
0
10
0
0
0
32
27
0
18
0
0
0
3
9
3
0
0
0
34
6
6
0
0
14
5
0
0
0
26
0
45
0
12
6
0
1
10
0
6
0
33
0
0
8
0
0
5
0
26
0
8
0
37
0
19
0
0
0
9
1
0
9
0
0
28
2
0
6
6
9
1
2
0
0
2
7
6
0
0
17
8
20
0
18
0
17
0
10
0
0
20
0
1
24
0
16
8
0
15
0
0
12
0
0
6
21
21
0
0
0
0
0
86
46
0
14
11
29
7
16
78
123
125
0
0
0
49
0
0
17
13
0
0
0
0
0
0
57
0
6
37
0
16
11
0
6
57
0
7
0
41
16
15
44
4
19
34
0
15
0
25
2
20
22
0
0
0
12
0
12
10
0
15
0
0
38
2
1
58
37
4
0
0
32
170
3
70
0
17
37
3
18
39
0
0
7
0
0
22
0
0
29
0
15
23
56
0
0
5
8
27
0
32
29
9
19
4
0
0
18
0
0
9
0
5
0
12
19
0
23
0
20
25
0
0
19
16
0
6
0
0
7
0
44
27
7
10
19
7
0
40
0
0
18
0
0
0
0
0
15
0
35
0
0
0
0
27
0
0
0
9
10
0
24
34
0
0
0
0
0
0
11
27
0
0
13
0
0
58
0
0
0
0
0
0
40
10
4
0
0
29
0
1
0
0
0
3
0
0
9
1
0
53
46
0
33
17
0
5
30
5
3
47
0
15
8
0
0
9
0
7
0
16
0
3
15
0
0
0
0
56
255
159
0
0
0
44
6
75
8
2
8
80
0
0
0
34
7
0
0
33
0
0
0
33
0
0
0
47
0
0
0
0
0
0
35
0
0
103
0
0
14
7
0
0
0
0
0
64
33
0
67
83
47
0
0
73
0
0
87
0
0
23
35
101
0
0
2
69
96
0
0
0
54
82
65
0
0
13
44
29
34
6
0
0
6
24
34
53
0
0
0
41
60
36
14
0
0
0
40
59
38
1
4
0
0
6
31
28
26
0
0
0
0
0
0
15
39
29
0
0
14
31
103
37
0
0
0
0
0
22
0
0
11
0
15
0
27
25
0
16
0
0
4
0
0
5
0
1
14
0
15
7
5
0
0
0
16
0
1
0
14
0
12
4
8
0
10
0
20
0
0
2
8
50
0
35
4
0
26
36
12
0
14
0
1
0
0
7
0
0
0
27
7
0
0
8
23
0
6
23
0
2
16
0
0
0
1
5
0
8
0
58
6
0
1
4
0
18
0
53
0
12
0
0
0
0
3
26
0
9
0
0
10
25
0
4
0
0
0
0
0
16
0
0
0
20
0
18
0
0
6
6
0
0
2
0
45
0
0
23
0
0
16
0
0
0
4
25
0
11
0
44
0
0
0
33
0
0
0
0
0
0
0
9
26
0
20
21
0
11
78
104
56
0
0
0
0
26
0
15
0
0
26
24
21
0
12
0
32
0
0
39
15
6
52
0
1
0
11
37
0
0
4
15
20
0
0
0
0
32
8
0
15
0
50
26
10
0
0
9
25
0
13
0
41
10
0
11
0
9
0
0
6
0
30
168
0
0
4
0
17
0
36
1
0
0
0
5
4
8
14
27
13
39
0
0
0
0
0
0
0
2
0
30
12
4
0
6
0
50
0
0
4
36
0
15
0
121
0
5
0
14
0
15
2
16
0
13
1
0
31
2
23
0
20
1
0
9
11
0
18
13
0
0
0
54
0
0
0
7
34
14
0
0
53
0
6
24
0
47
0
1
0
0
3
4
20
47
0
0
9
6
14
12
0
0
0
0
3
0
4
15
1
6
19
5
1
0
0
18
9
3
0
15
0
0
44
0
0
10
9
0
0
0
17
0
0
0
0
37
0
0
0
0
0
11
0
13
0
0
0
7
0
0
16
0
12
0
36
21
0
38
223
0
0
0
0
13
0
0
0
0
0
0
15
0
7
22
0
17
0
59
41
0
10
0
19
0
0
0
0
17
0
20
7
23
0
0
0
0
0
78
0
0
14
0
0
0
36
41
0
0
10
0
7
34
42
53
6
18
0
0
20
61
11
0
0
86
61
0
0
0
38
79
22
0
0
0
65
41
37
0
0
0
53
36
53
26
0
0
5
0
36
74
29
0
0
0
42
32
37
0
0
0
0
28
26
33
8
5
0
0
0
20
11
21
21
3
0
0
0
0
17
19
49
70
123
50
0
0
0
0
0
0
35
0
0
0
0
11
0
60
0
18
31
0
8
15
0
9
0
0
0
0
31
24
0
17
0
15
0
24
17
0
0
14
0
3
32
22
0
24
3
10
0
0
18
0
0
15
5
0
0
3
45
16
0
7
0
0
29
25
7
0
5
5
1
0
4
13
14
0
0
45
0
0
8
36
0
0
0
7
1
0
2
0
4
20
0
8
18
0
9
0
9
39
0
10
20
0
0
6
0
0
0
7
0
0
27
11
17
0
21
0
0
0
15
31
0
0
5
13
0
1
8
9
0
0
32
0
0
5
0
7
13
0
1
27
0
0
0
18
11
4
0
27
10
0
0
27
5
25
0
0
0
0
27
19
21
32
39
69
126
116
0
0
0
0
0
3
16
18
24
0
0
8
0
26
0
0
0
19
0
0
6
0
0
13
45
5
0
0
0
37
0
0
0
10
2
0
0
0
0
18
0
7
0
0
0
1
0
0
23
0
0
0
29
0
23
39
25
92
0
9
0
0
29
172
12
30
16
5
17
2
0
0
13
18
15
19
12
0
0
31
0
0
0
0
3
0
4
0
0
19
0
5
0
0
0
0
0
16
15
0
11
0
17
16
0
0
0
4
0
4
0
0
0
7
0
0
0
16
24
0
0
3
0
3
0
0
0
0
44
0
4
0
48
0
19
28
8
19
0
2
0
0
21
0
0
0
0
0
0
0
7
0
0
0
0
0
0
17
0
33
7
0
0
17
0
0
50
7
10
0
32
28
0
19
0
0
21
0
0
0
16
33
0
0
2
5
0
22
15
21
0
0
0
0
7
9
4
0
0
50
7
32
11
0
0
17
34
0
12
11
0
0
15
0
7
28
16
0
0
0
0
0
0
38
46
4
12
35
20
0
14
32
28
0
0
0
0
48
0
10
20
0
43
0
41
7
40
0
47
0
0
19
0
30
11
0
5
79
0
7
0
25
0
1
57
85
0
0
8
63
0
0
0
0
43
34
0
0
0
46
23
0
0
0
80
19
0
0
23
45
102
0
0
23
58
61
37
0
0
31
4
52
79
0
0
0
0
0
66
68
0
0
0
0
0
61
54
0
0
0
0
7
20
0
0
8
0
0
0
0
33
31
38
0
0
0
0
30
49
30
0
13
8
0
62
65
61
0
0
0
0
50
27
17
14
21
0
0
0
0
0
8
21
17
13
0
15
9
0
14
2
0
0
23
0
20
0
13
0
14
0
0
8
35
0
0
0
0
22
0
10
0
26
8
6
0
0
10
13
25
10
0
0
0
7
11
30
21
0
19
0
6
19
0
7
0
0
0
0
28
0
0
11
0
0
0
26
23
0
29
0
0
9
12
0
0
0
9
13
4
48
0
0
0
37
4
0
6
1
13
0
12
24
0
0
2
14
0
11
12
0
8
3
2
1
0
8
10
4
16
0
0
2
0
0
35
1
0
12
0
0
3
9
0
29
0
38
0
0
0
8
6
0
0
16
7
14
0
2
17
0
0
0
0
39
4
52
42
93
113
87
0
0
0
0
2
0
0
0
0
0
14
0
0
0
11
0
15
0
80
1
0
0
41
0
1
0
0
8
21
43
0
3
34
0
5
15
10
0
23
0
0
42
25
0
0
0
40
28
0
21
0
0
0
10
0
34
0
29
0
0
0
0
0
33
171
0
0
0
7
5
0
0
0
25
0
32
0
0
12
0
49
0
0
1
0
0
0
0
0
14
26
0
40
0
14
20
0
0
8
19
0
17
0
0
3
29
0
9
0
4
42
0
25
11
26
3
22
0
22
0
0
0
22
4
15
0
12
33
0
44
38
0
0
0
0
0
0
57
0
10
59
0
0
37
0
36
46
6
36
62
50
27
0
49
4
29
0
49
0
0
0
1
0
8
21
55
18
0
10
4
0
3
0
0
25
7
36
0
0
54
0
0
13
7
16
3
9
2
0
0
0
0
41
0
24
0
0
0
4
0
18
0
3
24
33
4
23
23
22
0
34
0
0
62
0
20
0
0
29
14
0
0
0
0
5
34
0
0
0
0
0
15
21
15
0
26
0
3
46
0
0
37
0
0
0
0
0
19
8
10
7
0
8
0
46
0
0
62
11
0
0
12
0
0
43
0
0
28
40
0
0
0
22
0
0
0
0
0
27
58
8
0
34
35
38
17
0
0
71
53
0
0
0
8
100
70
0
0
0
57
81
39
0
0
0
19
57
75
43
0
0
0
9
33
15
43
0
0
0
0
55
48
43
0
0
0
14
17
30
43
51
0
0
0
0
16
5
7
24
24
6
0
4
0
21
39
39
95
43
0
0
0
0
0
0
0
8
34
0
0
27
0
9
0
0
0
0
0
0
2
0
15
25
0
0
0
30
0
28
0
48
0
0
10
0
0
25
0
0
0
0
0
15
5
3
15
0
28
8
0
13
31
0
30
3
3
0
0
0
0
0
0
6
2
0
28
0
34
0
21
0
2
0
3
0
5
0
35
0
0
35
6
0
6
10
0
8
13
0
13
0
10
0
18
1
0
0
0
0
11
10
15
0
5
0
15
25
0
7
13
0
27
0
21
0
0
0
0
0
0
4
26
6
12
22
0
6
0
1
7
28
0
8
25
0
0
0
14
9
9
0
0
0
2
0
0
3
0
0
33
0
22
0
0
0
30
48
81
67
91
39
0
0
0
0
26
18
0
11
32
27
0
11
17
0
0
7
52
14
47
0
0
20
26
0
0
7
0
17
0
4
0
0
0
15
0
56
0
29
0
25
84
26
0
24
31
42
0
0
0
8
9
0
0
25
0
0
62
12
3
0
1
0
0
5
36
175
26
0
0
17
0
10
15
12
0
0
16
6
0
50
0
0
0
0
0
0
0
17
24
0
8
9
0
17
0
14
0
0
0
0
3
18
6
4
15
0
5
0
0
0
0
12
0
0
0
0
0
2
0
1
11
5
0
18
6
19
1
32
0
0
11
0
0
10
3
9
43
6
0
0
0
10
0
2
0
9
13
33
0
0
0
0
37
0
0
10
38
0
15
8
0
41
0
3
7
0
45
0
0
23
4
2
5
18
0
0
0
0
32
23
40
0
0
0
0
0
7
10
0
23
0
29
3
9
0
0
10
14
0
21
0
35
0
0
0
0
4
0
0
35
0
14
0
0
16
1
1
0
0
200
46
0
0
0
35
1
6
0
0
58
0
18
7
20
0
0
65
17
18
7
0
9
24
5
24
22
5
0
0
2
7
1
66
84
13
31
12
0
0
30
41
5
38
0
78
0
0
28
5
0
0
0
13
45
20
0
0
0
65
58
0
0
65
106
0
0
7
22
107
34
0
0
9
86
50
0
0
0
22
106
68
0
0
0
0
28
89
10
0
0
0
0
10
31
61
51
0
0
8
34
31
30
0
0
0
25
17
13
39
0
0
0
0
0
0
37
40
47
0
0
0
0
0
31
20
0
2
0
53
83
86
0
0
0
0
15
28
4
0
23
9
0
30
18
2
24
35
12
2
34
42
0
2
0
0
30
0
41
0
39
0
14
0
0
0
0
11
6
4
14
49
33
0
0
25
0
17
0
21
0
0
0
0
0
0
13
5
0
17
0
19
20
10
13
0
0
48
0
2
8
47
0
10
21
0
18
0
4
0
3
6
0
16
0
0
14
11
0
0
8
25
0
0
0
1
0
4
23
0
11
14
0
0
10
11
0
0
0
0
4
0
0
14
0
0
0
0
0
28
22
12
0
0
0
13
0
0
48
7
0
0
0
0
3
0
0
0
0
0
15
14
8
34
4
0
18
0
0
0
0
30
0
18
6
0
0
65
95
81
82
25
0
0
0
3
0
0
35
0
0
0
0
19
0
0
29
0
0
9
0
0
21
3
0
0
0
69
49
0
0
0
11
8
14
0
19
0
82
0
13
0
0
0
16
0
4
21
0
0
21
15
0
0
0
0
41
0
95
11
44
0
0
0
0
0
0
55
172
0
5
4
8
9
0
0
32
11
2
12
10
10
19
10
3
0
0
0
17
0
0
0
9
0
0
0
17
0
12
0
31
0
34
0
6
0
0
9
27
0
3
0
0
1
20
0
0
11
0
0
41
0
6
0
5
0
16
0
0
0
0
1
0
0
42
0
0
21
2
0
4
0
53
19
0
0
0
0
24
0
0
0
0
1
72
106
17
0
1
0
0
0
0
9
23
0
0
24
0
0
0
22
0
0
0
21
23
16
0
2
0
0
0
0
0
80
16
9
0
20
10
0
0
47
0
0
21
2
0
29
0
0
5
0
0
19
0
2
19
0
0
9
13
10
0
17
4
0
0
0
0
7
98
0
0
30
11
0
0
11
31
0
40
0
7
0
0
0
0
43
1
0
6
0
5
18
0
0
25
20
73
14
0
0
55
11
0
0
24
0
0
42
59
0
0
55
17
0
34
74
28
0
0
16
0
35
55
0
0
68
65
57
0
6
38
58
0
0
11
49
31
0
0
0
107
68
0
0
0
0
70
58
1
0
0
0
62
48
56
15
0
0
0
67
58
46
0
0
0
0
0
45
66
0
0
0
0
22
57
6
0
0
0
0
16
5
32
21
31
0
0
0
5
3
26
13
32
19
0
0
0
19
35
107
88
0
0
0
0
0
0
5
13
0
12
0
0
0
15
6
0
9
12
0
0
20
21
20
0
0
0
6
0
0
0
3
7
28
36
26
0
15
0
0
0
0
0
24
0
0
0
0
26
9
0
5
19
0
0
0
0
26
0
0
9
0
0
1
0
0
10
0
0
0
2
0
13
0
28
0
17
0
0
0
34
0
0
9
0
1
0
0
0
0
0
21
3
0
0
3
0
17
17
0
0
3
0
20
0
0
22
35
9
0
3
8
0
42
0
21
0
0
0
0
0
7
0
18
24
0
0
13
0
0
6
20
0
32
5
0
0
37
15
0
0
0
0
0
20
30
0
21
0
25
1
17
0
0
6
0
15
73
0
0
0
0
0
0
0
32
54
0
0
0
0
0
0
22
23
42
0
0
9
34
0
0
0
57
12
19
0
82
49
9
23
0
0
0
0
0
36
34
9
0
38
0
14
0
0
22
0
0
65
12
0
25
40
46
59
26
38
0
15
25
0
11
0
0
0
98
171
0
10
0
0
15
1
0
4
0
16
0
0
0
18
11
0
0
33
0
0
0
3
0
19
0
0
0
11
0
2
4
6
0
3
3
28
15
14
7
3
6
26
0
30
7
0
0
0
0
0
0
23
0
25
3
20
0
46
4
0
39
12
0
7
0
5
0
0
0
0
0
10
51
0
0
1
54
6
35
40
0
42
12
45
0
0
0
0
0
16
0
5
0
0
25
0
0
12
27
0
13
16
0
0
25
0
0
0
0
0
0
44
0
5
0
0
22
0
22
0
10
14
20
0
0
27
0
0
39
0
19
0
15
10
0
0
0
19
0
0
13
15
0
0
19
0
0
18
52
0
0
0
128
0
0
0
0
41
0
0
42
18
25
0
0
34
0
11
5
40
0
0
9
0
0
0
0
0
0
0
38
0
0
0
43
64
0
0
0
20
0
57
25
0
0
0
22
0
52
60
0
0
52
0
0
81
0
0
0
71
73
0
0
51
50
24
0
0
24
110
22
0
0
63
75
6
0
0
36
106
89
0
0
0
26
76
64
14
10
0
0
17
37
58
46
0
15
0
0
19
44
51
0
0
0
0
31
42
24
0
0
0
5
2
5
34
11
9
0
0
9
19
37
13
33
18
0
0
0
28
18
26
30
15
40
45
45
80
0
0
0
0
0
0
0
0
35
0
0
0
4
17
0
48
0
0
0
0
0
11
7
0
0
0
0
11
27
1
0
19
8
0
37
0
11
5
0
11
0
0
0
39
10
0
19
0
15
0
2
0
0
2
25
0
0
0
0
19
39
0
5
32
0
3
6
0
0
0
0
0
5
1
1
33
33
18
0
0
12
0
0
14
0
1
6
25
0
31
0
2
28
0
0
0
8
30
11
0
2
0
1
0
0
17
4
0
2
0
2
0
3
0
13
26
1
0
36
0
0
0
21
6
0
2
14
0
0
0
29
0
0
0
0
0
0
17
20
14
1
0
0
2
4
0
0
2
14
0
16
88
41
20
0
0
0
0
0
10
21
48
0
0
5
29
0
27
62
16
28
0
0
0
0
0
0
0
37
0
10
15
0
0
0
7
0
0
7
0
0
0
5
22
4
0
0
0
0
104
11
0
0
0
0
14
3
3
0
1
14
0
49
32
0
0
8
0
0
0
0
31
129
175
29
0
28
4
0
4
10
39
0
4
26
0
2
13
0
0
0
0
0
15
1
0
5
33
0
32
1
0
34
0
0
17
0
7
0
0
0
19
0
0
0
5
0
0
0
0
5
0
17
9
0
0
9
0
0
13
0
0
0
19
41
31
0
10
0
47
2
0
15
31
0
7
0
0
0
0
15
0
0
0
0
0
0
1
10
12
16
0
0
44
0
19
0
25
2
28
0
0
0
0
0
41
2
24
20
0
0
23
0
30
0
43
0
26
0
18
0
30
15
0
16
0
0
0
0
13
0
0
48
0
6
5
0
7
32
21
0
0
21
20
0
0
0
16
9
9
0
0
0
0
0
190
215
0
0
0
0
0
9
25
0
0
0
0
26
0
4
0
0
0
0
6
0
27
0
77
21
7
85
34
0
0
2
104
27
22
0
0
0
93
30
0
12
35
60
0
38
52
0
0
0
26
22
0
72
31
0
0
55
42
0
0
32
64
0
0
27
78
40
0
0
10
69
55
0
0
0
51
71
0
0
0
0
61
41
23
0
0
1
0
26
38
27
0
0
0
18
4
31
40
0
0
0
0
35
30
32
10
0
0
0
34
12
27
19
18
0
0
0
0
20
14
33
5
0
0
0
20
39
9
58
14
0
17
0
14
62
193
0
0
0
0
0
0
0
0
31
0
33
0
4
0
0
28
0
0
0
19
12
15
27
17
4
3
4
16
11
0
0
0
60
0
5
4
13
22
0
19
0
0
10
0
0
18
0
0
33
6
0
11
25
0
8
0
4
27
21
0
9
0
9
0
0
0
13
8
45
0
0
0
1
0
0
0
0
13
0
0
24
0
4
29
0
21
0
0
22
29
0
4
0
4
0
19
0
0
0
0
13
32
0
10
0
0
11
0
34
0
0
0
0
9
3
0
0
0
0
21
0
1
0
1
0
27
0
0
21
0
11
0
9
0
51
0
0
29
0
0
29
0
0
0
0
3
12
42
0
8
0
6
22
17
0
0
0
0
11
38
3
2
0
0
33
0
33
0
0
0
16
16
15
53
41
106
24
5
0
0
0
0
8
25
0
0
0
0
0
0
11
42
0
0
12
6
33
45
75
0
0
53
31
0
7
0
0
0
0
21
4
35
0
0
0
0
0
0
0
0
0
56
148
170
0
2
3
0
22
0
0
26
0
38
3
0
9
30
0
0
0
0
7
0
0
33
0
0
0
44
0
0
29
0
0
62
0
43
0
26
8
0
26
0
0
9
0
41
0
0
26
3
24
13
0
16
14
0
26
0
23
30
0
0
0
0
31
0
0
0
0
6
0
12
0
0
15
106
0
21
4
0
23
19
18
36
27
0
42
25
11
0
0
30
1
31
0
11
24
0
0
13
0
7
3
0
0
0
6
9
11
21
0
19
0
41
0
4
2
18
0
0
0
0
7
0
0
37
0
0
20
2
0
0
0
27
0
12
0
16
3
33
0
0
14
25
22
0
0
2
0
9
25
0
0
255
141
0
0
11
0
0
19
15
17
50
10
39
0
0
25
26
0
19
34
4
6
0
0
0
0
39
21
0
0
11
69
0
0
0
0
0
7
0
0
0
91
0
0
0
83
19
0
42
80
0
14
65
0
0
0
72
52
0
0
75
88
0
0
0
83
27
0
0
40
80
0
0
0
54
117
0
0
0
26
28
114
54
0
0
0
25
25
31
56
0
0
17
22
40
48
25
6
0
0
11
32
43
52
0
0
0
0
36
32
44
29
0
0
6
3
33
37
20
0
7
0
0
16
53
37
58
12
0
0
0
0
0
0
0
7
77
0
6
55
27
11
0
0
0
0
8
0
0
47
2
47
17
27
6
0
44
0
0
0
0
31
29
0
0
9
0
12
0
0
0
0
0
0
0
0
0
0
0
5
18
0
0
27
0
24
34
6
0
16
0
5
0
7
0
7
8
40
4
14
5
0
0
0
0
1
0
15
16
0
24
15
6
0
51
0
0
11
1
0
3
0
40
3
11
0
0
5
28
0
5
0
11
0
0
6
0
0
14
0
22
0
46
0
3
10
0
0
0
8
0
0
44
0
27
0
23
0
0
0
13
8
30
0
0
22
0
5
0
0
40
12
30
0
4
16
0
14
0
2
25
0
14
0
0
0
28
33
54
53
0
0
0
0
0
0
0
0
28
0
0
71
0
0
0
0
0
0
0
0
6
0
0
0
0
0
12
0
21
0
0
0
16
22
0
0
3
0
0
0
0
11
0
15
0
0
0
0
2
0
0
18
0
56
0
22
9
69
24
2
39
0
0
0
0
0
10
19
32
160
172
29
0
4
0
35
0
2
25
0
43
0
0
0
0
0
0
0
0
74
0
11
0
0
0
22
3
11
0
3
0
27
0
0
3
4
7
0
5
25
0
0
10
0
0
30
0
0
0
43
0
0
0
0
0
0
0
0
2
0
34
10
0
0
0
0
20
0
0
2
25
0
0
0
0
0
33
47
0
32
3
10
0
0
0
0
24
0
19
0
14
0
8
0
4
0
8
0
26
23
0
0
35
0
70
0
0
0
0
36
0
0
0
6
10
0
2
14
0
49
0
32
28
14
16
11
54
0
19
0
19
0
15
0
4
0
47
0
0
15
0
16
2
0
0
16
0
7
0
0
0
19
136
0
0
5
17
20
49
0
0
0
1
0
0
18
0
19
0
0
14
0
8
21
0
0
4
60
0
0
0
6
45
0
0
18
17
0
53
13
0
42
79
0
0
24
13
0
0
25
47
26
14
73
13
0
67
0
0
0
7
70
0
0
0
17
116
18
0
0
30
54
0
0
18
94
0
0
0
38
59
72
0
0
0
0
31
20
51
26
0
0
0
18
34
48
33
0
0
11
0
21
45
48
0
0
0
0
12
59
14
12
0
0
0
4
13
21
27
10
0
0
0
7
37
53
5
0
0
0
0
0
0
0
13
5
2
3
46
56
69
101
77
110
125
39
0
0
0
0
11
0
0
0
1
0
0
0
27
0
59
15
19
0
9
0
0
12
0
0
28
22
50
8
22
0
29
0
0
82
16
9
9
0
0
0
3
23
0
12
2
18
0
25
0
13
0
0
24
0
15
0
1
6
7
34
10
14
0
1
0
0
0
10
0
13
7
0
16
0
0
0
31
0
0
0
17
0
9
11
0
21
0
6
21
0
30
0
1
0
9
0
23
0
26
0
13
16
18
0
21
0
6
0
2
0
0
0
14
0
10
0
5
0
0
8
1
14
11
5
8
0
0
0
0
0
0
0
0
12
0
0
0
0
2
16
0
35
52
51
8
38
0
0
0
3
9
0
6
21
0
79
27
0
17
0
0
19
2
39
22
0
19
0
0
0
25
67
7
35
27
13
6
7
0
0
20
0
32
18
0
4
114
0
0
0
0
0
0
20
6
0
0
20
0
0
0
21
0
0
0
0
0
0
0
0
0
0
64
42
19
167
167
2
0
19
0
10
1
0
5
0
0
8
44
0
17
0
0
241
0
0
0
0
0
20
23
0
0
0
14
0
0
8
18
0
18
22
0
0
0
0
0
5
16
8
0
0
0
21
0
0
0
27
10
22
0
16
25
19
0
0
20
0
0
0
0
0
0
23
0
0
24
0
0
1
4
0
10
0
0
0
49
0
0
0
29
0
0
0
3
0
16
5
0
13
4
0
16
0
0
11
0
42
0
0
16
0
27
40
0
0
12
19
0
16
15
0
2
33
7
36
0
32
0
0
0
0
21
9
0
0
33
0
44
17
45
0
14
18
5
5
0
0
9
6
36
55
0
0
19
0
0
178
0
0
0
13
0
6
22
0
10
17
38
0
0
0
11
15
0
34
50
0
0
32
0
40
0
32
0
0
106
18
29
18
0
0
33
0
0
0
67
24
0
0
81
1
0
0
54
0
0
29
0
0
0
40
7
0
0
55
76
0
0
0
0
78
0
0
0
12
0
0
15
41
50
21
0
0
6
113
77
0
0
0
0
27
4
10
0
0
0
6
50
78
11
0
0
0
4
20
34
28
0
0
0
6
26
45
5
0
0
1
0
34
23
29
26
7
0
0
0
50
46
35
22
0
0
0
0
22
18
55
50
19
37
14
42
5
26
37
47
50
52
69
115
123
49
0
0
0
1
0
46
14
34
32
24
0
24
0
37
0
0
20
0
0
37
0
27
24
0
0
0
0
0
9
8
0
0
0
0
0
15
0
69
0
0
0
0
0
7
18
0
19
0
0
10
8
15
0
0
0
15
0
3
0
0
0
0
7
21
0
6
0
0
0
0
0
13
24
0
0
19
5
8
15
3
12
0
2
37
0
0
0
0
0
22
0
18
11
0
0
33
22
14
0
0
0
0
0
12
0
0
11
0
2
19
13
0
4
17
0
12
17
5
0
2
0
11
0
16
4
0
0
2
0
26
2
0
23
0
16
7
5
0
22
11
34
28
44
28
13
0
0
23
0
0
15
19
0
0
0
0
0
4
0
5
33
0
56
0
0
10
23
25
22
9
0
0
5
9
0
0
0
0
15
0
6
54
0
25
19
0
0
9
0
49
0
5
24
0
0
0
0
0
0
51
56
0
17
0
0
0
0
0
0
0
18
23
57
26
168
165
0
0
26
0
15
31
2
4
44
0
30
1
0
0
0
0
0
0
12
29
3
0
12
0
0
48
0
16
7
6
0
24
0
0
11
0
17
14
12
33
0
0
0
23
0
0
12
3
0
20
0
0
1
6
23
0
3
9
8
0
9
55
0
21
0
0
0
20
13
0
11
76
10
0
4
0
0
0
21
106
0
0
28
0
1
56
0
64
0
0
28
0
41
0
0
0
35
0
5
0
0
44
0
25
0
3
29
11
0
3
11
0
25
15
0
0
0
0
6
0
0
0
25
0
41
0
8
4
13
2
0
11
0
0
0
1
0
12
0
10
0
20
0
0
0
0
0
0
0
90
182
0
0
0
68
0
0
0
2
28
2
0
18
0
0
0
10
0
0
0
0
0
0
0
27
0
0
34
57
0
0
81
0
0
0
7
0
59
48
0
0
22
71
0
0
27
0
0
0
39
0
0
36
72
33
0
0
77
80
0
16
14
58
9
0
0
0
130
0
0
23
52
0
0
15
26
68
59
0
0
0
52
53
75
77
0
0
21
0
12
62
60
0
0
0
32
35
57
8
0
0
6
22
0
4
58
56
0
0
0
7
17
42
42
0
0
0
17
36
70
21
0
0
0
0
0
10
67
32
10
16
4
6
8
0
11
3
0
11
15
2
16
0
47
71
147
0
0
0
11
3
0
0
5
22
0
0
1
11
33
7
0
8
0
12
2
8
0
0
4
27
0
20
0
53
0
0
49
11
0
25
0
0
31
0
22
26
0
13
0
0
0
30
34
0
4
0
10
2
5
13
15
0
45
1
40
0
23
0
7
0
21
11
0
59
0
1
0
16
35
0
0
10
0
0
4
30
0
0
0
32
8
13
0
5
0
0
0
0
13
0
0
0
20
6
0
0
0
0
9
0
21
16
14
0
0
26
0
0
1
0
19
12
0
0
34
0
0
3
11
7
5
0
6
0
20
0
12
12
6
17
0
27
0
12
29
18
46
48
0
0
0
27
0
0
26
16
54
14
0
7
0
103
0
0
0
0
4
0
0
22
0
0
0
3
0
0
26
0
0
37
0
26
0
23
0
39
3
0
19
25
20
26
0
0
0
0
56
0
0
0
39
0
0
0
26
11
0
26
0
0
14
7
0
0
5
32
9
24
11
168
167
28
0
0
0
0
12
0
0
30
0
3
1
0
0
0
57
8
17
37
0
0
0
9
14
0
0
14
0
0
0
21
0
21
0
0
3
33
0
1
0
0
10
27
21
9
0
7
0
7
0
0
20
0
0
13
0
15
38
0
0
8
0
0
0
0
0
18
0
35
29
0
18
17
0
0
6
45
36
0
48
0
0
48
0
0
0
0
30
0
0
25
19
7
0
0
11
8
0
0
8
8
0
0
17
17
0
0
39
0
29
0
70
0
14
48
76
0
0
0
14
0
12
0
31
0
0
0
31
25
0
0
28
0
0
27
20
0
0
5
24
0
8
26
0
22
1
0
0
0
37
12
0
18
8
9
9
7
0
15
0
0
0
63
15
0
0
66
0
39
17
13
10
0
39
0
0
21
47
0
7
0
58
0
0
0
52
31
73
0
11
48
19
0
0
41
4
0
53
40
22
0
47
29
0
0
0
67
0
0
38
2
21
0
0
31
25
16
0
0
17
55
0
0
10
22
90
3
0
0
20
0
43
14
0
0
0
12
41
42
60
0
0
0
0
44
43
43
5
0
0
0
17
24
51
38
10
0
0
38
91
23
26
0
0
0
39
70
6
20
0
0
0
0
31
0
41
14
30
13
16
0
0
8
23
12
0
0
0
1
0
7
3
0
21
33
101
122
0
0
0
0
0
0
13
0
0
19
6
0
0
0
0
18
0
0
0
0
0
19
0
12
0
18
0
0
0
0
1
0
0
0
0
0
0
8
11
0
17
6
18
0
0
32
0
0
6
0
17
21
0
0
0
0
0
0
4
6
0
35
0
35
0
0
0
0
0
0
7
14
0
0
0
20
0
0
8
25
1
0
21
0
0
8
2
12
0
0
0
14
12
15
11
12
0
0
24
0
30
0
0
0
24
0
0
3
19
14
0
4
14
0
0
0
0
0
7
0
7
0
2
16
0
4
16
13
15
0
0
0
8
0
0
18
6
38
50
47
33
0
0
17
0
0
2
0
0
0
0
17
0
0
0
16
0
13
22
30
0
0
11
11
0
0
0
10
0
14
0
0
0
20
0
0
0
51
0
9
51
25
0
0
0
53
0
17
20
0
1
0
0
0
0
10
13
20
63
40
0
0
0
0
0
0
0
0
0
15
53
36
0
171
162
0
20
13
0
3
8
12
20
0
0
19
0
56
0
0
11
0
2
8
8
43
0
0
0
12
7
31
28
11
19
0
7
0
4
24
0
0
21
0
0
28
0
0
0
0
9
0
0
10
3
0
29
4
0
0
0
0
30
0
16
1
24
0
5
40
0
14
0
2
0
2
0
0
7
2
15
0
0
0
0
5
0
0
7
0
12
34
23
0
0
12
0
0
0
11
0
34
0
16
0
3
0
8
0
9
4
0
0
17
0
0
8
0
0
0
5
34
0
44
49
0
17
0
54
24
1
0
6
0
0
0
30
41
0
28
0
64
0
30
0
0
0
0
0
40
0
0
0
60
15
0
25
8
0
0
16
0
6
17
0
0
21
0
0
0
0
0
0
55
0
0
0
29
0
0
31
34
19
37
0
12
14
27
0
24
75
0
0
34
21
0
0
14
22
0
0
42
14
0
0
25
72
0
0
104
119
0
0
0
7
0
0
0
62
66
0
0
46
0
99
0
0
26
99
55
0
0
78
36
82
39
0
0
0
46
33
84
58
0
0
0
17
8
47
43
0
0
0
36
2
33
40
8
0
0
0
0
18
22
15
12
0
0
39
33
0
0
0
0
0
0
30
46
38
21
4
7
0
7
36
0
0
0
0
0
1
0
0
0
0
3
15
0
17
25
69
145
52
0
0
0
0
0
4
6
13
0
23
7
8
0
0
21
16
13
0
4
5
19
0
0
23
0
20
0
51
14
46
0
7
28
15
0
51
0
10
0
7
0
0
3
29
0
0
19
29
0
21
0
0
31
0
0
3
0
39
0
0
10
0
19
3
0
0
11
22
0
11
0
23
15
0
15
15
36
0
0
0
0
0
19
40
4
0
2
26
0
0
0
0
0
4
0
0
10
6
0
0
0
10
5
0
0
7
0
10
0
4
0
52
0
13
31
20
0
0
15
0
38
0
0
0
0
0
7
0
22
13
0
16
0
0
9
23
13
5
61
64
0
0
0
0
18
0
0
0
36
0
1
0
21
39
45
0
15
0
0
26
74
0
0
0
66
0
1
0
32
22
85
6
20
0
0
0
0
0
8
0
27
0
13
0
16
0
0
0
0
21
0
0
0
0
0
0
85
21
9
0
14
0
0
0
0
0
32
57
40
1
3
11
169
158
0
38
0
0
26
29
0
27
0
7
51
0
0
0
4
9
0
4
0
0
8
0
0
23
11
0
24
0
0
19
34
0
5
0
24
0
0
0
6
15
0
0
0
0
30
2
0
19
0
18
11
0
0
8
14
26
0
34
0
0
10
3
0
0
0
0
9
0
0
0
12
36
0
17
1
5
0
0
43
7
10
0
18
19
0
0
0
0
46
0
61
0
31
31
21
0
38
1
0
0
14
1
0
0
0
18
15
31
18
0
0
12
0
25
6
0
0
0
0
0
0
48
14
34
0
27
68
26
9
26
13
42
0
0
0
12
0
0
14
0
0
19
0
7
5
12
0
13
75
0
0
7
0
0
27
0
11
0
39
0
0
4
0
55
0
0
0
68
35
0
5
0
0
0
60
52
0
0
0
0
0
15
0
0
29
1
0
81
29
10
1
39
42
0
0
35
3
0
26
28
37
0
12
0
45
0
0
49
46
15
0
3
59
135
0
0
0
39
10
24
0
28
78
56
0
0
13
27
29
0
0
0
0
6
62
48
0
0
0
0
0
49
103
0
0
0
0
0
63
76
27
0
0
0
18
24
46
62
14
0
0
24
45
37
0
0
0
18
0
21
65
12
41
0
42
7
3
0
0
20
3
10
0
0
8
5
3
24
0
0
1
9
14
0
7
3
101
84
0
0
0
15
37
8
0
25
0
0
0
22
0
44
0
0
0
18
22
4
7
0
0
0
0
27
0
0
0
0
0
28
1
0
0
27
0
0
0
3
26
0
0
6
9
15
0
0
0
13
5
0
0
12
15
3
17
1
1
6
0
10
0
0
0
0
0
0
9
13
23
0
0
0
49
0
0
40
19
25
0
29
0
11
0
14
0
18
0
0
0
19
0
8
2
11
12
0
0
2
11
0
9
21
0
32
0
0
9
29
0
20
18
0
0
27
13
0
47
0
12
5
0
9
5
10
0
0
19
9
0
22
0
23
11
21
35
4
39
0
0
0
0
45
54
0
2
108
0
5
13
0
102
0
7
0
24
0
60
10
7
0
0
19
0
24
23
23
0
0
0
0
0
0
18
13
97
0
30
28
14
0
0
0
7
14
5
0
0
16
0
2
10
16
60
29
17
19
7
16
0
0
0
0
11
20
54
50
0
0
10
8
170
163
27
0
21
11
0
0
0
0
0
0
0
0
0
13
8
0
0
7
7
46
0
13
0
0
12
0
21
18
0
12
0
0
8
0
4
3
30
32
0
0
0
0
33
11
0
0
20
7
0
0
8
0
6
15
13
0
0
32
0
29
19
8
0
10
15
0
20
1
4
0
9
12
0
0
15
0
3
17
0
0
14
12
24
101
0
12
0
40
29
0
26
0
0
0
5
0
0
14
0
18
0
25
0
2
29
0
0
3
0
0
0
0
0
0
0
17
29
0
38
27
0
18
0
0
0
4
0
0
0
0
0
0
0
12
9
37
0
11
0
0
23
18
0
11
0
6
0
43
6
7
18
2
0
49
8
0
19
0
50
0
28
0
0
21
0
12
29
0
0
39
0
0
18
25
1
16
0
0
35
0
24
15
8
10
0
0
73
52
0
9
30
0
0
0
75
0
0
38
54
0
0
0
45
0
0
0
3
80
4
0
27
32
22
0
0
14
39
20
0
9
0
57
0
0
36
120
68
72
0
0
10
26
60
100
3
0
0
0
10
37
49
11
0
0
7
36
40
52
15
0
0
0
9
30
24
52
32
0
0
0
52
0
0
0
0
0
28
43
11
12
18
0
27
0
0
15
0
8
0
0
10
22
0
0
0
4
5
3
0
0
0
0
13
0
0
24
34
71
45
0
0
0
11
17
0
10
32
0
24
0
0
30
0
0
42
0
0
0
0
32
28
0
27
11
14
19
27
0
36
0
0
0
0
31
6
50
0
11
0
0
0
23
0
0
11
0
0
37
12
0
8
0
10
0
8
8
0
0
1
48
15
11
0
34
8
0
0
0
14
0
9
0
0
14
0
0
23
0
3
0
0
7
22
4
0
0
0
17
6
0
0
4
0
0
20
0
10
0
0
0
0
22
0
23
5
0
31
9
0
27
2
17
0
0
0
0
0
6
4
25
0
22
0
44
0
0
41
0
0
38
22
7
30
4
55
7
0
0
0
0
0
44
0
0
0
0
33
0
13
26
0
29
0
0
22
0
3
0
28
0
0
24
0
28
4
7
29
0
7
43
0
0
0
0
22
0
8
46
7
0
6
75
0
48
0
0
0
35
0
9
20
0
57
0
17
32
0
11
0
0
0
0
27
36
13
30
17
0
23
0
167
162
39
0
25
3
4
20
1
0
28
0
42
0
0
14
0
0
61
8
0
0
0
0
0
0
0
0
0
36
0
12
3
2
0
0
16
0
0
10
0
4
0
15
0
13
8
0
0
21
9
0
0
24
2
0
0
0
0
26
0
2
0
9
0
0
9
0
1
36
0
19
4
0
11
0
10
14
0
6
3
0
0
0
27
7
0
43
1
0
0
0
34
13
0
0
21
0
18
0
20
17
1
0
19
0
14
20
17
30
0
82
0
41
0
10
0
0
0
0
0
0
0
0
26
7
0
27
0
38
0
0
0
32
3
13
0
19
0
5
3
22
0
12
0
41
4
0
36
0
0
0
0
0
0
0
0
22
44
0
5
0
0
0
13
11
0
57
0
63
0
1
0
62
32
0
19
65
0
0
77
0
0
43
0
0
29
45
0
0
0
20
22
0
49
9
19
0
40
92
0
0
0
74
9
0
0
59
28
0
0
13
50
0
0
0
32
52
0
0
0
56
65
0
0
62
14
35
0
0
4
0
0
31
5
18
0
5
39
21
45
60
0
0
0
0
20
51
37
0
0
0
3
67
44
61
22
0
0
14
21
0
0
0
0
29
38
9
24
29
23
8
21
1
5
0
0
6
1
0
13
0
0
18
15
0
0
2
0
17
22
0
0
0
5
18
3
7
20
55
107
63
0
0
0
0
0
0
0
27
30
0
10
12
0
12
3
6
15
0
0
6
0
0
14
0
10
0
0
0
0
0
35
1
0
34
0
26
0
0
38
11
5
0
1
0
21
6
0
0
0
0
22
0
8
0
39
12
0
0
20
0
0
26
14
13
25
0
0
0
14
51
3
0
0
18
29
0
21
0
23
0
25
0
0
68
0
2
2
5
0
0
25
0
19
4
17
0
0
25
0
19
0
13
0
21
0
0
1
6
0
11
0
0
15
10
90
2
11
0
0
0
0
0
0
0
11
0
7
0
31
7
0
5
52
53
53
56
0
0
0
60
0
9
1
9
0
0
0
0
0
0
0
0
4
0
29
29
3
0
22
87
0
0
14
0
0
0
0
0
0
0
0
9
1
43
0
50
0
0
0
0
0
21
0
11
0
3
0
0
0
14
0
0
43
0
52
16
0
0
0
2
0
52
39
0
19
2
1
15
13
0
160
153
0
0
7
0
34
0
10
33
0
9
12
0
0
29
0
22
0
0
12
6
33
5
3
8
43
12
36
0
0
3
24
4
0
0
0
15
1
0
6
5
0
2
13
0
0
8
16
14
0
0
0
0
0
19
3
0
16
0
0
4
0
63
56
0
10
0
0
0
0
0
6
6
28
7
0
43
0
0
0
30
19
0
0
31
0
30
0
45
11
0
0
19
18
26
0
0
0
0
18
0
0
6
0
0
0
0
19
0
0
0
0
0
31
13
0
0
15
0
77
3
0
0
1
45
0
16
0
0
28
19
0
26
0
2
0
16
34
0
0
26
0
0
0
0
32
0
89
15
0
7
0
18
1
0
14
0
11
8
0
7
50
5
40
19
0
0
6
0
0
0
12
3
0
1
0
0
0
11
0
7
15
0
0
24
44
0
0
30
10
0
0
29
37
0
29
28
24
0
0
108
32
19
0
30
71
54
0
0
55
41
33
0
13
0
24
0
0
21
45
63
0
0
10
43
0
0
0
16
51
14
90
0
0
0
30
28
78
6
25
0
0
26
0
51
58
22
0
0
35
75
41
52
3
6
0
0
0
0
0
0
0
35
6
40
13
23
20
0
20
2
13
10
2
8
0
0
9
12
15
0
0
0
0
6
0
0
0
0
0
13
6
0
0
16
1
10
0
53
104
144
9
0
0
38
0
9
0
1
0
8
26
0
18
16
0
0
0
20
0
8
0
0
0
25
5
8
0
7
1
37
7
0
5
21
0
0
20
19
0
0
0
0
46
8
0
8
0
8
12
2
0
0
0
0
18
0
0
0
8
0
7
7
4
0
1
0
1
60
0
0
0
0
1
0
16
28
7
0
2
0
0
33
0
24
0
0
43
5
16
0
10
9
0
8
0
14
0
12
7
0
0
34
0
37
0
0
18
0
0
43
9
12
2
0
0
0
14
0
41
0
0
4
18
0
22
0
10
0
0
18
6
12
47
0
14
20
0
16
0
38
0
0
0
0
9
10
39
91
0
0
1
3
25
0
0
10
0
14
0
0
30
0
0
0
17
33
12
1
4
59
0
3
0
0
0
29
0
18
11
5
10
32
0
6
25
6
0
0
0
22
17
0
32
0
0
16
0
0
0
0
4
10
52
0
69
0
0
15
0
10
158
154
23
1
15
4
28
1
14
0
0
0
0
0
0
22
21
0
0
35
0
23
0
0
5
0
0
0
0
0
22
8
0
4
3
4
10
1
3
9
0
1
26
0
10
0
0
4
0
13
0
7
3
0
0
5
0
0
6
30
0
0
1
0
17
14
26
33
0
21
20
18
10
0
0
0
12
0
6
42
0
0
6
10
0
29
0
41
0
0
20
0
0
9
44
0
12
35
2
30
9
14
0
29
55
0
8
22
16
3
19
0
21
0
5
26
20
6
10
0
7
13
0
9
33
0
0
0
55
0
0
6
0
36
0
6
0
0
23
0
0
0
5
39
0
0
19
27
0
3
0
0
10
13
25
0
41
28
0
0
0
0
0
0
54
0
31
39
9
0
34
25
58
9
38
0
5
59
25
12
38
0
35
0
15
91
0
0
74
3
25
0
9
29
0
16
29
0
6
0
77
28
0
0
0
0
85
0
0
60
56
0
0
0
101
21
0
0
0
41
41
0
0
0
78
100
0
0
46
11
59
0
0
0
7
62
59
35
0
0
11
13
40
26
56
44
0
0
0
29
36
43
16
0
0
2
0
0
0
0
9
35
4
36
19
13
16
0
42
0
14
0
0
0
0
0
12
5
0
12
4
0
10
5
1
6
40
0
0
0
2
0
19
9
0
0
14
12
0
12
39
92
121
0
0
0
0
42
4
0
2
23
0
0
0
33
0
0
25
3
14
16
10
7
0
0
14
27
26
13
0
0
0
13
0
33
1
0
6
0
0
30
0
0
35
0
31
0
0
0
0
0
0
39
20
0
0
0
9
0
0
1
34
0
13
38
0
13
0
0
0
26
0
0
16
15
0
0
0
20
29
0
16
11
0
5
0
0
0
0
47
0
0
0
24
19
0
37
0
10
0
12
0
26
0
21
0
0
0
2
2
0
0
14
6
0
0
0
41
0
0
5
31
0
14
11
60
2
9
14
0
4
33
25
49
43
2
0
0
2
0
12
15
45
10
19
13
0
0
0
2
0
85
25
0
51
0
0
4
23
0
10
12
21
17
36
0
24
0
0
0
13
0
13
12
52
30
7
18
0
0
0
0
0
0
0
0
0
0
34
0
0
21
40
54
0
1
0
0
0
29
28
14
34
0
21
13
0
5
5
14
0
161
149
0
1
6
8
0
0
7
16
0
0
0
11
0
0
0
0
56
0
0
0
0
32
0
0
0
0
0
3
40
24
6
20
0
21
0
0
26
13
8
0
14
20
17
12
7
13
3
0
10
0
51
0
0
21
13
0
7
3
15
0
10
0
0
0
0
0
0
54
0
0
12
38
0
21
10
0
0
0
0
11
0
21
0
0
15
0
0
23
0
0
1
33
0
0
0
0
17
0
0
6
4
3
0
0
16
0
0
0
0
0
12
0
0
0
0
13
1
0
10
2
0
0
1
0
0
0
0
5
1
15
0
36
0
1
10
0
2
0
6
72
0
0
5
14
16
42
0
19
0
0
11
0
29
7
0
33
0
24
0
84
0
36
0
0
0
0
0
50
40
0
31
0
0
11
20
0
22
8
15
0
2
55
0
0
0
26
57
0
26
45
7
0
0
55
0
0
0
3
86
0
0
3
34
35
0
3
8
68
0
0
0
0
40
0
0
0
46
40
0
12
43
21
87
0
0
0
21
45
0
0
23
0
70
103
0
0
0
0
44
19
59
0
7
0
0
33
17
66
28
0
0
34
0
0
0
0
8
51
32
23
0
66
27
0
37
0
27
2
7
0
19
7
0
0
25
17
0
0
3
5
0
0
6
3
12
10
19
0
0
0
7
0
26
0
28
25
9
0
18
67
127
57
0
0
0
0
0
13
0
58
0
5
37
0
1
0
0
0
0
49
26
0
14
4
0
26
0
0
0
7
28
0
0
21
5
2
20
0
5
20
22
0
45
0
0
6
2
1
30
17
4
0
7
0
11
10
16
0
19
0
7
0
17
9
0
26
0
0
0
0
0
0
0
35
0
80
0
11
0
9
0
0
0
10
3
0
0
2
0
0
11
0
0
0
0
0
7
35
0
0
0
0
0
0
42
23
0
5
0
4
0
1
27
35
11
0
27
13
0
0
35
0
0
0
0
0
0
0
10
22
34
31
64
0
0
0
0
0
0
0
0
0
0
7
0
0
28
0
3
0
0
0
0
77
0
106
0
17
0
30
5
0
4
0
0
0
0
11
8
4
8
0
6
24
0
0
0
0
63
83
0
19
48
55
121
72
0
0
2
0
47
119
0
34
0
0
0
0
0
20
20
17
0
27
21
0
4
0
0
0
157
150
22
24
21
12
20
14
20
0
0
2
0
16
27
0
21
0
1
38
16
19
0
23
15
5
26
27
18
0
0
0
0
4
0
25
17
0
0
0
8
14
0
0
10
0
0
0
0
5
0
0
0
0
31
0
16
6
0
0
0
16
10
24
0
2
0
0
0
44
15
13
0
52
0
0
0
23
0
29
0
22
9
23
0
17
18
0
4
6
0
0
34
0
31
5
0
0
0
0
0
8
0
0
0
0
14
13
13
0
17
0
0
47
0
23
17
0
0
0
0
30
0
0
44
0
1
0
4
23
0
0
0
0
19
11
0
31
29
0
2
0
0
0
0
4
14
41
0
8
0
0
0
0
21
0
0
35
21
0
27
21
0
52
23
0
0
50
3
33
10
0
25
0
52
3
0
0
22
0
0
0
59
0
0
23
6
0
0
7
12
0
7
58
70
0
0
61
58
50
0
0
69
12
33
3
0
3
58
10
0
37
40
85
26
0
34
30
35
0
0
54
0
20
0
0
28
0
31
14
0
38
36
51
0
0
3
0
29
12
75
0
0
0
0
0
42
46
44
49
0
0
0
0
0
0
17
41
0
54
22
13
0
19
19
0
0
6
0
0
4
0
0
7
0
5
10
0
19
0
0
0
26
0
0
0
22
6
30
18
0
0
19
26
19
0
0
19
7
0
0
10
52
91
47
0
0
0
14
0
0
5
12
0
0
0
49
0
5
11
4
15
0
0
22
0
0
5
0
17
4
0
0
8
0
4
0
0
0
7
0
4
0
0
0
0
19
1
0
0
0
0
0
0
7
9
26
4
0
0
0
0
26
32
0
31
0
6
0
0
1
17
0
0
0
29
9
0
20
11
0
89
0
6
6
0
31
12
0
14
0
0
19
0
10
0
12
0
9
6
0
0
9
0
11
22
0
7
0
18
10
0
0
0
17
0
0
0
0
0
0
0
0
0
0
5
0
36
0
0
20
42
14
65
55
0
0
0
69
0
0
0
8
0
0
0
0
0
0
28
0
19
23
44
0
17
0
0
0
10
0
0
40
0
11
0
29
0
0
7
34
0
0
39
0
47
0
31
10
19
0
0
0
0
0
0
34
0
106
0
0
0
70
0
0
4
0
0
5
18
14
10
21
0
51
4
0
1
0
12
4
32
145
146
7
17
0
0
0
0
0
8
21
0
0
4
8
0
16
13
0
31
0
0
0
0
0
12
0
0
41
0
9
0
31
0
31
3
11
0
30
0
0
36
0
0
0
30
0
33
0
21
26
0
7
0
0
18
0
0
0
8
20
20
0
1
0
0
37
0
10
0
0
0
0
0
0
26
26
0
9
0
8
0
0
0
0
0
22
0
8
14
31
16
15
0
0
0
2
20
22
0
22
20
1
33
0
14
42
0
0
0
12
50
0
0
2
0
7
0
2
8
3
6
0
0
22
0
0
18
11
5
0
0
15
5
0
9
0
0
52
0
21
0
1
11
62
11
0
4
0
0
0
54
18
0
43
0
0
23
0
0
8
0
0
56
0
0
17
80
0
17
27
0
38
0
0
0
80
44
0
0
0
41
0
0
13
0
0
23
72
0
0
27
24
0
0
0
0
32
0
0
0
52
41
0
0
0
8
0
0
0
35
67
0
0
6
0
2
3
0
0
73
58
57
0
18
64
57
0
0
0
0
59
58
0
0
0
29
0
68
38
1
0
0
8
35
79
51
2
0
49
17
0
0
0
63
24
31
50
2
0
26
11
0
6
36
19
0
0
7
0
0
0
7
15
3
0
0
0
9
11
0
0
6
5
11
0
0
0
25
17
19
0
0
0
2
0
0
0
0
20
10
7
25
81
108
21
0
0
0
0
19
19
0
22
14
0
16
0
11
6
0
13
41
0
47
11
5
0
0
0
11
8
0
25
0
17
0
27
9
0
25
0
19
21
27
0
2
5
0
14
20
0
5
12
37
0
0
8
0
0
37
27
0
6
13
33
11
30
24
0
0
0
0
43
0
0
22
0
0
52
0
0
0
44
0
0
0
34
0
22
14
0
11
0
9
0
11
0
8
0
27
18
3
0
0
3
0
0
10
0
7
0
9
0
0
0
22
0
0
26
0
4
3
0
5
40
0
32
0
9
21
27
67
6
0
0
0
0
0
0
15
44
78
0
25
0
0
29
0
0
0
38
17
38
0
0
45
0
35
13
25
20
0
17
11
0
47
0
0
0
28
0
53
0
0
0
0
0
0
0
0
0
0
0
92
24
0
0
14
15
0
6
76
0
27
0
10
0
25
66
0
33
30
4
11
6
0
0
0
11
0
0
141
143
21
24
7
33
40
11
0
0
0
17
25
1
0
22
0
17
0
1
0
10
26
0
8
0
14
0
23
0
48
0
22
0
0
38
0
0
11
0
8
0
5
21
0
0
0
6
1
0
0
4
0
8
2
0
0
57
0
0
40
0
4
10
0
0
4
0
0
0
0
6
28
0
0
2
0
0
26
6
26
8
11
0
40
0
0
0
56
0
0
9
0
46
0
8
37
0
0
21
0
19
0
14
0
14
0
8
35
0
19
9
0
5
53
0
30
42
0
0
10
17
24
2
0
5
13
0
0
5
0
0
21
16
37
30
10
0
1
8
6
0
52
0
22
0
0
0
43
34
0
32
0
0
50
0
17
7
13
26
4
49
0
0
0
43
0
0
8
0
10
0
6
0
0
64
27
0
0
102
0
0
0
5
13
0
4
31
0
0
40
76
12
0
41
11
64
0
0
60
0
27
0
0
47
18
72
0
0
0
25
70
0
0
0
12
0
0
37
18
44
0
0
0
26
0
0
0
8
9
52
8
0
0
4
0
29
35
0
0
0
0
18
34
80
0
0
0
0
0
0
0
46
49
14
13
0
26
29
0
5
16
0
0
1
0
19
1
0
19
0
0
26
9
19
2
0
0
5
0
32
0
0
11
11
0
0
8
0
14
36
2
0
0
9
16
0
0
0
20
30
0
0
42
93
142
52
0
0
27
0
0
7
12
0
0
0
37
8
0
0
0
0
0
0
0
11
0
17
52
0
10
16
6
0
0
0
6
0
2
12
3
0
0
2
0
7
0
15
0
12
2
0
0
0
0
27
3
0
0
6
15
0
0
0
16
0
52
0
0
17
0
0
0
1
0
0
25
0
19
6
0
17
9
4
13
0
5
0
16
20
0
0
0
19
0
39
0
0
25
9
0
0
26
0
5
0
24
0
5
2
0
34
0
27
27
1
7
0
0
28
0
0
0
0
0
0
2
7
18
39
27
91
0
0
0
53
0
0
0
0
0
0
6
27
0
30
0
11
35
38
9
0
0
26
0
52
0
0
18
0
0
0
0
8
0
0
0
31
42
38
5
16
0
6
27
0
11
57
23
48
0
91
0
0
0
0
0
0
3
0
0
22
0
0
0
0
6
0
0
6
6
14
20
0
42
1
0
20
0
0
0
143
136
0
14
0
0
0
0
4
0
0
6
0
0
11
1
0
9
4
29
1
0
24
0
1
3
18
2
17
0
20
0
13
29
0
14
0
19
7
0
27
0
23
4
0
0
16
1
23
0
5
30
10
0
0
0
0
0
0
0
20
0
0
13
0
11
0
18
0
0
0
16
17
46
0
26
3
0
4
0
0
1
0
0
6
45
0
14
11
3
0
52
23
6
0
19
0
14
16
0
21
4
0
1
1
22
9
16
30
0
0
0
22
0
11
0
53
0
0
0
10
0
5
16
0
26
0
43
32
28
2
14
0
5
0
15
0
0
0
0
9
0
14
34
23
19
0
14
0
0
0
34
0
0
26
0
0
37
0
0
17
6
0
25
5
37
9
21
0
0
15
0
0
14
58
0
0
0
21
2
0
30
25
25
0
0
6
0
7
69
1
0
0
0
73
1
0
0
62
16
0
0
0
63
51
0
0
21
66
37
0
0
0
0
37
10
0
59
15
45
0
0
16
0
0
0
34
0
52
58
0
0
6
10
12
69
83
0
0
27
12
0
79
71
28
0
3
0
0
0
0
0
30
56
28
11
5
0
40
30
0
6
17
0
0
0
0
0
11
20
32
0
0
23
5
2
0
0
7
0
11
10
0
0
16
20
23
3
0
0
0
5
0
0
2
25
0
1
0
0
2
0
0
0
40
127
63
0
0
0
1
2
15
0
31
34
12
0
0
0
74
42
30
50
6
17
21
0
2
16
0
0
0
2
0
19
4
11
1
0
0
2
2
0
7
24
0
0
4
0
15
0
0
12
14
0
0
0
0
8
6
0
0
23
0
19
15
0
27
51
0
7
0
0
0
0
10
0
1
9
0
0
4
0
8
0
26
23
6
0
16
13
0
0
0
0
2
0
0
0
6
0
0
0
0
13
0
0
5
6
41
0
15
0
10
0
0
9
0
23
2
0
40
0
17
0
23
0
6
38
32
27
30
0
0
0
0
27
0
117
121
67
0
0
0
0
0
8
51
0
58
0
0
12
9
14
16
30
0
16
0
46
0
0
45
0
4
0
31
0
0
33
0
18
0
37
0
0
0
0
0
0
7
43
0
0
0
0
0
39
32
3
22
19
0
0
0
16
48
0
33
26
0
11
0
16
4
0
0
0
0
34
153
136
32
20
0
21
3
12
0
4
0
0
44
0
38
0
0
12
5
0
0
9
10
0
0
9
0
0
0
0
0
0
0
0
6
3
11
21
0
0
0
0
27
2
0
0
7
0
0
0
0
0
31
4
9
10
26
0
30
0
16
10
21
45
0
24
0
0
0
19
3
0
0
0
26
0
20
0
16
36
7
16
6
6
17
59
0
8
32
1
0
10
0
0
14
16
0
15
8
0
23
20
0
4
34
0
0
0
4
0
28
28
0
14
30
0
0
0
45
0
32
0
0
0
14
27
0
0
0
6
0
0
11
0
0
66
12
0
40
0
30
0
55
12
0
0
0
56
0
0
0
15
1
0
33
0
0
5
0
33
1
0
7
30
15
80
0
0
0
62
0
0
63
0
22
14
64
40
0
0
49
0
0
8
52
0
0
0
42
0
0
0
0
4
16
0
4
56
13
0
0
27
8
39
0
0
0
9
0
0
0
0
23
55
0
0
0
0
22
13
0
68
65
41
0
19
0
5
90
0
0
26
0
16
74
4
0
0
37
33
0
1
110
0
0
0
0
0
3
39
44
31
24
20
30
16
0
0
27
33
0
0
0
0
4
0
0
0
21
0
31
9
0
0
14
8
36
13
4
2
25
0
12
0
0
0
14
1
0
0
0
11
16
23
0
30
0
3
17
13
17
27
26
0
1
47
120
32
0
0
0
23
0
0
0
0
4
0
10
0
0
0
2
0
12
0
6
0
0
0
26
16
0
3
5
2
9
0
0
16
0
0
0
15
0
19
0
20
25
8
10
24
0
0
0
0
8
12
37
21
0
21
37
0
22
7
0
0
0
18
0
0
0
0
37
0
0
8
0
10
19
17
0
0
30
0
5
13
0
0
22
0
4
33
0
20
0
0
21
0
0
25
0
1
0
22
12
0
10
0
8
0
0
33
0
0
22
0
2
12
4
0
12
17
15
0
0
56
5
30
33
8
0
0
0
20
0
227
217
0
42
31
73
10
0
0
21
17
1
0
8
0
0
0
0
5
0
4
28
15
0
0
0
12
0
0
4
0
0
2
21
21
19
11
0
20
0
1
57
17
0
0
25
51
0
14
24
3
37
27
0
0
0
0
7
0
9
0
17
29
10
2
0
0
28
21
43
26
0
0
0
4
155
130
18
12
17
0
0
0
0
24
47
0
5
4
3
0
0
38
3
0
0
22
0
13
14
0
16
13
48
0
0
31
0
34
0
0
0
0
9
16
0
0
1
0
34
0
25
10
10
37
22
0
0
0
27
0
0
0
0
12
0
32
0
0
5
18
0
0
28
0
0
10
18
0
0
0
15
9
0
0
0
0
0
0
10
3
0
0
35
0
5
0
0
0
24
0
38
0
0
10
0
24
0
0
14
0
18
0
19
0
0
0
0
0
37
0
20
3
0
0
6
0
4
3
0
4
0
4
5
40
0
30
17
17
0
0
0
13
0
4
0
18
32
0
0
0
16
27
0
0
14
0
9
0
72
0
8
6
27
0
0
28
23
0
8
0
0
0
0
0
0
34
13
0
49
35
0
0
0
37
0
0
25
28
19
0
0
77
0
0
27
58
31
0
0
20
10
15
0
0
48
63
43
0
0
0
59
0
0
0
52
0
45
0
14
51
28
61
0
0
0
1
0
0
2
21
0
0
3
0
10
71
93
54
0
0
48
29
44
40
27
0
25
2
0
0
0
68
66
33
29
16
0
0
5
13
8
1
0
6
24
0
0
1
0
46
19
0
12
0
0
19
30
0
12
5
17
0
0
4
20
0
4
0
0
0
0
6
0
24
0
28
8
19
0
31
9
1
0
19
4
8
34
5
0
10
97
88
0
0
0
0
12
0
55
6
0
7
15
24
0
11
0
0
0
0
0
14
34
0
5
20
0
33
0
0
0
0
2
17
17
8
15
0
0
38
0
8
0
0
0
18
13
26
0
32
0
3
0
0
41
0
45
17
15
0
40
0
18
19
29
0
20
0
10
0
6
2
11
38
0
0
14
0
40
0
31
16
3
0
6
11
18
14
0
22
0
61
0
16
0
18
0
28
0
5
0
0
0
8
20
0
61
8
0
20
14
0
4
0
0
0
0
0
0
0
3
0
57
33
21
20
0
0
48
48
0
0
0
0
0
0
0
0
0
0
4
0
0
22
0
0
40
0
7
4
0
27
28
39
0
14
0
0
0
0
0
54
0
2
0
0
0
0
0
0
21
0
8
33
3
0
7
0
5
0
64
0
0
34
0
53
0
0
0
0
0
3
19
0
0
47
0
0
0
17
29
0
0
7
23
24
160
123
3
31
0
19
0
9
6
0
0
30
0
0
34
2
0
0
19
27
9
36
12
0
0
0
0
0
27
11
0
10
24
0
29
46
13
39
0
10
0
26
8
0
25
0
0
0
0
0
0
8
26
2
9
0
16
3
0
16
0
21
0
0
0
28
4
0
0
0
11
29
15
11
12
0
2
8
0
0
9
39
10
0
0
46
0
0
18
0
0
0
10
3
5
0
3
8
0
11
0
50
0
0
26
0
0
0
17
0
8
61
7
0
25
0
63
0
3
18
2
14
0
0
0
29
0
0
18
0
0
9
0
0
0
9
0
0
6
0
44
28
0
0
5
0
0
11
10
20
0
15
0
24
0
0
51
0
0
0
33
9
0
29
0
0
42
0
46
26
28
0
13
0
37
0
0
5
48
19
0
51
18
0
21
11
64
1
0
27
40
20
0
0
31
67
39
0
12
28
52
0
0
0
28
28
27
0
0
41
30
3
0
16
55
0
0
0
0
29
20
0
0
0
41
47
0
0
18
0
48
29
0
0
0
59
0
86
30
0
0
0
0
0
0
39
84
32
27
6
15
14
7
0
0
0
29
7
0
0
0
0
24
6
8
36
25
0
24
30
0
0
10
0
0
22
0
22
0
0
0
0
0
0
0
17
0
19
19
51
0
0
14
21
0
0
16
6
0
17
4
0
23
0
3
0
41
113
139
0
0
0
0
0
8
11
0
32
0
0
0
33
0
0
41
5
4
0
0
19
0
10
0
15
0
23
0
39
0
4
0
4
0
2
0
20
0
3
0
30
9
0
0
0
11
0
0
0
35
0
0
0
0
0
29
6
44
22
28
0
0
0
0
0
18
9
9
0
36
56
0
0
0
1
0
0
30
0
0
7
3
6
0
0
0
0
0
16
0
0
12
0
0
6
12
33
0
0
0
20
15
0
0
0
12
0
16
0
0
0
0
4
20
1
0
21
32
42
52
87
0
0
0
0
45
0
0
26
0
55
7
0
0
0
20
0
39
0
0
11
0
27
0
0
0
21
0
0
0
0
7
7
30
3
20
5
0
7
0
68
87
0
0
7
13
25
63
0
19
0
0
3
0
0
62
0
0
6
0
26
0
0
0
0
9
5
18
34
0
8
12
0
0
19
29
37
0
0
0
20
20
0
163
122
41
0
0
0
0
0
0
0
0
0
93
34
0
16
8
19
7
0
3
0
4
0
0
48
0
22
0
0
0
0
12
0
5
0
0
0
0
0
0
11
20
0
0
3
0
41
0
29
24
0
0
5
0
8
12
0
0
13
15
36
0
27
8
0
0
9
0
71
0
0
0
27
18
0
36
0
13
20
0
7
0
41
0
43
0
0
44
0
0
0
23
24
33
0
0
50
4
0
0
0
5
7
16
29
6
0
10
25
0
0
0
66
49
0
22
0
0
0
0
0
0
42
0
15
0
19
8
29
15
25
15
17
20
0
0
9
0
43
20
3
2
44
14
0
6
0
0
4
0
84
0
17
0
0
0
79
1
2
4
0
24
2
0
0
0
0
38
4
0
0
47
37
0
13
13
0
0
16
54
8
0
45
70
21
0
0
46
56
0
0
31
74
49
0
0
48
44
43
0
0
8
16
51
0
1
23
0
60
0
0
0
102
0
0
0
76
0
57
0
0
23
19
12
0
0
50
19
77
25
0
0
31
56
30
7
52
0
34
24
0
0
0
0
51
52
19
18
0
10
14
22
15
1
0
0
0
13
3
0
0
59
36
0
0
8
25
0
0
21
3
1
0
0
9
0
0
11
0
2
0
0
40
0
79
0
33
7
6
11
0
35
17
22
0
5
9
0
18
13
0
24
39
40
0
6
83
137
86
0
0
3
0
0
0
0
18
0
34
0
32
15
0
55
0
9
0
0
17
0
12
0
5
0
49
0
0
26
10
0
20
0
0
13
0
29
1
0
14
0
0
0
43
16
4
26
0
27
0
0
0
13
0
0
42
0
0
0
30
0
0
0
0
0
0
26
0
16
0
46
5
43
34
0
0
13
29
0
22
0
11
35
0
0
30
0
10
0
35
0
0
0
16
2
3
0
65
0
0
0
22
0
6
16
0
0
0
7
11
0
0
0
0
0
0
18
19
70
0
0
0
0
0
0
0
0
11
11
0
0
4
0
49
0
0
0
21
19
11
0
0
0
88
46
0
14
4
24
16
8
0
0
0
0
10
0
19
12
49
24
0
0
20
0
0
0
31
0
0
10
31
0
7
0
33
0
80
3
0
0
11
19
11
0
33
14
10
15
11
0
0
11
2
16
7
0
0
0
0
11
22
162
116
37
6
2
0
27
0
29
5
16
5
10
0
0
0
1
0
0
36
1
0
21
4
0
28
0
0
15
30
23
0
35
7
0
3
0
13
28
27
0
19
22
0
31
0
25
1
6
0
3
16
0
0
11
2
0
0
7
0
0
0
12
0
0
0
6
0
0
0
0
0
7
0
0
39
0
18
0
0
0
112
0
0
0
17
0
0
26
5
0
26
7
0
0
20
34
0
0
18
3
0
13
0
25
0
0
25
0
0
0
0
16
0
0
20
12
0
21
19
16
15
0
4
0
6
0
0
0
0
0
0
0
0
6
16
38
0
0
31
0
0
0
0
10
0
0
0
0
0
26
22
0
0
19
0
0
51
0
0
13
4
0
0
3
0
25
35
0
0
0
43
0
0
0
0
0
0
80
0
4
0
0
63
0
0
17
46
65
0
0
39
0
0
0
0
27
29
0
0
0
10
78
6
0
0
32
0
19
0
0
50
33
34
0
0
53
70
14
0
0
32
48
0
0
10
20
44
56
18
0
0
60
92
65
44
0
0
37
0
0
0
68
103
0
0
59
15
0
0
6
20
0
14
6
0
0
4
11
25
0
0
61
28
0
0
0
34
0
1
0
18
2
0
0
0
0
0
0
35
41
23
0
54
0
39
0
34
25
9
33
0
13
0
6
0
0
0
3
0
12
0
0
2
8
19
0
27
81
123
0
0
0
0
0
0
0
41
5
19
0
16
0
0
0
0
0
6
4
39
13
19
0
15
6
14
0
22
0
0
0
2
0
3
14
0
18
0
0
26
5
0
0
10
0
12
14
7
0
45
0
0
43
0
0
0
0
4
0
20
5
0
0
0
0
0
0
0
18
0
74
0
0
29
6
2
30
12
0
34
0
7
0
6
5
35
0
0
0
3
22
0
0
7
15
0
0
7
0
35
6
5
0
22
0
0
28
0
0
0
21
0
0
0
2
22
46
0
48
32
0
0
0
22
1
0
8
46
0
1
0
25
4
0
0
14
46
0
0
15
4
36
0
16
0
4
25
21
0
22
1
0
0
0
0
19
25
0
25
0
1
0
0
0
20
0
0
2
0
0
0
13
0
25
0
0
0
17
0
0
0
16
5
2
2
39
0
28
0
42
0
0
0
23
11
0
0
11
25
28
20
2
163
107
21
34
0
0
0
0
42
1
0
0
0
0
0
16
0
0
10
0
30
20
0
13
0
0
0
14
0
17
0
7
15
0
0
20
9
0
0
0
2
0
0
0
12
1
0
2
0
0
0
10
0
0
5
0
64
0
0
60
0
0
16
8
176
0
0
0
0
23
63
26
73
0
0
16
2
0
39
0
0
0
26
5
53
0
15
0
5
0
0
33
0
9
0
5
47
20
0
3
25
0
0
15
0
0
0
0
0
7
11
16
0
40
0
0
4
0
20
13
30
0
0
0
0
0
0
9
22
0
22
13
0
9
0
6
0
0
12
66
0
0
33
0
12
0
0
17
89
0
0
36
40
0
0
63
0
0
2
2
0
12
38
0
35
59
38
0
7
24
30
0
0
11
10
0
0
23
34
0
0
12
74
0
0
98
87
0
0
0
53
65
0
0
19
22
47
14
0
0
53
77
47
0
12
35
22
13
15
0
39
41
0
0
0
1
0
26
0
0
23
42
36
0
63
31
38
0
0
0
16
26
25
93
0
0
0
18
0
0
0
3
45
85
19
0
22
14
0
0
0
0
0
0
4
0
0
0
16
38
23
0
0
22
39
20
0
0
27
31
0
0
2
30
28
0
13
56
0
35
24
26
0
19
0
60
17
11
0
0
26
0
0
0
0
0
2
0
0
0
12
0
0
0
0
0
0
0
42
92
20
24
0
0
0
0
0
0
0
36
0
0
36
45
0
55
13
0
0
0
0
0
14
0
0
0
1
15
0
0
7
3
0
10
22
0
0
0
8
0
35
0
0
24
0
28
8
0
0
10
0
0
0
20
0
29
26
0
5
7
0
0
0
33
169
45
0
0
0
30
51
3
46
0
4
33
0
0
0
17
0
8
29
3
0
0
0
0
25
0
0
0
0
0
0
7
0
0
0
0
1
35
0
12
0
9
0
24
0
0
34
0
45
2
6
31
37
52
26
0
0
54
18
0
0
0
0
12
47
0
0
15
0
0
48
0
1
0
53
63
0
0
0
38
0
4
0
0
0
0
0
0
33
0
0
3
21
34
0
0
0
0
31
56
17
3
12
0
0
6
0
37
88
0
11
0
0
0
0
0
0
39
0
0
28
9
22
0
0
7
10
0
0
23
0
0
15
11
12
0
0
6
165
99
5
0
0
0
19
9
0
0
0
0
22
3
0
27
0
12
22
0
0
0
0
39
11
0
0
0
31
0
0
0
0
0
2
0
7
13
0
45
0
2
22
6
0
4
0
15
0
13
0
43
10
0
25
0
39
0
8
23
23
33
0
0
0
0
0
15
0
10
2
0
0
57
14
0
0
13
7
5
37
0
1
0
40
0
54
0
5
1
0
12
0
40
39
0
0
0
0
0
21
0
18
9
0
20
10
0
12
15
0
34
0
5
0
10
0
41
16
0
0
26
1
0
38
0
0
0
0
0
0
26
0
19
0
0
1
0
43
0
0
0
54
5
0
39
0
0
73
0
0
0
3
0
25
0
0
0
61
0
0
42
0
0
30
0
0
0
0
0
0
72
53
0
43
70
34
0
0
66
0
5
0
0
6
37
0
0
16
13
61
0
0
51
35
13
0
0
9
72
5
16
0
8
91
0
0
10
8
6
18
0
0
8
134
21
29
0
0
41
40
0
0
0
74
12
0
0
57
58
0
72
16
0
13
69
0
0
0
0
125
35
0
36
32
0
0
1
0
15
10
4
7
7
0
6
5
16
0
28
29
0
0
0
14
14
3
0
0
1
0
0
0
15
46
5
0
81
0
10
53
10
0
1
0
0
0
0
0
0
0
34
1
0
5
0
25
0
16
7
4
25
14
0
0
0
5
13
22
45
76
109
86
5
0
0
0
0
0
16
0
0
0
0
0
0
34
25
0
21
29
0
25
0
50
0
3
0
12
5
18
0
3
17
0
0
11
0
7
0
7
0
19
1
0
0
16
0
5
0
15
19
17
0
0
56
19
0
0
14
0
0
0
0
0
0
46
86
35
0
69
26
0
0
0
0
16
59
0
0
18
0
1
0
12
23
16
0
8
0
21
0
16
0
3
12
0
0
40
0
7
0
22
0
14
24
0
19
0
0
28
0
4
2
14
51
25
29
28
0
0
0
16
0
0
26
0
0
0
0
0
0
31
0
14
24
1
29
26
0
0
2
0
11
0
0
0
0
46
26
0
0
15
42
44
8
0
25
0
0
0
0
0
2
0
0
16
44
30
31
20
21
19
34
33
0
0
0
0
33
0
50
0
3
11
10
9
0
18
0
13
23
0
0
0
0
22
0
0
6
17
0
165
97
39
0
0
0
7
12
0
2
7
3
46
0
25
0
6
0
22
3
5
0
31
0
0
62
11
0
7
21
8
0
15
0
10
0
18
4
0
2
0
0
27
0
5
6
18
14
0
0
0
13
0
0
14
0
3
0
0
0
0
24
0
2
0
0
0
2
1
0
10
0
0
10
0
42
11
5
0
0
0
13
49
0
68
0
29
0
28
0
0
15
11
0
10
0
1
37
19
35
0
65
0
9
0
9
0
60
1
0
0
10
0
37
22
0
49
0
59
0
23
0
1
2
0
48
0
47
7
35
0
0
22
0
0
0
0
42
57
0
0
0
5
0
13
21
53
19
0
0
0
2
18
0
0
6
0
0
0
0
14
0
0
49
6
0
0
91
0
37
0
25
0
0
61
32
0
0
81
26
0
0
0
78
42
0
0
69
63
24
0
0
36
0
54
0
0
9
65
5
0
0
0
79
0
0
0
7
47
42
1
0
25
45
6
21
0
32
25
36
0
0
53
39
68
0
0
0
37
21
60
0
0
1
0
0
0
0
51
17
60
50
0
12
23
35
0
1
0
0
0
0
0
5
8
21
6
0
0
0
23
16
6
0
0
0
0
21
0
0
6
50
0
10
37
15
0
41
0
0
16
0
0
0
0
0
0
15
0
12
0
0
23
0
21
0
3
13
0
0
0
9
0
0
8
13
0
5
0
15
56
81
121
112
71
19
0
0
0
0
0
2
18
0
56
24
0
18
0
0
5
0
0
0
6
2
14
0
0
0
0
9
0
14
32
0
8
8
2
7
68
0
0
5
9
1
0
9
0
0
4
14
16
5
0
4
5
0
0
69
0
2
0
21
0
0
99
57
0
0
0
12
47
0
0
73
0
0
3
19
13
8
0
0
5
0
0
1
0
19
0
8
9
0
13
0
24
3
0
17
0
17
0
0
0
32
0
0
0
0
8
1
0
18
0
31
56
55
0
0
0
0
2
17
0
9
4
0
46
41
22
0
56
97
0
0
0
0
0
0
34
0
18
0
59
13
0
13
16
0
40
0
0
0
31
0
15
7
0
23
0
0
20
39
32
0
0
27
0
0
0
0
0
0
0
0
26
0
0
0
8
11
7
17
0
0
0
0
31
4
16
4
0
0
4
8
7
14
68
0
0
5
163
90
13
0
0
0
23
0
2
18
0
0
24
0
46
0
0
0
30
0
12
0
1
0
0
0
49
0
34
0
0
0
0
54
0
0
0
8
0
0
19
0
0
0
0
13
0
17
0
0
0
0
0
0
17
0
22
4
0
16
0
6
0
8
0
54
0
0
0
0
0
3
0
0
49
0
0
11
0
38
0
0
0
0
0
0
0
0
37
0
0
8
0
0
4
0
0
0
0
0
0
14
0
43
0
30
0
0
6
0
0
30
0
0
10
0
10
0
0
0
0
55
0
0
0
29
0
0
0
0
38
17
2
0
27
0
18
91
0
21
0
0
37
0
0
0
0
28
11
35
10
16
0
26
0
40
0
38
19
0
6
14
45
0
18
2
0
29
0
48
4
22
14
45
0
0
3
20
5
0
0
77
67
32
0
0
16
70
0
0
4
7
74
0
53
45
0
40
91
0
0
27
42
50
0
0
38
1
0
0
0
22
46
19
0
0
0
21
0
0
0
101
5
2
0
0
33
0
49
31
0
0
77
0
0
0
16
105
51
16
0
50
15
0
0
30
22
0
16
0
0
31
30
18
10
16
13
0
0
0
0
21
52
23
26
0
0
20
45
0
0
75
0
24
47
37
0
0
0
0
9
0
0
1
43
49
0
0
25
0
1
10
11
14
8
0
0
14
9
0
13
0
9
0
0
7
0
0
10
0
0
22
26
48
117
128
0
0
0
0
8
0
0
0
34
0
16
0
0
0
46
0
14
1
10
8
0
28
24
0
20
0
0
14
0
0
26
0
0
8
0
8
20
1
0
1
0
0
1
28
0
0
9
10
5
17
10
0
0
55
0
5
4
23
12
15
0
0
0
0
0
0
56
0
0
0
12
5
0
0
0
18
4
18
26
15
10
1
0
33
0
0
25
2
0
0
5
0
0
12
0
7
9
19
0
0
0
3
18
0
20
0
16
49
36
63
18
0
0
0
42
38
0
28
0
0
0
0
0
20
0
47
0
6
14
51
0
8
6
9
4
11
24
0
0
0
0
0
0
7
0
0
0
11
32
28
3
0
0
10
0
16
0
0
0
34
0
18
0
10
0
0
38
0
37
0
0
0
10
0
26
20
42
23
11
18
0
0
0
16
1
11
0
0
28
36
16
14
0
0
22
13
166
87
2
0
47
0
55
34
28
0
0
9
25
0
0
0
0
0
50
26
0
0
29
0
8
0
0
0
13
0
0
14
0
0
0
57
16
0
0
0
13
12
11
41
0
10
0
14
0
48
30
18
0
34
5
0
0
0
18
0
28
0
10
10
0
0
0
0
4
7
24
0
0
7
0
14
34
0
0
27
25
0
28
58
0
5
51
0
27
0
20
21
28
0
2
25
0
0
16
0
18
0
0
7
0
0
30
0
43
0
1
9
0
0
0
0
0
23
0
2
0
0
12
56
19
31
0
0
0
79
0
0
23
0
0
0
34
106
0
0
0
0
46
0
3
4
0
13
0
12
0
0
0
0
0
0
0
15
10
0
79
0
0
0
69
0
0
69
12
0
5
23
22
0
0
83
28
0
0
0
28
21
0
0
0
40
30
19
0
62
85
0
6
0
10
0
0
0
0
0
18
51
21
0
0
31
6
11
0
0
0
57
1
0
0
0
61
13
0
0
8
0
0
0
5
62
11
47
88
0
93
29
0
0
0
48
107
40
23
3
0
0
27
0
0
0
0
20
41
8
0
0
17
29
0
20
13
12
27
15
0
5
0
0
7
0
0
36
77
2
0
46
0
0
0
0
0
0
3
18
0
13
0
0
0
25
2
0
35
0
0
16
0
0
29
7
4
0
8
2
4
0
0
3
0
2
0
0
5
6
0
0
39
9
65
116
104
0
0
72
0
0
0
0
10
21
22
0
26
6
17
0
7
0
0
21
0
4
0
0
3
42
0
0
34
0
0
11
0
34
0
0
6
0
0
18
12
13
0
125
0
0
0
0
18
0
0
8
0
58
0
0
0
0
0
0
30
25
0
33
0
12
0
0
4
0
25
0
3
0
3
0
0
13
25
0
8
0
0
14
4
0
10
0
4
0
8
23
9
8
52
0
20
0
0
0
8
10
0
4
0
19
16
27
5
44
17
0
0
0
20
0
0
8
0
4
44
0
0
0
0
84
4
0
0
17
0
93
0
0
11
0
0
0
52
60
0
12
0
23
4
26
91
5
12
1
0
0
0
6
81
0
0
61
9
0
36
0
0
3
40
4
32
21
9
0
0
0
0
23
42
0
21
16
0
0
0
17
22
42
0
0
0
0
16
0
0
0
19
9
0
0
167
90
24
0
7
0
13
0
0
15
0
0
0
0
0
4
6
25
0
0
0
0
12
0
0
13
0
40
0
29
0
22
32
0
0
0
1
0
13
0
11
0
0
0
0
12
0
0
0
0
0
9
17
0
8
8
1
0
17
9
0
0
0
11
0
18
0
11
0
14
0
0
27
34
15
0
0
33
0
1
0
0
14
20
8
0
0
12
0
0
8
0
0
0
0
6
34
0
6
2
34
78
0
1
0
0
9
0
0
0
9
0
0
0
3
0
0
28
0
15
0
0
8
0
0
0
0
0
0
42
0
0
0
19
0
46
37
10
0
0
0
0
0
18
0
7
0
18
41
51
0
0
67
32
14
1
0
0
0
0
0
0
7
57
0
0
0
9
0
0
29
30
0
0
44
0
0
0
89
0
40
0
0
116
10
0
0
0
0
59
0
0
0
0
24
26
51
0
0
55
0
3
0
37
77
0
15
0
34
0
1
61
0
0
80
0
12
0
0
45
45
0
14
60
42
53
0
7
44
0
0
0
0
0
36
46
46
21
17
9
0
0
0
52
8
0
0
40
57
7
0
0
0
14
3
0
0
1
0
3
16
0
0
10
37
27
5
0
86
12
0
0
0
0
0
0
28
35
13
10
0
12
7
0
0
0
15
0
4
11
0
2
1
0
10
11
0
0
0
7
4
0
5
4
8
11
5
9
0
17
10
4
19
9
18
34
106
104
0
0
0
0
21
16
4
0
11
20
0
0
0
0
18
14
1
0
0
20
0
14
12
0
0
0
3
7
14
0
0
32
0
5
0
9
0
36
0
27
0
1
18
0
0
26
20
0
23
42
0
6
0
0
115
32
54
1
7
0
0
0
33
0
0
28
0
2
0
13
34
4
14
2
0
0
9
0
9
11
0
0
17
0
0
13
0
0
0
16
16
0
0
0
13
0
4
13
0
0
0
8
0
21
19
53
40
15
0
0
0
0
0
0
6
26
0
0
6
0
0
0
0
0
0
35
27
12
0
0
0
10
0
8
22
0
18
0
0
0
0
0
0
0
0
0
0
0
0
1
19
0
0
0
0
36
0
0
0
71
45
0
39
0
0
0
0
0
0
0
16
15
6
33
12
0
8
0
8
6
24
9
0
0
5
26
39
10
4
0
0
0
3
4
163
89
0
32
0
0
25
0
1
31
0
0
58
0
16
7
0
26
34
21
0
0
5
0
0
0
0
17
0
3
0
8
12
0
5
31
3
10
26
0
7
5
5
2
24
4
44
2
25
25
0
0
0
0
0
0
9
19
0
0
0
50
0
39
0
16
3
0
0
0
10
0
0
3
0
24
8
10
14
4
15
42
8
0
2
2
0
0
3
0
0
12
14
0
0
0
0
2
16
6
0
0
0
23
15
0
0
45
6
0
0
19
9
0
0
26
11
20
0
9
34
0
16
0
18
0
31
0
34
21
0
18
0
0
0
71
0
5
13
0
9
57
36
0
1
31
15
0
0
0
0
0
27
0
0
11
0
49
9
0
0
15
0
0
0
9
14
0
33
2
0
0
18
67
0
0
10
35
27
47
0
41
25
58
0
0
31
23
35
0
0
30
69
55
33
0
0
43
48
32
1
0
0
101
0
0
0
0
1
0
0
0
0
38
11
0
0
22
0
53
0
0
32
46
6
0
0
47
61
0
0
0
72
50
57
66
11
0
12
0
10
22
0
0
55
0
0
0
0
26
26
0
0
0
23
22
1
19
0
0
0
1
0
0
35
24
0
0
13
0
0
1
30
26
8
0
0
33
16
19
13
0
10
0
0
0
17
1
0
21
8
2
5
12
0
20
4
7
5
0
24
0
41
0
0
10
5
3
0
20
0
0
5
7
0
15
80
88
93
16
0
0
0
11
0
5
0
19
0
28
0
2
0
0
0
43
26
32
4
0
0
10
14
7
8
0
9
0
0
0
4
0
0
42
0
12
0
66
0
19
0
0
0
5
0
0
0
0
6
12
0
0
0
0
19
0
1
0
1
0
0
0
0
0
42
0
59
0
9
22
0
0
4
8
34
11
24
0
29
7
5
0
20
0
0
13
0
0
1
25
22
0
0
12
39
6
2
0
0
13
13
2
28
68
71
0
0
51
0
0
20
0
15
14
0
4
0
79
0
46
0
0
90
0
0
24
0
0
0
6
5
27
11
0
0
42
0
27
0
34
52
17
60
128
46
42
0
0
0
37
72
0
10
12
0
1
0
5
0
0
9
0
0
0
0
0
50
12
16
74
0
20
0
0
0
5
11
9
0
0
1
0
1
0
0
0
16
0
33
0
3
2
162
90
12
0
8
0
36
3
21
0
14
5
0
2
0
44
0
0
0
16
0
0
20
9
0
10
7
0
0
23
8
0
11
5
0
0
0
0
17
20
0
36
0
0
0
0
23
0
0
24
0
12
8
0
10
13
0
0
0
0
0
24
0
16
0
48
0
0
0
0
0
19
0
9
0
8
3
0
16
0
0
13
24
0
30
33
1
47
12
7
19
0
10
35
0
22
0
0
16
0
29
0
0
13
0
9
19
0
0
8
33
0
1
10
15
15
0
3
0
0
0
9
17
0
23
14
0
0
0
0
7
6
0
0
90
40
0
13
0
0
55
31
0
4
0
0
7
0
27
7
13
0
0
0
65
0
0
0
9
21
37
0
0
1
0
0
24
20
0
0
31
62
0
0
0
38
33
2
0
0
10
34
0
0
0
84
40
0
19
0
43
37
5
0
0
0
5
53
64
0
0
0
61
2
0
0
21
27
39
0
0
22
50
28
0
0
21
39
34
0
29
44
26
65
0
0
79
0
0
0
0
0
102
71
0
0
0
0
10
0
11
30
2
0
87
42
15
0
0
0
9
8
1
0
0
0
0
8
0
6
0
44
16
29
0
19
0
0
0
2
3
0
28
44
30
8
0
0
3
31
22
0
8
22
0
0
0
0
23
0
3
25
0
19
0
7
2
11
0
0
13
0
3
0
0
10
0
1
0
2
0
0
0
0
0
0
41
55
87
156
0
0
0
39
0
15
0
5
0
18
0
0
15
0
16
0
16
0
0
0
0
0
0
0
60
0
0
7
0
0
36
4
0
11
0
5
0
28
0
17
0
1
12
26
8
13
10
4
19
0
0
0
0
62
44
0
23
0
0
32
35
0
3
3
29
46
0
0
0
59
18
9
18
6
2
0
15
21
0
0
11
0
0
14
0
0
18
0
0
0
0
35
4
0
0
0
0
2
2
21
34
7
51
19
0
0
0
0
8
0
45
0
0
0
0
67
0
25
0
2
6
39
0
1
0
0
28
0
15
0
9
0
0
0
0
0
0
53
0
0
14
0
0
0
0
0
8
0
7
38
13
0
0
0
0
40
0
22
19
0
33
0
0
40
0
0
43
0
0
11
11
0
5
4
4
19
30
21
0
0
0
19
45
27
7
14
0
0
0
10
13
0
161
85
0
41
3
48
26
0
0
5
0
0
12
36
0
38
15
0
0
41
31
6
0
0
36
0
0
0
0
0
17
9
42
0
0
34
17
0
1
0
0
0
0
7
28
0
17
7
0
12
10
14
0
1
2
21
0
14
9
3
28
12
5
34
0
62
0
0
0
18
12
20
0
35
7
0
17
6
26
0
6
0
0
0
0
0
0
45
0
5
0
0
0
27
0
27
9
0
0
19
18
0
0
55
0
0
0
0
0
0
26
0
0
0
2
0
15
9
0
22
0
0
0
9
17
5
0
26
18
14
0
0
0
19
87
0
0
21
45
7
0
0
0
0
0
15
0
0
28
67
0
20
39
0
4
0
0
3
55
0
17
54
28
58
0
28
0
9
0
52
15
0
0
35
0
30
0
0
18
77
0
0
0
25
62
27
0
0
38
43
41
0
7
0
0
15
0
19
0
0
51
33
22
0
0
25
22
22
0
0
44
13
32
0
36
86
9
0
14
0
6
55
0
0
0
70
0
0
0
12
46
60
0
60
14
0
2
18
0
22
0
26
19
0
0
16
13
0
0
0
0
24
20
10
0
0
0
10
33
0
27
0
0
0
0
0
20
25
14
20
39
0
0
26
5
29
2
0
0
1
66
0
0
0
33
0
0
0
2
30
0
31
4
0
0
0
0
0
0
0
14
0
0
0
0
43
0
6
0
0
0
0
16
0
0
0
29
13
39
112
117
0
0
0
0
0
16
0
0
12
17
0
7
10
0
16
0
7
0
0
9
24
5
0
11
0
8
0
18
0
0
0
10
0
0
2
0
13
0
3
0
16
0
10
0
0
0
0
0
0
16
0
0
0
0
0
13
0
0
0
25
0
0
0
0
8
26
0
0
51
0
7
0
0
0
0
4
6
0
0
32
0
0
0
0
24
0
9
3
0
0
4
18
0
16
5
0
0
15
0
59
47
54
8
0
0
13
8
0
0
16
9
31
0
0
0
0
44
0
0
0
30
0
46
10
4
0
0
0
0
146
0
11
0
17
0
32
0
0
0
46
0
15
0
0
0
0
3
0
0
4
0
68
67
0
8
0
5
1
0
0
0
0
0
0
38
16
18
7
30
4
21
0
0
7
0
0
0
0
0
0
0
0
0
0
9
0
0
0
0
34
0
163
85
0
2
0
0
33
0
10
13
0
21
4
0
0
0
0
16
0
0
1
0
0
21
0
0
0
51
41
12
0
0
12
3
0
4
13
0
27
0
20
17
13
15
0
8
0
8
0
0
0
6
0
0
1
0
9
0
4
0
0
0
0
0
0
23
33
0
0
27
0
0
0
0
42
18
3
19
0
18
0
30
8
46
0
21
0
40
0
43
21
26
0
11
0
6
0
18
0
0
0
65
0
0
3
0
0
69
0
0
13
0
0
36
0
0
10
21
0
20
0
26
26
0
21
4
3
0
0
2
0
0
0
255
35
0
0
0
0
0
64
24
0
0
32
36
0
0
0
0
0
0
18
0
47
0
0
37
0
0
17
0
0
6
49
28
0
0
39
0
15
0
48
0
0
0
0
94
21
0
0
21
91
67
24
0
0
9
54
0
1
0
2
64
52
19
0
0
6
53
0
7
0
0
72
38
14
0
0
23
23
0
0
2
49
39
0
0
38
11
60
0
0
22
27
0
0
0
94
40
35
7
0
0
43
0
0
23
17
0
2
12
43
8
0
0
35
36
9
0
0
0
0
33
2
17
2
0
59
18
0
0
0
0
21
0
30
35
2
0
10
21
0
0
36
25
13
13
0
0
18
40
0
0
32
30
5
5
0
19
0
2
2
0
0
0
36
0
18
0
41
0
21
19
0
7
0
37
0
0
15
2
19
0
0
0
0
0
7
97
173
122
0
0
0
0
0
0
8
0
1
31
0
21
0
0
0
14
0
0
6
0
26
0
0
0
31
0
0
0
0
6
15
0
1
9
0
0
24
31
0
9
0
11
20
20
32
32
6
81
0
21
0
3
27
0
5
2
18
0
20
0
5
1
0
0
0
13
7
35
45
0
0
0
51
8
2
2
10
4
0
0
13
19
0
44
0
7
0
0
8
12
25
0
0
0
0
0
19
46
19
39
66
36
0
0
0
0
26
0
0
47
0
6
59
0
11
30
0
59
0
0
0
0
0
12
0
0
38
0
0
0
24
20
0
0
0
0
48
16
54
0
5
0
5
0
0
5
15
0
6
0
0
115
0
0
0
1
2
0
18
0
0
46
40
7
23
10
25
15
0
14
0
43
24
1
0
0
16
4
0
4
0
48
14
38
0
16
14
0
0
0
164
84
0
0
0
0
8
0
6
0
1
16
34
0
37
11
12
8
22
0
35
0
21
0
26
37
1
0
0
23
27
0
1
0
0
15
0
13
30
7
1
0
0
0
2
41
0
68
3
0
0
19
24
0
20
11
0
14
3
21
40
0
13
25
0
0
17
6
0
28
0
20
10
11
0
0
0
39
0
21
0
0
0
0
38
45
0
0
0
0
0
21
0
0
0
0
4
17
0
0
3
0
0
5
18
0
22
0
0
1
0
19
5
0
37
0
0
0
0
20
20
15
0
0
15
60
0
40
38
0
0
0
150
247
0
0
0
0
0
27
0
0
27
0
0
10
0
0
0
8
0
0
1
0
34
0
0
2
0
0
14
0
16
0
0
0
38
29
2
0
20
22
18
0
0
90
0
0
0
0
0
2
13
0
0
0
28
0
0
5
0
4
93
0
0
0
0
6
48
6
0
0
45
12
17
0
0
51
11
3
0
0
81
0
14
0
0
49
14
0
0
0
17
0
0
0
96
74
79
53
0
0
0
0
42
16
0
0
58
3
0
0
0
17
8
0
0
41
49
0
0
0
0
7
40
56
40
0
19
0
0
0
0
0
32
0
0
0
16
0
0
16
5
0
0
13
35
12
14
0
0
1
29
0
0
17
0
0
0
8
0
0
43
0
20
0
57
22
21
0
12
2
0
0
0
0
0
38
30
6
17
12
1
31
0
33
34
0
18
26
69
140
34
0
0
33
0
0
0
11
0
0
0
27
0
17
39
6
0
23
9
0
0
23
14
4
11
0
5
6
5
30
0
1
0
6
14
0
11
0
22
0
17
0
0
17
0
1
0
25
0
0
0
0
4
0
25
55
0
19
0
1
0
0
0
38
19
24
20
0
29
0
12
8
16
0
19
0
6
26
6
19
0
0
19
8
0
0
10
0
0
0
0
0
32
0
35
0
0
52
0
29
0
0
0
20
0
0
0
0
1
0
0
0
82
0
0
12
9
0
24
0
9
0
0
54
74
0
73
0
17
2
0
0
0
0
0
0
59
3
15
0
74
0
6
7
26
0
75
0
10
0
0
0
19
0
0
21
18
2
0
0
2
13
0
8
39
0
1
33
0
0
0
0
0
0
0
6
1
0
40
9
0
1
9
0
1
8
14
0
23
0
163
88
0
42
0
0
49
0
53
0
20
0
10
0
4
32
27
0
18
0
10
0
21
0
0
0
0
23
0
21
0
0
6
0
0
66
0
0
0
0
4
0
11
0
0
0
0
23
0
0
0
0
9
0
0
14
2
0
6
0
7
0
0
0
0
0
0
0
0
2
0
0
7
30
0
48
6
0
0
19
0
0
8
0
0
11
0
0
52
0
25
0
8
18
18
18
0
0
0
14
37
0
1
0
0
0
0
15
0
12
1
0
0
32
0
4
0
27
0
0
38
0
0
6
0
0
0
7
0
0
0
0
173
107
0
0
0
0
22
22
10
12
16
11
0
61
0
0
20
18
0
16
28
0
33
0
11
34
8
0
3
45
22
0
0
4
0
0
0
37
19
5
0
61
34
32
0
0
15
70
94
22
0
0
0
47
25
0
0
25
37
67
0
0
0
0
98
40
0
0
22
81
0
0
0
29
23
74
10
0
0
34
0
0
0
11
63
46
0
0
28
0
0
0
0
15
110
70
1
17
0
24
0
6
0
43
41
0
45
38
4
0
0
29
31
22
0
0
47
46
21
0
14
37
17
43
0
0
0
0
21
21
7
4
26
32
35
0
13
13
0
6
25
0
0
0
5
0
17
24
0
0
48
0
0
28
1
0
14
14
9
0
30
0
4
0
0
0
0
0
2
0
1
24
4
0
0
22
1
0
0
0
0
15
0
22
0
0
0
0
0
132
179
0
0
0
0
0
0
10
4
14
0
0
0
0
16
0
0
1
0
32
4
0
6
0
0
1
0
18
0
1
8
11
3
0
0
0
35
0
17
14
2
11
0
22
5
17
0
7
0
5
0
6
4
35
0
0
31
0
63
17
0
36
0
0
18
0
2
0
36
29
0
0
3
0
32
0
10
0
35
16
0
0
0
15
0
6
21
14
0
0
34
0
0
0
0
23
19
60
51
57
0
5
0
0
35
9
8
18
26
0
36
0
0
15
0
13
10
0
44
13
0
0
22
0
0
0
0
5
0
46
0
50
0
24
0
0
0
0
0
0
0
0
10
0
28
0
0
16
3
0
0
0
41
0
0
0
15
0
0
0
0
28
7
0
40
54
15
0
34
0
11
0
0
0
0
24
2
27
9
0
2
0
1
0
0
1
9
0
17
0
165
94
34
9
0
27
7
0
0
28
0
10
19
0
0
0
0
0
36
1
7
0
2
16
0
43
0
22
1
27
0
18
0
16
0
15
0
19
0
0
0
16
11
0
0
3
0
5
0
3
29
0
0
17
22
4
0
0
1
0
35
11
0
46
5
30
30
0
41
2
10
21
0
21
0
12
0
28
0
0
3
4
0
45
0
27
0
0
19
0
10
0
3
5
0
22
0
9
0
3
0
19
0
39
0
22
0
0
4
0
15
0
0
36
0
8
18
37
0
0
13
0
0
6
8
48
1
13
0
2
0
0
200
0
36
0
0
0
0
0
0
0
2
53
0
0
14
20
33
10
0
15
0
5
0
6
25
0
0
59
31
0
0
35
25
0
0
0
80
0
0
0
14
40
8
0
0
34
27
10
0
0
29
0
16
36
0
29
73
35
18
11
0
0
62
97
37
0
0
32
56
14
0
0
0
53
42
0
0
17
53
85
0
0
41
39
42
25
1
0
15
0
0
61
96
2
0
67
0
0
0
0
37
30
0
0
56
4
0
16
49
0
0
10
0
32
0
0
0
9
68
15
4
11
0
0
0
2
0
18
13
3
14
0
0
0
5
0
9
13
12
1
0
14
0
0
13
37
23
41
0
0
74
0
0
30
30
0
0
0
12
13
12
0
3
0
0
14
0
0
9
2
12
24
0
0
0
0
0
0
12
13
8
0
0
45
7
0
24
5
18
111
148
0
0
59
110
10
0
0
0
7
45
40
3
0
3
0
0
40
0
5
0
2
8
0
8
2
2
0
0
0
9
0
0
28
17
0
0
0
5
21
0
8
35
0
0
21
0
26
0
12
18
0
0
5
0
0
9
0
0
0
0
0
0
0
0
2
29
13
11
35
29
34
1
0
18
0
0
0
7
11
22
0
0
10
0
0
0
0
6
1
24
6
0
4
0
36
88
18
56
0
0
0
31
0
0
0
0
0
0
0
0
97
26
0
0
0
54
0
36
22
6
39
9
46
0
16
0
96
0
0
0
2
6
0
64
13
16
56
0
2
1
18
38
3
16
0
57
35
30
17
0
64
0
0
0
0
0
57
0
14
0
31
37
2
29
0
0
0
0
12
14
0
0
2
6
0
3
5
0
9
1
0
2
18
0
13
0
0
26
0
165
89
0
0
0
0
0
28
62
0
0
33
36
0
6
19
0
0
8
0
4
0
4
0
0
7
0
9
13
0
0
14
0
0
0
27
0
5
0
26
0
25
4
0
20
0
0
4
0
25
0
0
33
7
0
10
0
10
6
0
0
0
0
0
0
9
23
0
0
0
13
37
0
0
0
15
0
0
13
0
0
36
19
0
29
27
0
14
0
0
12
0
0
47
0
9
0
18
0
40
0
26
0
9
0
28
5
0
2
0
0
0
3
24
0
30
0
22
2
0
1
19
0
22
0
0
0
1
33
0
0
151
151
0
12
0
0
0
31
17
23
0
62
29
0
12
57
0
33
0
0
59
11
0
30
0
23
0
19
0
0
0
0
0
5
0
63
28
20
0
8
33
8
0
0
0
66
31
0
0
0
20
11
0
7
0
0
66
11
0
0
0
7
45
94
0
0
0
7
51
0
0
0
35
47
0
0
0
47
70
0
0
0
0
95
0
6
0
58
0
0
0
62
49
64
0
0
27
58
0
0
9
0
50
0
0
81
22
0
0
24
12
0
4
0
0
47
36
0
0
70
51
0
0
0
44
5
20
1
15
32
0
4
26
0
0
24
44
0
0
0
10
3
29
54
0
0
48
8
0
0
0
26
38
14
0
11
16
3
1
0
12
0
0
9
24
12
23
6
9
0
0
0
0
0
2
0
16
0
0
2
0
22
0
0
0
11
3
8
15
0
26
100
2
0
0
8
0
30
28
0
0
0
0
10
10
3
0
0
11
0
0
21
28
0
5
32
0
0
2
57
0
0
15
0
26
0
1
3
17
10
0
0
2
0
6
0
13
0
48
0
0
0
0
6
0
5
0
12
36
0
41
0
13
17
10
0
0
28
0
0
0
0
17
3
0
19
9
3
6
0
0
0
0
0
0
0
0
32
32
0
0
0
9
0
0
16
11
6
34
47
0
0
0
0
0
30
0
10
50
0
32
0
25
0
0
9
15
0
0
0
0
0
0
0
0
0
11
40
0
0
9
0
0
17
0
0
0
16
0
0
47
0
0
22
0
10
0
18
0
0
46
3
21
0
0
13
43
0
0
12
45
26
53
14
16
28
14
9
0
36
0
0
0
25
0
18
10
0
22
0
13
13
0
34
0
0
15
7
0
23
0
162
92
8
0
40
5
0
0
0
32
0
0
0
0
0
33
25
0
8
0
0
0
19
2
0
17
0
14
4
35
0
32
40
19
1
33
16
23
0
0
0
0
0
4
5
0
42
0
0
0
0
0
14
0
5
0
0
0
38
60
0
40
22
4
23
0
24
0
31
8
0
0
35
12
0
0
6
3
38
7
0
0
0
0
0
30
0
0
22
9
11
5
0
4
0
4
7
0
0
3
0
26
0
9
0
16
14
0
32
15
23
0
2
17
0
0
0
31
0
15
21
0
36
28
23
26
0
0
7
0
0
156
110
46
0
0
0
44
23
0
66
83
0
0
0
0
0
0
0
0
19
44
0
0
92
0
29
1
16
0
0
33
0
0
19
10
0
18
0
0
56
0
0
55
25
53
54
0
0
30
0
24
16
0
25
50
77
33
0
0
11
57
21
63
0
0
0
112
51
26
0
2
26
70
26
0
0
14
54
3
0
42
70
33
0
0
10
0
0
0
26
126
0
13
0
36
0
0
25
42
30
1
0
20
35
0
9
9
25
0
0
50
15
8
0
0
39
76
65
0
0
0
1
20
0
35
16
19
0
16
0
21
23
16
14
0
0
7
12
0
0
13
0
0
17
31
0
5
38
22
22
0
0
4
20
2
0
0
11
0
0
18
12
6
2
9
11
0
0
0
0
0
0
14
22
0
8
24
38
5
7
0
30
16
5
0
14
12
3
12
26
17
84
104
32
0
0
0
0
21
0
17
0
0
0
23
0
18
7
7
2
1
0
0
0
0
8
0
0
20
3
0
10
41
0
20
0
14
2
0
0
0
32
0
6
27
0
12
0
11
0
0
12
0
0
0
20
37
14
0
0
0
0
0
0
0
0
24
0
0
0
31
1
14
18
0
0
0
0
0
0
0
0
0
0
0
0
0
0
0
0
0
0
18
0
22
21
58
37
50
0
0
0
3
0
0
0
18
0
0
1
31
0
0
2
0
0
47
22
19
0
18
6
27
0
18
32
0
0
17
1
0
22
31
13
40
11
13
31
0
0
26
0
0
24
10
10
24
28
0
0
0
0
0
0
0
0
0
0
0
28
5
7
14
11
0
5
0
0
30
13
0
6
0
41
24
19
12
0
0
0
31
1
0
9
0
0
0
0
2
3
3
161
94
16
2
0
0
0
5
0
42
0
0
6
7
0
0
7
12
23
0
20
0
34
47
0
0
7
0
0
0
0
8
0
0
0
0
3
0
0
0
5
0
0
5
7
0
0
13
0
25
0
0
39
13
21
0
27
0
0
8
0
13
0
0
5
17
0
0
0
0
15
0
0
28
38
0
0
0
26
0
0
17
11
29
10
0
0
4
0
28
0
0
0
12
24
0
49
0
17
10
7
0
28
0
22
3
20
5
48
0
0
0
0
16
0
0
0
0
0
6
0
19
0
0
0
0
0
0
0
0
32
158
59
69
0
0
50
0
0
0
0
0
0
34
18
4
26
0
16
26
0
0
35
0
0
0
25
0
0
23
0
14
79
43
8
23
0
0
87
24
0
0
0
4
12
0
0
0
42
8
0
2
0
40
0
59
0
0
0
55
30
0
0
0
0
0
88
2
0
0
0
23
28
0
0
9
56
22
0
0
44
63
0
0
0
0
0
0
0
48
66
75
0
0
0
38
60
0
0
57
20
0
0
16
73
0
0
0
0
61
0
0
22
46
21
7
0
0
0
0
0
15
28
27
0
0
8
40
0
0
0
0
4
10
17
0
0
0
30
33
0
14
0
0
0
32
0
0
0
25
27
0
0
0
0
11
0
0
0
28
10
0
38
0
0
0
0
0
0
28
28
12
0
0
30
0
0
0
6
8
0
0
0
0
4
0
0
22
6
0
0
22
17
67
128
88
0
0
0
32
0
6
7
0
13
46
22
0
4
2
0
5
11
46
0
25
22
0
0
6
7
0
0
7
0
0
0
0
0
6
0
2
4
9
24
7
0
30
0
0
35
25
0
26
8
0
30
0
0
53
7
20
3
1
0
9
0
0
0
28
0
15
24
0
0
0
0
0
60
36
29
51
51
81
106
84
0
0
0
0
0
0
36
13
0
29
46
62
57
0
0
0
0
37
47
1
0
60
26
0
0
0
0
0
33
51
14
17
52
0
0
0
0
56
0
0
13
4
0
25
0
50
8
0
0
31
0
0
53
11
0
0
14
24
12
0
37
11
24
0
3
0
0
20
0
0
0
0
57
0
17
52
11
38
0
9
27
0
40
0
0
0
20
0
2
5
0
9
11
35
0
1
6
12
1
2
36
33
10
0
4
0
161
88
0
57
5
0
29
14
0
7
6
36
48
11
0
32
6
2
26
0
45
0
0
17
0
0
2
0
10
3
0
13
0
0
7
4
13
0
7
28
7
26
7
0
8
0
4
16
0
11
0
39
0
4
6
0
55
0
0
2
0
0
0
23
0
9
0
26
0
0
27
38
0
9
6
1
6
0
63
1
0
9
0
10
0
0
5
15
0
0
0
0
37
15
0
0
0
2
0
0
0
13
6
0
13
22
0
0
0
0
18
33
5
0
0
25
21
11
0
50
0
2
0
34
14
30
0
16
0
0
193
107
31
0
0
0
3
0
19
9
0
25
22
0
8
24
0
28
0
0
30
31
21
0
2
37
0
0
68
0
0
34
0
0
0
1
14
11
0
0
0
63
57
0
0
0
0
24
14
0
0
77
57
0
3
0
0
0
18
92
0
0
0
2
50
35
25
0
0
0
77
31
0
0
53
17
42
0
0
23
60
20
0
0
62
0
0
14
80
36
94
0
20
0
0
0
65
30
0
26
63
42
0
0
1
0
0
0
0
29
34
0
0
43
72
0
0
0
0
31
46
25
5
44
0
0
0
39
18
27
0
0
0
0
48
7
2
0
0
10
0
0
4
0
17
32
21
0
0
0
48
0
26
16
0
34
40
21
0
16
33
0
0
0
0
0
6
0
0
0
35
12
12
2
0
10
0
11
0
14
9
0
18
4
0
0
0
0
13
0
0
0
21
47
91
145
32
0
0
0
0
0
20
0
20
0
28
0
21
0
15
5
9
9
0
0
0
8
0
0
0
8
0
34
0
12
41
9
1
58
3
0
7
0
0
18
0
23
38
0
0
6
12
17
0
0
0
0
21
25
0
9
0
68
8
0
10
0
0
0
0
0
0
0
0
0
30
140
38
18
48
88
73
81
87
80
94
0
0
21
2
112
101
0
0
0
38
5
45
0
0
0
0
0
0
18
0
0
84
28
51
31
0
26
4
0
8
9
0
1
0
0
0
4
0
0
0
36
10
0
0
34
0
0
66
33
0
28
0
0
0
47
20
0
48
0
0
13
0
0
38
18
16
0
0
0
0
0
14
36
20
0
11
2
7
0
0
0
8
0
3
0
0
0
5
0
12
0
0
18
0
14
0
0
15
0
0
0
8
0
15
20
160
97
36
0
29
0
22
0
21
21
0
0
0
0
27
1
14
0
0
5
45
0
0
0
0
0
1
0
0
21
37
47
6
34
0
5
5
5
10
0
0
0
6
0
0
39
0
27
0
18
0
11
0
6
35
0
7
0
42
24
0
0
0
6
5
0
0
0
13
0
0
0
5
12
1
0
28
23
0
0
38
0
0
26
0
0
2
0
6
6
0
1
0
48
5
0
10
49
1
16
52
0
0
9
0
2
0
28
0
38
0
0
39
0
21
0
36
8
3
19
5
0
0
0
0
37
0
0
0
106
169
51
1
0
0
0
0
0
64
0
13
0
0
0
0
0
0
49
1
0
0
0
17
0
10
15
0
8
0
0
71
50
0
0
49
55
0
0
0
54
6
0
4
0
32
0
58
39
0
2
13
41
1
0
0
0
2
64
0
30
0
0
93
4
24
0
11
45
0
0
38
0
56
110
57
0
0
0
35
7
36
0
0
0
0
0
11
105
116
32
0
0
4
56
19
0
0
42
0
0
29
8
36
0
14
12
31
7
0
0
54
96
24
0
0
0
0
35
23
10
0
33
9
12
31
10
0
0
0
33
17
0
0
0
0
12
16
23
0
0
9
23
1
26
6
0
0
0
31
0
3
0
0
0
0
0
15
34
0
0
0
0
0
0
36
19
5
2
15
0
12
1
24
8
0
0
2
37
0
4
0
0
0
0
11
15
0
0
16
12
0
0
8
0
34
165
194
0
0
29
0
0
0
0
0
0
27
0
0
0
21
0
31
13
0
0
19
0
0
31
12
0
10
6
0
0
17
0
4
16
0
14
0
0
0
18
22
0
0
0
0
23
0
0
14
28
8
30
3
0
35
0
0
27
0
15
30
0
8
21
0
0
0
0
43
161
101
0
17
37
66
28
3
16
46
35
40
7
0
47
19
50
13
14
0
0
40
0
0
0
6
11
21
0
0
0
0
0
0
0
0
0
0
0
16
0
22
0
13
31
7
24
18
18
38
45
0
2
6
0
59
26
0
0
0
0
30
0
0
28
0
0
0
16
0
35
31
0
0
0
0
6
0
0
0
0
0
9
0
31
25
0
56
4
26
0
0
0
0
3
0
0
28
24
7
40
0
3
0
1
0
20
4
0
0
21
17
4
0
16
0
0
161
90
0
29
57
0
0
4
0
24
0
3
29
0
0
0
0
0
0
0
1
0
15
0
5
0
30
0
9
37
0
0
0
0
0
0
0
0
0
25
0
7
8
9
0
4
0
24
0
33
0
14
45
0
35
0
0
12
0
44
0
18
52
0
24
14
25
33
0
39
0
16
0
0
41
29
23
0
22
13
3
6
0
0
15
10
41
0
38
77
0
15
0
42
0
18
0
0
0
0
25
7
0
113
35
39
0
24
0
0
0
0
16
0
23
0
0
0
24
2
0
0
23
42
0
6
0
0
0
142
95
30
0
103
0
0
0
0
50
30
8
0
12
19
11
25
24
0
32
0
0
3
25
0
19
53
0
0
0
0
0
0
0
54
25
0
0
0
35
31
9
0
0
31
22
0
0
0
0
27
0
0
0
0
0
52
16
0
0
0
26
47
58
0
0
0
48
0
0
0
36
56
0
17
0
0
92
29
38
9
5
0
0
0
0
63
14
0
0
53
0
0
3
0
49
0
0
15
90
0
0
0
30
11
1
0
0
0
23
0
0
33
0
0
0
30
0
0
70
0
0
0
0
0
0
24
0
0
0
0
38
14
14
23
0
0
35
0
21
0
19
17
0
0
0
10
0
3
0
19
0
0
30
45
21
4
0
0
0
0
10
9
2
0
21
2
0
0
9
1
0
0
4
22
11
12
0
0
0
19
26
22
0
0
3
9
10
0
0
31
17
0
11
6
0
84
173
0
0
0
3
0
57
0
26
0
19
5
26
11
0
0
10
8
0
0
3
3
0
21
5
0
22
14
0
0
0
0
0
0
27
7
0
62
0
46
34
0
17
26
19
0
6
26
0
0
0
3
3
0
0
22
26
0
0
8
0
0
0
0
0
0
0
148
126
29
3
30
82
26
23
22
25
29
0
0
0
18
49
80
30
38
39
76
111
72
0
0
0
0
0
1
0
60
0
0
68
145
54
0
46
14
72
25
23
0
3
13
0
0
0
24
0
19
30
59
59
0
0
0
0
36
12
0
55
9
0
11
0
0
6
29
0
0
35
3
33
5
28
6
0
0
0
15
0
10
0
40
28
0
51
10
2
0
1
8
12
11
0
0
6
0
25
0
0
0
0
9
0
14
0
0
20
15
0
0
0
17
0
0
0
5
159
92
7
36
0
0
33
0
0
15
0
0
0
0
0
22
46
0
0
0
0
0
1
0
0
0
0
0
0
33
0
6
0
14
5
33
0
42
0
0
0
27
3
0
0
19
11
0
0
0
0
0
0
10
17
0
0
15
0
26
0
0
26
13
4
0
0
18
0
0
28
20
0
0
0
0
16
3
22
0
5
0
13
16
4
0
16
16
0
0
0
0
0
5
0
11
0
0
0
0
1
22
0
0
0
0
0
0
43
0
12
19
17
0
4
0
60
0
4
0
3
0
0
6
6
20
0
0
0
173
50
48
6
0
0
0
0
16
0
0
30
1
0
0
14
0
10
0
17
44
0
0
22
1
0
0
0
8
17
0
0
3
49
33
0
0
44
68
0
0
0
0
50
28
0
0
26
5
20
20
0
0
0
81
22
42
19
18
59
36
34
4
0
0
36
22
44
12
0
43
61
37
0
0
0
35
40
0
0
0
0
0
0
54
62
104
24
0
0
17
58
6
22
0
32
30
0
0
48
7
0
0
54
69
0
22
0
44
78
9
0
0
0
0
0
42
56
0
0
22
14
3
0
18
1
1
2
34
0
0
7
32
24
0
0
0
26
0
24
0
0
24
17
3
0
13
10
0
0
42
25
0
3
0
0
0
0
0
0
6
49
24
8
5
0
0
26
3
14
7
12
0
7
20
0
26
5
0
0
0
2
6
0
0
0
0
2
6
0
5
4
12
6
10
2
33
179
79
0
0
3
29
0
0
30
40
13
0
15
0
24
11
0
2
1
1
0
27
0
12
0
0
12
0
0
0
38
0
0
0
7
31
0
0
0
1
0
0
0
0
25
0
16
0
6
38
0
0
33
0
10
6
0
8
0
0
0
0
0
0
0
0
167
139
22
17
71
69
0
41
41
0
0
0
0
24
28
20
14
11
0
0
22
35
100
139
86
0
0
16
0
5
0
6
0
0
0
0
0
0
0
0
0
0
4
0
0
2
0
0
0
5
0
0
0
0
0
10
0
0
5
0
0
3
0
0
0
45
0
51
0
10
0
22
0
0
0
0
0
0
0
42
38
0
35
0
5
23
31
0
41
0
0
0
0
18
0
0
0
0
31
4
34
6
12
6
15
0
22
16
0
4
0
0
3
22
0
11
7
24
0
16
161
88
0
0
22
11
36
0
0
43
0
50
0
0
5
0
11
0
49
10
10
0
30
32
0
0
23
0
0
0
0
29
13
0
10
28
0
22
7
8
0
0
23
0
23
0
31
3
0
0
7
7
28
13
17
0
23
3
0
1
0
0
2
8
0
43
10
0
0
0
8
0
0
0
8
2
23
0
13
0
22
0
9
31
0
45
0
0
0
15
23
7
0
0
24
0
0
36
23
46
0
0
0
1
0
0
4
0
30
0
4
25
0
4
31
58
10
0
23
0
27
4
19
0
0
54
0
0
134
135
25
35
38
0
0
0
6
0
39
0
31
0
41
3
0
28
0
0
7
31
0
28
21
0
34
0
80
35
0
0
18
62
14
0
29
47
35
0
0
22
36
35
17
0
0
21
46
0
40
0
0
29
34
19
0
0
0
17
0
0
0
0
0
2
3
9
0
31
35
44
0
0
0
48
63
67
10
0
0
0
0
0
19
140
4
40
14
0
0
0
74
35
0
20
12
25
0
0
0
5
14
0
0
10
0
46
15
44
56
0
0
0
25
41
0
0
76
21
0
0
25
0
0
0
0
0
0
16
34
9
0
9
31
0
0
23
16
0
27
0
0
0
0
23
5
12
9
17
0
8
53
5
0
0
0
14
17
43
0
0
17
41
16
15
0
0
0
2
0
12
1
8
0
0
7
16
11
0
0
17
0
19
2
0
0
4
15
2
4
0
0
8
12
0
4
29
130
133
0
0
0
0
0
2
17
2
14
1
7
0
5
0
1
8
6
0
6
47
0
12
11
0
13
8
0
10
38
0
0
21
31
0
0
47
0
55
0
22
63
0
3
0
0
19
0
0
20
20
12
33
0
3
22
17
0
114
0
0
0
0
18
172
129
15
39
44
28
22
29
0
0
0
0
46
31
0
0
0
0
0
0
0
0
0
31
84
245
0
0
0
0
0
23
0
38
7
23
24
47
0
9
54
0
44
67
50
0
45
7
0
28
0
0
41
0
25
0
0
79
0
31
8
2
18
52
3
19
0
0
19
0
39
0
85
29
0
0
0
0
0
0
0
0
0
35
15
1
42
22
0
24
0
11
0
0
15
0
0
0
0
8
1
0
0
0
23
0
0
2
0
6
13
4
23
7
0
5
0
0
13
0
0
160
86
0
0
0
0
0
22
13
0
8
18
14
5
39
16
36
3
60
26
0
0
0
16
0
0
0
11
29
0
0
31
0
0
14
0
0
11
0
9
13
0
10
0
0
15
0
20
13
4
13
0
0
0
32
0
24
0
0
8
7
0
11
0
0
22
0
0
0
0
0
12
0
4
0
8
19
10
0
0
0
0
15
4
0
5
0
0
23
0
0
6
0
0
12
0
0
12
0
16
0
29
27
55
9
3
7
0
17
0
0
0
26
0
0
0
0
6
0
15
18
0
0
0
0
0
0
0
242
82
70
0
1
0
0
0
0
2
52
7
1
0
0
28
9
14
2
46
0
0
24
62
0
0
10
0
32
0
37
21
0
0
0
24
28
0
0
0
8
62
0
4
0
0
53
0
0
0
73
8
29
0
0
0
0
67
67
23
4
0
0
0
44
0
11
0
63
34
0
0
0
0
35
61
0
21
0
14
0
0
5
48
1
48
2
20
0
6
0
0
27
62
13
2
30
0
56
0
0
0
0
4
0
0
28
98
27
0
0
0
40
17
7
74
60
0
0
49
17
0
0
34
30
0
8
4
0
12
22
13
0
0
26
33
0
7
0
0
0
24
7
14
0
0
33
11
4
12
10
0
0
0
0
0
36
30
0
28
2
0
0
8
2
10
12
0
0
0
9
0
17
2
0
0
0
4
12
1
19
0
11
9
0
25
1
7
0
0
0
0
0
12
39
0
0
16
42
164
0
0
0
34
0
12
0
0
0
0
38
0
29
22
26
33
0
0
0
0
0
21
0
8
2
0
10
8
0
0
25
0
0
35
0
3
0
6
0
16
11
20
28
1
0
0
22
0
21
0
0
0
0
0
0
11
0
0
0
0
0
122
166
58
39
20
43
11
31
21
0
0
0
4
23
0
0
0
7
22
6
16
9
8
17
0
0
18
208
0
0
0
16
49
0
0
0
20
0
0
0
0
0
0
0
0
0
0
13
0
0
63
35
165
0
0
0
0
3
0
7
6
0
4
0
7
0
10
0
0
0
9
0
103
0
10
60
20
45
0
64
3
12
0
0
0
0
31
17
30
9
13
21
28
3
0
0
8
0
0
0
32
11
0
2
8
16
37
14
0
0
9
0
6
4
0
12
0
1
2
0
13
0
7
155
97
51
8
0
10
0
28
20
9
0
0
0
0
0
0
0
0
0
0
0
8
0
53
0
0
38
0
0
24
14
0
4
17
17
0
5
0
0
0
16
0
28
0
1
29
0
0
1
0
8
4
0
0
19
0
21
0
27
2
11
0
0
25
10
0
3
0
0
29
4
16
31
35
0
0
0
37
0
0
12
36
0
17
0
18
12
0
16
0
24
31
0
15
0
14
0
40
0
32
0
10
0
10
0
0
15
0
0
0
0
16
0
15
0
16
16
10
0
0
0
16
0
0
0
3
0
0
207
42
11
0
32
0
0
21
0
14
31
0
0
31
0
0
0
47
0
0
0
21
9
24
0
0
50
0
0
0
38
2
0
0
74
63
0
0
48
30
24
4
0
10
52
12
25
0
0
0
125
0
41
39
0
64
42
37
0
0
0
0
75
32
12
0
15
0
51
0
0
0
0
29
74
0
0
0
0
0
0
1
116
63
0
0
0
22
9
28
44
0
16
87
0
0
0
6
4
33
5
0
0
0
27
102
27
16
0
0
0
27
36
30
0
0
40
3
0
0
27
35
0
0
20
7
9
0
8
0
0
8
0
0
14
67
4
2
0
0
0
20
0
14
0
2
3
42
39
0
0
0
0
0
7
11
1
27
5
0
0
28
0
0
12
19
6
35
9
0
1
0
0
0
0
27
0
0
31
5
16
0
0
21
0
0
23
0
0
8
5
4
0
0
18
26
1
15
28
109
79
0
0
0
0
0
0
31
39
0
0
13
0
0
0
0
0
0
15
7
12
0
8
10
0
0
5
2
8
0
32
27
17
0
0
11
22
0
4
0
54
0
0
0
1
0
0
0
9
17
0
47
0
0
0
9
0
0
0
0
138
157
41
39
64
32
23
38
0
0
0
41
42
0
17
0
20
32
23
26
16
13
40
26
19
19
0
22
177
167
0
0
0
0
7
2
49
0
0
0
5
9
9
33
46
0
0
1
0
25
0
33
0
24
0
12
57
72
0
4
0
0
0
23
0
62
18
0
0
0
0
43
0
0
5
0
0
0
0
0
0
0
0
0
2
2
8
24
0
15
26
0
0
0
0
25
0
0
0
0
0
0
0
54
0
37
0
30
0
0
9
0
0
0
0
21
0
0
21
0
0
0
14
9
160
95
30
0
0
23
5
0
0
0
0
0
15
2
24
0
0
0
0
0
0
0
5
1
24
0
0
0
0
11
22
0
0
0
4
11
2
8
12
5
9
0
0
0
7
0
0
0
14
3
0
29
25
33
9
0
0
0
12
0
49
11
21
0
5
0
30
0
26
0
37
0
19
0
66
0
0
14
0
36
0
13
0
8
0
44
0
0
14
0
0
0
0
17
0
0
0
3
0
15
0
13
0
12
32
7
15
39
7
13
0
0
0
0
0
0
48
0
2
9
50
0
0
3
0
0
0
151
122
20
0
16
0
0
0
0
0
0
0
36
0
11
14
0
44
25
0
19
65
0
0
0
49
13
0
0
25
10
0
0
35
0
11
0
3
65
33
0
0
29
0
7
6
0
0
0
24
0
8
0
0
0
1
83
27
0
0
0
43
13
8
0
0
2
72
18
0
0
0
86
105
28
0
0
20
0
0
0
100
0
47
12
0
0
0
37
13
57
59
0
29
61
0
0
0
0
16
17
12
14
7
18
7
39
0
0
0
50
9
0
42
19
11
0
0
43
20
0
0
0
36
16
0
17
4
0
0
0
5
19
39
0
0
0
14
28
0
0
22
0
5
33
7
28
7
0
0
0
6
0
29
0
2
3
0
4
0
14
0
29
0
0
0
20
10
0
13
0
3
0
29
4
8
11
5
0
0
0
0
17
3
7
0
0
11
26
23
0
15
1
6
1
0
9
6
21
23
83
171
0
0
0
30
17
18
0
0
31
30
0
0
36
0
3
5
15
0
0
0
25
0
0
0
0
0
34
17
0
0
0
0
18
0
10
0
0
0
0
5
0
0
12
0
7
0
14
0
0
0
0
0
28
0
0
0
0
0
173
101
42
34
60
49
54
43
0
0
0
51
34
0
3
27
23
23
10
16
0
15
3
0
9
14
12
15
14
101
230
0
0
5
23
0
14
0
0
71
1
0
0
58
0
24
37
23
0
0
0
0
52
0
0
29
0
0
0
0
13
7
44
0
38
0
0
0
0
67
2
69
0
20
14
0
0
0
77
0
47
0
0
0
0
0
37
5
67
17
50
9
18
18
0
0
0
6
0
0
18
3
13
0
59
0
3
0
0
0
0
13
0
21
17
0
3
4
0
7
0
8
2
29
0
156
87
0
0
45
0
0
16
1
0
27
12
25
0
5
0
17
0
11
28
37
0
26
0
0
0
17
31
0
3
35
0
21
0
0
0
21
0
0
0
4
4
16
0
19
0
11
0
0
0
0
0
0
0
8
0
0
0
26
0
0
0
0
19
0
0
1
24
0
0
0
0
5
0
0
0
23
12
16
0
0
12
0
20
12
0
1
12
17
0
14
20
17
34
0
2
5
45
29
0
17
12
0
54
0
0
0
0
31
6
0
26
0
29
12
0
0
0
39
0
0
25
0
1
0
0
0
249
81
0
0
30
52
5
0
0
0
0
22
16
20
24
0
0
0
14
4
22
0
0
34
7
23
0
0
70
0
0
0
56
44
0
0
0
44
9
0
0
56
28
0
0
0
15
24
0
70
2
23
0
76
74
72
0
0
0
0
26
18
12
0
0
72
2
0
0
0
63
106
22
0
0
5
0
0
0
16
93
79
56
0
11
0
6
0
60
36
0
0
0
0
8
65
30
0
0
0
0
0
29
104
87
0
0
0
0
0
74
34
9
21
5
19
0
0
0
40
33
11
0
0
13
16
9
24
0
0
10
2
0
14
23
0
0
0
21
35
0
0
17
13
0
11
22
0
0
0
16
0
16
17
1
1
10
0
0
6
0
14
13
0
0
0
0
8
27
19
0
5
0
0
0
7
0
11
2
5
8
22
0
6
8
0
0
0
0
0
0
0
0
0
25
0
0
33
0
4
32
111
74
0
0
0
54
0
45
1
0
1
0
29
0
0
0
0
25
0
0
0
17
0
23
15
0
2
0
0
7
3
11
8
0
41
7
24
16
11
0
10
20
0
0
0
9
0
12
0
1
114
0
0
0
0
0
0
65
171
102
37
61
57
39
63
0
0
0
29
51
4
9
14
26
9
0
16
0
0
4
0
1
0
3
0
27
21
17
58
242
20
0
0
40
0
11
55
5
0
0
19
0
0
0
19
7
0
8
15
35
0
0
31
0
42
1
2
0
0
0
12
0
0
45
0
5
0
26
8
0
9
27
0
0
0
75
9
0
0
0
0
84
47
0
57
16
0
19
21
3
0
12
3
17
14
0
0
0
0
3
9
3
8
11
7
10
8
18
0
0
0
0
0
0
4
7
0
17
0
10
14
0
0
0
159
87
0
0
4
0
37
16
0
22
3
17
16
14
25
0
40
6
9
0
0
0
30
0
12
0
0
16
0
0
22
0
10
0
4
0
0
7
1
0
27
0
20
27
0
0
0
20
0
0
22
0
19
9
0
17
38
0
31
0
12
36
12
18
0
31
0
0
0
25
16
13
10
43
9
2
3
0
24
0
5
0
38
0
3
0
0
0
0
0
0
0
0
26
0
5
20
0
0
0
0
44
0
0
0
47
0
30
0
5
0
0
0
12
0
32
1
24
0
5
0
48
12
0
0
0
0
179
11
8
0
51
102
0
6
0
16
37
0
51
0
0
26
21
40
6
47
7
0
0
28
1
0
5
0
0
19
17
36
0
0
1
24
25
70
0
0
0
84
6
0
0
0
49
39
18
0
0
0
47
65
33
0
0
0
78
30
51
0
31
0
27
9
0
0
0
0
60
0
0
0
12
0
0
0
35
29
47
0
12
3
0
37
13
32
29
60
0
0
0
0
0
0
42
0
0
0
25
11
69
0
0
0
9
32
6
6
4
0
31
0
0
46
0
11
7
0
5
51
0
0
0
42
0
16
0
1
64
0
0
0
7
19
19
0
0
60
19
0
0
43
0
0
0
0
0
18
11
12
17
38
0
0
1
1
7
0
0
33
29
0
3
11
0
0
0
37
26
16
0
0
0
5
0
0
0
11
0
0
0
0
3
0
0
0
0
0
0
0
0
0
11
16
0
11
4
6
12
87
106
0
0
0
0
0
33
0
43
2
0
22
53
52
0
5
0
1
40
0
32
0
0
32
9
12
14
0
0
17
14
1
0
12
0
0
0
0
21
20
57
38
0
52
11
26
0
36
0
0
0
0
0
0
0
113
120
83
27
52
46
65
58
0
0
0
72
53
0
13
41
0
17
0
7
19
11
10
0
0
0
0
5
0
0
16
17
20
161
158
0
0
8
0
0
0
4
24
0
22
4
0
0
0
0
43
0
0
0
35
0
12
0
0
0
3
27
0
56
0
7
0
0
11
0
0
0
0
64
0
41
72
0
48
0
19
0
8
0
0
0
0
0
21
47
10
30
18
11
26
0
6
24
0
0
26
0
12
0
0
16
0
0
3
0
0
0
8
0
0
46
10
4
3
3
8
0
10
22
0
0
27
0
157
90
11
0
0
11
0
0
0
0
0
0
0
0
8
0
0
4
12
29
0
8
5
14
0
11
0
0
14
26
0
0
0
25
3
3
0
18
26
0
0
21
0
18
12
17
18
14
2
0
27
0
0
7
0
13
3
4
5
0
25
16
34
0
0
3
0
15
0
0
3
0
0
25
0
0
37
0
6
6
15
0
1
0
41
0
0
51
6
1
0
44
0
0
0
0
2
0
6
43
0
0
22
2
0
12
0
34
0
0
0
0
0
0
9
18
5
0
0
11
0
0
3
0
0
0
8
111
38
0
0
51
0
0
0
0
36
0
2
3
0
22
0
0
25
0
0
0
0
0
12
55
0
0
0
0
44
19
0
0
30
46
36
0
0
0
52
3
0
16
0
0
95
1
1
0
0
7
50
52
0
0
0
0
32
11
57
0
15
55
0
49
5
0
19
55
54
23
0
0
8
0
0
0
60
66
27
0
0
0
54
28
0
5
19
0
0
0
0
0
1
30
0
0
17
8
74
81
31
0
0
7
0
29
48
47
16
0
3
60
0
0
3
20
0
8
0
0
25
6
12
0
41
28
22
0
0
0
53
9
0
0
10
31
0
0
0
56
38
0
0
0
0
22
16
43
27
0
0
0
27
21
0
9
0
20
0
0
18
0
0
0
9
0
0
0
0
4
24
0
0
1
0
38
0
21
13
0
0
22
0
0
26
0
0
0
0
29
18
0
0
0
2
0
3
27
13
0
43
112
139
0
0
0
0
34
0
14
0
29
27
0
0
3
39
0
0
0
15
5
0
19
1
0
0
0
0
2
7
0
35
0
9
0
20
33
8
45
14
0
0
0
0
0
19
0
4
0
0
0
0
0
0
216
131
66
43
32
55
61
20
0
0
0
89
49
0
7
0
13
5
0
0
0
0
2
0
0
13
18
0
0
0
0
31
5
20
110
221
0
0
6
0
29
17
8
0
0
38
0
0
0
6
0
0
20
29
132
0
0
0
0
65
25
0
0
0
0
38
79
74
5
14
0
77
0
0
0
0
0
0
0
12
0
56
0
0
16
0
8
29
0
56
0
0
31
0
27
22
0
18
0
0
0
11
0
12
8
19
9
20
0
30
15
1
5
3
13
0
0
0
0
10
19
0
0
12
0
0
2
10
0
157
90
0
46
0
22
0
0
67
37
0
12
36
1
0
66
12
0
29
0
0
12
19
0
0
0
0
16
8
0
31
25
5
38
0
17
0
12
0
0
0
1
10
0
2
0
0
12
12
0
0
0
18
7
4
3
19
0
3
0
24
0
0
0
0
10
16
0
0
26
0
21
0
0
0
0
14
0
14
48
7
0
0
14
0
1
0
0
0
11
6
18
0
26
18
9
0
0
0
0
0
17
0
0
27
18
8
28
2
0
13
17
0
26
18
8
0
11
11
0
85
0
13
0
0
0
186
84
34
18
72
0
0
0
0
0
26
5
0
0
33
36
0
8
56
0
0
40
0
0
17
62
18
0
17
0
11
0
3
0
91
0
0
0
6
39
52
0
0
47
0
37
50
0
0
0
29
72
43
0
0
0
0
54
43
0
0
24
14
0
10
0
0
38
30
19
0
0
21
64
0
0
35
57
59
57
0
0
0
21
11
61
0
14
3
0
3
0
11
29
0
0
5
0
0
71
139
0
0
0
4
67
23
0
0
9
18
0
0
0
25
16
0
0
12
13
24
0
0
21
26
17
0
10
18
30
0
0
31
54
0
0
14
0
6
24
0
0
18
0
0
0
0
53
12
0
18
10
0
10
1
16
0
0
6
18
2
16
0
0
0
0
10
3
0
4
0
0
28
6
0
0
0
28
0
0
14
0
0
0
0
0
2
2
0
0
14
1
12
14
0
0
0
16
0
15
0
4
14
65
120
41
0
0
3
0
19
16
0
0
0
4
0
26
55
35
0
7
0
0
7
9
0
7
23
0
0
4
0
0
0
28
0
21
0
17
20
0
33
0
0
0
29
1
2
0
42
0
0
0
0
20
168
122
43
48
34
36
70
6
0
0
38
62
22
0
34
20
20
0
6
12
9
0
0
0
0
0
4
11
5
25
0
0
10
18
31
59
246
0
0
0
21
0
0
9
0
0
24
18
90
2
52
98
0
0
0
0
0
0
65
0
0
0
25
4
87
18
18
0
0
0
0
6
0
23
0
0
33
0
0
14
16
0
0
0
0
27
0
0
45
21
42
23
16
19
0
0
0
0
21
0
0
0
0
42
0
16
0
0
0
21
0
0
0
0
2
0
0
11
0
0
0
8
0
29
0
0
12
6
2
27
155
90
0
49
0
27
37
27
0
0
0
6
13
0
0
0
0
0
0
0
12
0
26
0
26
0
14
49
0
0
0
0
0
0
0
0
0
0
0
3
0
0
17
0
13
0
0
0
7
0
17
10
14
0
0
0
0
0
4
14
0
5
0
25
31
0
0
59
0
0
0
0
5
0
13
38
0
0
0
20
0
0
1
7
0
2
16
0
0
0
0
0
29
0
0
26
4
0
5
28
0
8
0
6
0
0
0
0
0
9
41
0
0
1
0
0
2
5
0
9
68
0
0
0
0
0
233
19
13
46
0
9
40
0
0
0
9
0
2
0
0
1
0
0
0
4
11
0
0
27
13
44
0
25
0
0
0
80
36
0
12
0
0
37
11
0
77
0
29
30
0
0
0
0
8
23
61
23
0
0
33
50
2
27
25
11
28
33
0
0
0
0
69
0
0
0
0
10
6
0
0
0
77
55
0
43
32
0
13
10
29
37
0
0
8
7
0
59
0
0
0
0
0
125
39
0
6
0
0
36
0
20
70
16
0
8
50
38
0
0
0
73
3
0
0
19
46
5
0
0
70
48
0
0
0
69
12
0
0
40
41
5
0
10
78
60
0
0
4
8
36
27
0
0
33
0
0
21
3
0
0
0
27
0
5
8
14
0
0
13
0
17
19
6
12
9
0
0
17
0
2
0
0
3
16
0
0
36
0
0
23
5
0
17
5
17
0
16
4
2
10
21
0
28
0
13
35
17
0
50
56
120
0
0
0
0
18
12
8
20
0
0
36
2
1
0
0
42
0
25
1
15
5
10
15
0
0
50
2
8
61
24
0
32
25
10
0
2
0
26
0
0
0
0
9
0
0
0
0
0
107
154
53
37
52
61
52
44
0
0
0
21
44
13
23
26
4
0
0
0
0
0
0
0
16
16
11
30
6
27
0
0
6
0
0
16
28
31
199
0
0
8
0
19
0
42
0
0
49
0
0
0
0
0
0
62
0
62
12
6
46
0
36
0
14
0
7
0
0
0
0
0
0
52
0
0
0
14
5
0
27
23
17
33
0
68
0
0
0
0
7
44
0
55
0
14
7
14
0
17
2
0
0
19
0
32
0
13
0
25
12
26
0
10
18
6
40
0
9
17
0
6
14
12
30
0
0
7
10
0
2
0
156
97
37
3
0
0
21
0
0
21
0
22
0
18
0
26
35
1
0
0
1
0
0
0
27
0
0
0
0
26
0
30
3
40
2
13
0
7
17
13
0
15
0
14
0
24
1
20
0
16
23
1
0
14
0
1
18
34
0
0
39
0
1
0
0
0
0
35
8
0
39
38
12
5
0
30
0
39
0
30
7
3
34
41
4
0
81
0
17
12
5
0
0
44
0
8
0
0
13
6
0
0
0
22
3
17
2
11
10
0
0
0
14
0
0
15
0
6
49
0
10
0
19
0
0
72
196
11
11
16
29
0
0
11
0
5
0
0
37
13
9
35
0
11
3
7
0
0
43
0
0
7
100
28
0
0
23
59
15
0
0
9
81
28
9
0
18
0
65
3
0
0
3
59
114
1
0
0
0
0
4
0
0
0
53
45
0
4
0
0
31
25
28
0
0
2
42
37
0
0
14
73
61
15
37
0
52
16
0
3
52
45
0
37
0
16
0
35
0
13
0
29
78
84
0
0
0
0
8
39
47
0
8
49
0
0
0
0
0
0
0
0
70
32
0
0
17
8
0
0
0
0
11
31
0
0
31
11
0
0
13
87
8
9
0
0
0
0
21
12
22
29
0
0
3
27
0
0
0
26
5
0
11
12
4
0
27
3
0
0
0
0
0
0
6
2
0
2
0
0
46
15
0
3
0
2
0
17
5
0
12
8
13
0
7
35
0
0
17
10
0
0
0
2
5
0
4
17
0
45
43
107
128
0
0
0
57
7
1
15
4
0
0
34
8
25
0
2
0
15
0
3
0
31
0
0
11
31
0
0
3
0
0
0
24
0
9
9
52
0
0
37
0
10
0
0
0
0
0
157
138
68
37
59
21
49
36
0
0
5
57
11
36
30
5
2
10
0
3
7
0
0
0
0
0
0
17
11
0
0
0
7
0
19
0
18
37
22
156
119
0
0
0
21
0
18
0
12
1
13
3
6
21
35
0
33
0
0
0
0
0
0
0
17
28
0
20
24
19
0
10
26
0
60
24
0
30
45
14
0
39
0
0
33
0
0
0
0
0
29
44
8
24
44
42
0
13
20
0
21
0
0
7
7
0
4
13
0
0
20
0
0
0
0
0
0
0
0
15
0
16
0
12
0
0
8
0
0
16
0
16
12
158
90
0
5
0
37
0
0
29
54
0
0
0
0
12
0
0
26
0
40
11
22
0
0
0
1
34
9
0
2
0
28
0
31
0
4
11
13
0
35
19
34
0
3
0
20
0
0
0
0
0
13
3
29
0
12
0
11
0
0
29
23
15
32
0
0
5
0
14
21
0
0
0
23
0
33
0
16
0
10
0
8
0
1
22
0
0
0
1
0
33
18
0
37
0
18
0
0
0
3
26
35
4
0
0
0
0
0
27
0
34
32
19
33
34
0
25
6
2
0
88
14
2
0
0
47
124
25
0
0
81
0
11
12
0
0
0
29
0
64
17
0
0
3
0
0
28
26
49
0
57
56
0
0
0
7
103
0
0
0
39
41
19
0
0
0
23
45
31
0
0
26
0
40
0
0
0
0
11
36
1
29
32
7
13
0
0
0
0
65
78
19
0
0
0
71
0
0
0
55
24
25
28
0
0
10
0
69
1
0
0
0
0
0
34
0
0
0
0
20
80
113
7
0
0
41
3
76
0
0
2
6
0
22
18
31
0
0
0
15
23
0
1
52
4
0
34
45
29
26
0
0
26
0
23
0
0
50
43
0
0
10
45
0
0
0
53
28
38
5
1
22
20
0
0
0
15
13
0
0
15
0
0
0
0
5
11
14
9
0
12
0
0
0
12
0
0
25
0
0
19
0
12
0
0
7
32
4
3
29
11
32
23
24
11
0
0
0
0
0
0
0
9
0
0
0
4
5
0
9
61
50
155
0
0
0
0
16
0
9
28
32
0
0
0
4
0
0
0
1
24
13
0
16
0
0
0
0
0
21
0
18
9
10
0
0
37
24
174
0
0
0
0
0
0
0
0
0
106
138
47
71
60
49
78
7
0
0
13
54
20
33
38
29
2
9
0
3
1
0
0
8
12
0
44
8
0
13
0
0
0
12
0
21
0
12
28
33
153
122
0
18
26
2
0
0
11
0
0
0
0
0
31
35
0
0
52
56
65
0
0
0
2
0
0
0
18
0
24
0
0
33
2
16
0
28
0
56
0
0
0
25
23
0
0
11
0
0
19
0
39
0
9
9
0
0
0
10
0
1
0
3
0
33
0
11
0
14
0
0
0
4
26
8
20
6
5
22
0
0
14
14
1
0
0
22
0
0
11
0
0
0
158
95
19
0
1
0
20
0
0
0
0
13
1
2
20
0
0
0
6
2
0
29
5
0
0
0
0
9
1
33
23
0
0
2
0
0
0
11
7
0
15
0
0
4
0
0
8
0
7
6
19
29
0
0
0
0
27
0
9
0
0
0
0
30
6
19
0
0
0
0
0
19
5
37
0
25
0
15
0
0
15
12
21
19
0
4
23
0
7
24
0
0
15
0
2
0
25
41
0
0
0
0
0
0
14
0
11
0
0
17
0
0
5
0
0
0
18
0
0
6
0
14
0
0
0
176
82
20
0
57
0
67
0
0
0
0
13
0
0
0
0
0
0
20
0
38
0
0
11
31
46
0
0
0
0
14
7
0
11
3
57
0
0
35
42
15
0
0
0
24
38
67
0
0
0
0
31
23
0
48
34
61
55
6
0
0
0
32
58
0
4
0
0
42
0
0
0
0
4
62
66
0
0
59
0
0
17
20
55
0
6
0
0
33
0
17
9
0
54
34
37
0
0
0
26
25
43
0
36
0
0
0
19
0
0
14
13
4
0
19
57
0
0
94
49
0
0
16
31
30
0
0
0
0
0
14
0
0
60
83
0
0
0
0
9
0
51
29
21
0
0
1
5
21
0
0
15
31
0
0
20
5
0
0
0
0
30
1
17
21
0
6
0
13
19
8
10
13
7
0
0
0
0
30
0
16
27
21
6
0
8
0
0
0
0
0
0
10
20
6
18
0
23
7
0
5
0
0
0
0
2
19
111
54
0
0
16
17
0
0
0
0
18
5
14
13
18
0
0
5
0
8
0
0
0
6
14
64
0
2
0
64
13
17
0
55
0
0
0
0
0
5
0
0
0
0
36
160
101
79
68
51
17
17
0
0
0
0
63
22
21
20
0
8
0
12
5
0
0
4
6
20
27
0
21
0
0
0
0
0
0
15
0
4
0
4
25
43
163
103
0
0
0
0
0
0
40
5
12
9
0
0
0
0
0
19
25
3
0
10
0
0
34
1
0
51
0
23
0
32
0
24
0
28
0
0
0
0
9
20
14
27
0
5
0
0
0
0
33
29
29
35
56
8
8
41
0
19
1
0
0
0
0
0
0
29
5
3
0
0
0
0
5
0
0
20
0
3
5
0
0
8
0
16
0
2
22
13
0
0
14
6
161
93
0
16
0
38
0
31
21
4
0
18
0
24
0
13
0
0
21
0
0
85
0
43
44
21
0
12
0
0
34
0
19
4
0
26
0
0
0
7
0
12
45
2
0
6
3
1
0
0
15
0
0
19
0
16
15
0
53
27
0
0
0
0
0
0
0
14
0
21
9
35
0
2
11
26
9
22
32
0
8
0
4
0
0
7
0
0
0
0
5
0
41
0
7
0
0
12
0
40
0
44
25
0
27
41
0
0
0
0
27
16
0
16
0
5
47
0
0
0
0
24
0
0
0
237
48
0
33
0
29
142
64
0
7
0
0
40
12
0
0
53
0
33
29
30
0
17
11
73
0
0
8
54
10
52
8
25
28
0
0
0
0
41
12
0
0
0
14
44
15
0
0
0
25
45
26
0
0
1
10
17
0
0
0
0
55
21
46
0
3
0
51
4
0
0
0
48
67
15
0
0
0
27
45
0
25
0
7
14
0
17
0
0
0
0
8
59
67
19
0
0
0
22
62
14
0
22
1
23
0
6
37
8
0
0
53
44
1
0
71
30
0
0
49
24
0
0
56
48
0
0
46
72
0
0
9
39
43
28
0
0
0
47
25
0
0
16
12
3
0
9
0
0
21
0
0
3
25
14
9
13
12
29
0
0
5
19
3
2
0
0
0
0
0
4
9
0
18
31
13
41
0
49
42
15
0
3
0
0
0
0
0
0
0
7
28
11
12
2
10
0
0
0
0
0
0
1
2
0
1
1
68
89
0
0
0
0
17
13
0
13
4
16
0
0
9
16
0
14
3
11
0
0
25
4
0
13
0
47
0
0
9
0
0
22
0
0
0
0
0
0
0
0
0
71
170
86
76
44
16
50
24
0
0
0
12
60
2
49
19
7
0
8
5
4
3
19
0
2
11
2
0
0
42
0
0
0
14
21
0
0
0
0
3
0
16
21
161
126
0
16
0
18
0
0
0
0
12
26
0
87
0
48
24
0
0
43
0
0
0
4
0
27
0
0
0
0
0
27
0
0
0
0
0
5
75
17
33
6
26
2
0
0
8
0
1
13
25
37
24
0
8
5
0
8
0
2
0
1
0
13
32
1
15
0
9
0
5
22
23
14
0
4
9
13
0
8
25
0
0
31
10
5
0
0
0
0
0
0
10
6
158
92
0
12
0
53
0
3
11
0
0
76
0
41
0
0
5
0
35
0
6
0
12
0
0
0
0
0
32
11
11
0
9
8
0
0
24
5
37
2
4
0
0
4
0
20
5
0
5
0
16
6
15
16
20
1
16
0
4
33
0
25
0
34
21
28
30
0
0
15
0
32
10
20
0
0
9
0
0
0
0
0
0
0
4
14
0
29
33
5
31
0
0
0
5
0
0
0
3
37
0
0
15
0
6
5
0
19
20
0
0
0
0
0
5
6
0
9
82
0
0
2
0
0
0
223
20
36
0
0
40
0
38
0
0
0
0
0
16
63
9
28
0
26
0
23
15
74
0
0
0
14
73
0
0
0
0
0
29
0
11
42
15
15
2
0
9
62
0
0
0
0
9
44
43
28
0
0
0
28
0
0
0
0
45
8
0
12
56
0
89
8
0
8
0
0
16
101
68
21
0
0
16
2
40
51
0
0
0
0
51
0
0
0
0
3
96
68
0
0
0
55
11
22
0
0
0
28
4
0
10
0
0
0
29
0
20
46
0
0
17
48
0
0
0
41
51
0
0
14
40
0
0
31
57
31
0
0
0
0
8
59
23
27
32
19
0
0
3
25
7
2
0
28
12
26
0
0
0
37
21
3
10
35
5
0
0
0
27
12
4
3
30
0
0
0
13
0
22
45
0
32
45
0
0
0
0
0
0
30
1
19
10
33
11
0
0
0
0
0
16
11
0
7
3
0
2
14
0
17
30
8
54
57
106
18
0
0
0
0
3
21
12
0
0
0
0
26
0
5
20
0
2
3
0
14
30
0
12
0
0
0
54
0
0
0
56
83
57
0
0
0
0
34
127
108
89
65
42
25
25
0
0
0
0
52
46
27
11
21
0
5
0
14
0
0
0
17
0
25
0
0
0
0
6
0
1
0
0
7
0
16
0
0
17
0
52
49
153
121
0
0
0
16
0
47
75
17
0
0
1
0
0
45
0
0
0
0
0
25
0
0
0
63
26
27
0
50
10
60
0
0
0
73
0
21
0
30
0
0
0
0
0
12
0
0
0
0
17
36
21
44
13
9
8
2
6
0
0
8
1
10
0
0
15
0
0
0
0
21
0
0
0
5
11
0
0
13
0
0
0
10
0
0
12
5
12
4
0
4
4
5
157
95
5
7
0
0
0
8
0
27
0
9
0
29
4
0
0
0
36
0
11
12
0
32
10
0
7
10
0
0
0
26
16
0
11
7
0
0
11
0
0
34
8
17
0
25
3
22
1
19
0
6
1
0
0
0
20
0
0
2
0
14
0
0
7
0
3
0
17
0
0
0
0
19
16
0
23
0
15
34
0
63
0
45
0
0
0
0
0
0
53
6
3
0
0
45
5
20
0
0
0
0
21
24
0
14
34
0
13
0
0
0
48
0
13
17
0
0
0
0
38
11
0
0
0
175
0
81
0
72
0
0
0
0
21
0
15
31
14
8
0
0
59
0
5
0
0
0
0
0
41
18
0
0
50
41
0
0
39
20
31
0
0
0
0
29
79
0
0
10
0
28
47
1
0
0
0
46
48
0
0
0
0
116
34
4
15
0
0
0
0
0
0
0
0
29
0
19
22
32
25
0
0
52
2
19
2
0
14
0
0
17
6
0
62
26
101
0
0
0
0
89
15
0
19
0
40
7
0
8
0
0
0
1
55
37
0
54
16
0
0
0
39
15
16
0
16
65
0
0
28
33
7
0
40
80
0
0
0
0
0
58
24
0
0
2
19
0
2
0
8
5
0
26
14
19
3
0
0
0
0
23
0
11
5
34
0
0
0
30
12
0
26
0
0
1
0
0
0
83
84
28
0
0
0
3
0
29
0
4
39
3
0
0
7
8
3
21
0
40
2
0
0
13
16
0
1
21
0
0
10
0
3
23
88
89
0
0
0
0
0
6
16
0
4
30
0
0
0
0
27
0
0
3
7
0
0
0
5
23
16
0
27
15
14
0
0
0
0
0
0
0
107
97
111
91
71
31
26
35
0
0
0
0
65
16
7
33
16
6
0
9
0
29
0
19
0
5
0
0
0
0
18
14
0
0
0
11
0
1
2
6
13
0
15
0
6
33
164
102
0
0
0
0
0
0
0
0
0
9
29
9
73
57
0
34
24
0
33
0
35
12
0
0
0
20
0
0
48
7
0
50
7
0
0
0
0
65
0
25
2
0
0
66
0
0
5
39
37
29
0
0
24
0
0
1
0
0
0
23
0
27
3
0
5
18
0
4
0
8
0
4
8
0
7
13
0
0
0
17
0
13
2
17
0
7
16
3
7
0
39
0
155
95
0
0
40
0
22
0
4
11
3
0
2
2
0
0
28
0
26
14
0
11
0
0
0
0
0
38
0
19
9
37
12
1
0
0
20
0
6
20
3
8
12
13
0
0
0
0
0
6
0
0
23
0
10
10
24
30
23
0
19
0
0
7
31
0
3
54
0
13
18
37
22
0
7
0
0
29
0
13
0
2
0
20
14
14
26
24
0
25
0
0
0
71
0
9
0
10
5
6
25
12
0
11
0
0
0
0
13
12
23
1
0
0
5
0
6
2
16
0
18
0
0
0
96
127
20
0
83
0
37
0
0
35
0
0
10
16
28
6
0
49
16
0
0
39
24
0
0
28
44
21
36
27
0
6
0
16
43
75
18
0
1
31
56
26
9
0
0
19
59
11
8
0
0
0
22
0
0
6
0
61
119
39
0
0
38
39
77
15
0
0
0
18
54
51
0
0
0
36
54
23
0
23
0
0
49
35
6
0
0
0
53
108
62
0
0
0
0
39
0
10
66
0
3
0
0
28
0
36
13
0
0
12
43
32
0
0
51
47
0
0
20
0
22
0
0
32
76
0
0
0
96
22
0
0
0
0
100
38
0
5
30
0
0
0
43
43
0
0
15
44
0
0
0
16
0
3
11
0
0
19
9
0
0
3
30
6
0
0
13
0
12
9
0
19
0
30
0
26
5
0
0
22
45
33
0
12
0
0
23
3
6
0
4
8
8
13
0
23
17
0
6
1
0
25
0
0
0
25
14
14
10
0
32
62
74
103
0
0
0
0
42
4
35
0
0
40
0
3
21
0
3
5
5
0
22
0
0
20
34
0
0
39
0
0
0
0
0
0
85
150
108
64
100
57
33
0
0
0
0
0
9
46
13
17
15
44
7
8
9
0
2
0
0
15
0
17
0
0
13
8
24
5
15
0
0
0
0
0
0
4
1
0
4
0
4
33
195
58
0
4
0
0
0
2
56
42
22
0
13
0
0
3
25
0
13
3
13
0
0
0
1
0
0
0
0
0
0
0
10
0
24
0
11
0
0
25
0
0
0
0
0
0
0
0
29
62
37
7
24
0
0
12
0
11
5
0
4
5
11
3
1
2
16
5
0
2
0
0
38
4
0
1
0
0
0
22
27
0
42
0
0
0
0
1
0
0
0
0
0
17
155
94
0
31
0
10
17
0
0
8
0
22
75
0
0
0
0
4
0
13
0
14
8
24
6
0
16
7
0
26
11
0
35
0
13
16
0
0
0
29
1
0
0
0
0
24
22
25
0
0
0
5
11
0
16
0
0
35
9
10
39
0
0
16
10
0
0
0
0
0
4
0
7
0
21
0
15
17
0
0
14
0
0
12
0
0
0
27
0
0
15
0
2
25
0
82
0
11
8
0
0
0
0
0
18
27
0
0
0
18
0
0
7
1
0
0
26
1
8
0
0
0
0
0
246
107
0
0
129
0
11
0
52
0
43
0
8
0
0
9
0
15
0
28
22
0
0
20
18
22
6
53
6
0
0
2
23
0
0
0
0
0
17
15
17
0
0
0
13
0
0
24
0
0
0
43
25
29
0
10
21
0
0
0
0
34
19
38
2
0
0
9
0
95
39
42
34
0
0
0
65
77
39
0
0
0
0
8
0
0
0
58
132
48
0
0
0
8
25
23
30
0
0
66
33
0
10
0
0
17
13
36
2
56
0
30
0
0
0
47
40
0
0
0
62
36
0
0
7
51
13
0
21
80
0
0
0
0
55
62
0
0
7
16
1
0
0
0
22
16
0
0
8
8
0
16
6
31
23
10
15
0
0
7
0
3
15
12
0
0
0
24
0
18
9
15
16
46
0
0
0
0
37
19
17
10
0
20
0
0
0
18
10
0
0
0
9
0
0
0
0
0
7
14
6
0
4
0
0
0
0
21
0
0
0
22
46
97
69
0
0
0
11
0
6
0
0
0
7
4
0
11
4
24
0
0
0
10
28
0
23
13
0
10
0
0
0
0
0
82
100
94
114
38
23
14
0
0
2
0
0
25
44
15
20
17
0
1
8
0
0
0
14
30
9
5
0
5
0
5
0
2
0
0
0
0
5
17
4
1
0
6
0
6
21
4
4
40
221
6
0
64
0
19
36
14
0
0
0
0
0
0
27
0
13
0
0
26
13
17
26
0
15
6
5
0
0
0
43
0
10
65
0
0
9
79
0
0
0
16
0
0
0
17
0
0
52
15
0
27
8
0
16
0
10
0
0
0
29
1
18
0
12
14
3
12
3
0
15
16
0
0
14
8
0
17
0
0
8
2
0
0
13
20
11
26
0
3
4
12
0
0
161
99
8
27
0
5
0
0
23
14
6
0
0
0
0
0
25
0
0
1
0
47
0
0
0
0
0
0
0
29
18
0
0
0
0
24
0
37
9
0
15
0
15
0
15
0
0
13
23
21
30
3
0
28
13
0
9
0
0
0
0
0
8
11
0
0
19
5
0
13
14
4
0
17
1
2
38
18
0
0
35
9
35
21
0
6
7
9
45
18
49
0
2
2
0
29
0
22
13
0
18
0
35
0
22
16
1
45
33
0
0
2
0
26
40
0
12
19
0
10
16
0
0
0
201
61
0
74
115
0
48
11
10
12
31
12
0
0
14
17
0
0
11
0
0
0
30
39
0
5
0
42
16
0
0
89
90
29
0
0
43
85
70
16
0
0
0
68
20
6
0
0
0
36
57
0
0
68
0
38
4
0
0
0
0
61
0
0
0
0
0
0
69
31
73
0
13
0
2
0
0
77
31
2
0
18
0
0
0
67
89
36
0
0
0
0
53
12
0
6
8
0
0
0
56
26
0
0
0
32
17
26
3
0
0
0
0
0
2
0
41
36
0
0
0
9
29
0
0
28
99
4
0
0
0
6
46
0
4
10
40
40
0
13
0
8
0
0
0
21
0
0
0
7
15
18
0
0
11
0
28
0
13
0
0
12
0
36
13
0
0
23
7
5
34
56
31
0
0
0
53
91
29
25
37
0
13
9
0
15
0
1
10
0
0
0
0
9
2
0
0
0
4
6
6
0
12
0
23
0
0
21
17
21
0
0
23
39
86
72
0
0
0
0
21
0
11
0
0
1
6
0
12
0
6
32
0
20
0
0
24
0
0
4
0
0
0
68
120
115
84
77
40
7
0
0
48
9
0
0
39
15
6
29
31
7
0
0
4
0
4
9
0
0
0
0
0
7
1
0
0
0
2
0
0
8
0
10
5
17
0
2
0
0
5
19
0
38
241
0
0
11
0
0
32
16
10
13
23
17
7
11
0
120
0
0
0
0
0
0
0
0
36
0
59
0
12
45
49
25
21
27
0
26
34
0
0
45
0
0
0
0
0
0
0
55
32
23
0
13
0
0
7
0
0
0
0
0
0
7
21
0
0
0
0
7
0
14
0
0
0
10
0
0
18
7
0
14
0
0
0
18
5
5
0
6
0
0
19
0
0
0
156
99
4
0
4
10
12
13
0
0
0
0
0
26
21
0
6
0
0
0
0
0
28
23
0
2
0
0
0
0
7
15
0
46
0
4
0
19
0
0
13
18
1
0
17
22
15
1
0
0
1
7
2
0
2
0
5
0
4
31
2
8
0
0
0
0
0
0
0
8
0
10
0
56
0
0
0
17
0
18
0
14
0
7
0
20
11
0
20
0
2
22
31
0
16
0
21
0
3
0
0
0
0
6
0
0
48
0
0
0
30
0
35
0
0
49
0
13
11
0
13
4
0
0
187
0
0
63
0
0
33
0
8
0
0
0
0
0
36
0
20
35
29
0
0
33
6
0
0
28
0
10
0
0
49
32
0
0
0
17
99
0
0
0
0
56
34
24
13
0
0
7
12
25
0
0
9
50
32
19
0
0
7
41
86
57
0
0
0
0
0
25
38
0
0
38
0
51
77
0
0
0
30
13
33
0
0
0
9
122
119
0
0
0
0
89
0
71
0
0
0
0
0
0
0
18
40
0
0
8
34
36
45
0
0
8
0
0
42
0
0
69
28
13
0
4
15
4
32
0
31
0
0
0
2
29
0
3
0
0
0
20
18
6
0
18
35
0
0
20
33
0
5
1
15
15
0
18
11
0
0
24
16
8
13
0
0
0
0
43
0
0
19
21
36
105
6
0
0
0
5
51
2
0
14
0
19
0
0
4
1
18
11
0
0
1
0
14
0
15
11
0
0
1
0
0
14
0
29
2
0
0
7
0
14
0
29
1
56
54
69
0
0
0
0
3
2
14
4
0
0
13
13
0
0
23
6
0
5
0
19
1
0
0
0
0
118
97
66
95
35
11
0
0
0
19
44
0
0
21
33
6
28
5
0
10
0
3
3
12
0
0
0
23
0
0
1
0
0
0
0
20
14
0
2
0
0
0
0
2
16
0
0
0
1
10
0
66
255
0
0
31
0
0
0
5
0
3
0
0
0
0
0
58
0
20
106
6
12
24
2
17
41
0
0
43
0
0
0
0
0
14
0
0
23
14
0
4
0
0
0
0
0
28
44
11
9
54
17
19
3
0
17
0
0
0
40
7
6
0
6
3
4
16
0
17
17
11
0
13
3
55
0
0
30
8
0
25
0
15
0
6
0
0
0
22
25
32
0
28
0
35
155
98
0
0
4
0
5
0
53
0
18
23
0
0
0
0
56
0
2
65
0
0
0
0
25
0
0
0
0
30
0
3
0
13
33
5
0
0
0
6
0
0
15
0
0
0
0
0
0
0
27
0
39
0
11
0
19
0
24
29
0
14
1
0
0
9
32
0
0
36
0
32
0
17
0
0
0
31
0
4
0
25
0
10
0
3
0
0
4
0
13
0
0
13
28
27
0
32
1
12
15
0
0
0
0
18
53
0
22
0
13
1
7
15
0
21
0
7
35
24
0
6
0
53
215
0
59
41
55
69
0
0
2
13
59
0
0
38
0
0
6
0
0
4
69
11
13
33
26
0
0
0
2
82
0
0
0
0
90
0
0
4
0
0
26
28
25
35
0
15
31
10
0
17
0
0
64
0
0
0
0
15
6
18
13
0
0
0
0
11
92
48
0
6
0
30
16
0
23
0
0
0
0
18
32
0
0
58
100
0
0
0
0
53
1
50
15
0
0
18
0
21
0
7
0
0
77
56
31
0
0
39
64
16
0
46
4
0
2
17
0
0
5
47
0
20
0
35
53
18
0
0
63
36
0
32
8
4
4
4
0
0
25
12
2
4
0
7
0
7
0
0
34
0
0
9
9
19
7
17
0
13
5
32
7
0
0
0
0
48
0
0
40
70
0
0
0
0
22
37
1
0
0
7
0
0
0
6
9
2
0
5
23
0
0
1
17
8
0
5
0
3
0
0
1
0
3
0
16
0
22
0
4
2
8
0
11
0
19
34
89
0
0
0
22
19
14
12
7
15
11
7
0
6
9
4
0
15
10
0
0
0
0
0
37
96
86
78
69
84
6
0
0
23
7
21
0
0
19
10
25
21
21
0
0
9
0
0
13
7
0
0
0
10
11
2
0
6
0
9
11
6
0
2
23
0
0
0
2
2
12
0
0
4
6
15
0
115
240
0
0
41
2
0
0
0
10
26
0
24
9
11
16
0
1
0
0
12
35
0
0
0
0
0
0
0
0
16
75
0
22
19
0
0
0
18
0
0
0
6
0
0
39
33
17
14
5
18
4
0
26
11
0
0
0
11
0
2
1
0
30
0
0
34
0
0
0
0
0
17
20
0
0
0
0
0
0
14
0
0
10
22
0
13
10
0
0
0
0
11
0
0
154
101
7
0
1
5
7
0
10
0
0
0
11
0
17
0
0
0
52
0
0
22
28
0
0
22
0
25
0
15
5
33
0
0
0
0
4
23
20
14
18
0
18
0
1
17
26
5
0
16
0
0
0
0
45
0
2
2
0
18
9
0
19
14
8
0
0
0
0
8
14
0
0
24
28
0
0
15
0
0
0
35
0
0
0
0
32
0
31
0
0
0
21
12
0
0
21
2
0
0
12
0
41
0
33
14
1
0
0
3
0
0
0
9
0
37
1
0
25
0
0
0
0
125
203
0
27
0
75
0
0
0
0
29
38
0
0
0
0
47
30
0
11
13
0
0
0
93
47
0
0
36
75
35
0
0
0
49
42
0
7
0
21
56
36
0
0
0
0
4
22
25
0
2
95
67
17
0
0
12
22
16
9
5
0
0
0
0
51
17
21
55
0
12
0
0
13
50
28
0
0
0
0
0
0
49
81
16
0
0
0
9
38
10
18
0
9
28
0
8
0
16
17
0
16
6
3
61
18
16
0
0
23
40
0
0
0
0
0
38
33
0
0
71
23
0
0
3
0
0
0
0
46
68
26
25
0
9
0
0
0
0
20
31
27
0
10
0
4
0
0
25
39
0
0
0
0
20
6
0
0
0
0
17
2
0
6
0
0
9
9
43
42
35
0
0
0
49
35
49
0
0
0
0
5
8
0
21
24
0
0
17
1
0
16
21
0
15
0
13
0
0
17
0
14
0
3
0
0
0
4
1
0
0
13
4
3
0
0
9
74
59
0
0
0
10
0
9
0
0
13
0
3
31
0
38
30
3
0
0
0
0
80
81
89
84
80
24
36
0
0
0
43
61
0
0
5
8
17
33
24
0
1
0
0
0
5
21
0
0
0
15
29
0
0
9
0
0
6
8
6
0
0
0
8
14
0
10
14
0
0
0
7
0
8
6
0
163
237
0
0
35
0
31
0
26
14
0
0
0
13
0
28
9
0
34
10
0
0
0
23
24
0
26
10
0
0
19
0
0
8
7
17
49
41
42
0
0
0
0
0
0
23
5
14
62
0
19
0
0
0
27
0
0
0
0
0
30
34
0
27
0
0
7
3
5
0
0
0
16
0
0
18
0
0
7
0
0
0
0
0
0
0
12
5
18
9
9
0
16
2
0
155
102
7
43
0
0
0
0
33
44
39
0
3
0
12
21
0
0
0
6
0
15
0
0
16
0
1
4
0
0
0
46
0
36
6
9
29
0
0
0
0
10
0
3
3
0
16
0
1
0
0
13
6
0
0
0
0
25
7
0
36
0
6
26
20
0
0
24
0
0
2
10
0
4
10
0
32
14
0
31
37
0
28
53
3
28
8
0
13
0
0
2
44
0
0
39
32
0
36
0
33
0
17
0
0
0
30
0
14
24
0
40
1
8
0
16
7
7
2
25
7
0
0
32
146
23
17
34
0
0
67
0
17
10
0
0
0
0
2
16
4
27
32
0
7
42
0
0
0
0
60
51
0
0
0
7
11
25
0
0
0
30
26
8
1
0
4
0
0
0
0
11
33
7
13
0
0
0
33
72
39
0
15
0
0
0
0
41
64
37
0
35
61
15
0
35
8
12
0
0
0
20
0
0
0
158
163
0
0
0
0
14
38
0
0
21
0
0
0
0
11
18
0
35
62
0
0
0
0
55
14
0
0
0
35
62
0
0
0
0
22
40
0
0
88
89
12
0
0
0
23
0
0
20
32
22
0
0
32
0
0
27
0
0
39
39
41
0
0
0
0
0
50
21
0
14
0
2
13
22
0
4
20
18
0
13
20
0
16
0
34
75
10
0
0
0
37
18
26
43
0
0
0
0
0
4
5
0
9
0
17
0
3
0
9
29
0
2
7
1
0
25
0
2
0
0
12
5
0
11
11
0
19
0
0
7
7
8
3
0
73
89
0
0
19
5
0
32
0
42
3
0
0
48
0
0
0
0
0
0
87
76
63
21
66
58
26
2
0
0
5
80
0
0
0
34
0
12
9
5
4
1
9
4
2
20
0
0
0
0
15
1
3
0
0
0
0
10
8
4
0
0
9
0
0
10
0
4
0
0
0
0
5
0
34
0
20
182
86
0
0
0
0
13
48
0
52
80
11
0
12
0
28
0
0
0
0
6
29
0
0
0
0
0
0
2
0
16
0
0
33
0
0
13
0
0
23
0
0
0
13
0
50
10
3
24
15
15
13
1
0
0
0
23
18
0
0
0
0
5
2
0
0
3
26
17
8
8
5
16
0
4
12
24
17
0
14
26
13
8
10
11
0
0
3
0
0
0
0
5
6
0
156
99
0
39
0
29
0
9
0
0
0
0
0
0
5
0
0
39
0
0
6
3
14
0
1
0
0
0
0
2
0
22
0
26
0
0
0
0
0
47
0
6
12
0
8
4
0
13
0
10
11
0
3
0
48
5
0
25
0
7
0
0
0
24
0
9
0
18
0
11
28
0
21
0
22
0
10
0
0
0
0
0
0
3
11
13
0
11
0
0
1
6
0
0
0
15
0
24
2
0
43
0
36
18
39
0
0
0
14
30
0
0
0
59
0
0
0
0
0
0
0
0
0
133
122
6
0
21
0
0
0
23
65
0
13
35
0
36
37
0
0
32
0
0
42
3
0
0
0
24
25
0
0
0
79
54
0
31
0
20
56
41
0
0
1
44
20
0
0
36
0
0
0
0
0
0
0
43
47
0
19
0
4
0
0
0
9
0
10
63
0
0
79
24
0
0
1
0
2
24
0
0
43
59
58
0
0
0
0
8
0
0
0
44
66
4
0
0
0
13
0
24
2
8
88
0
10
8
0
45
28
22
0
0
0
75
50
20
0
0
0
55
50
0
34
70
0
0
0
58
55
24
0
0
21
33
17
0
43
4
0
12
7
0
0
0
7
74
40
8
0
0
0
0
50
35
0
0
0
0
29
0
0
28
9
0
13
20
32
40
32
0
0
0
0
0
0
10
0
0
0
28
49
29
6
16
18
1
0
0
3
2
2
0
0
21
4
0
4
12
0
2
0
22
0
22
0
18
0
0
1
0
36
0
0
0
0
6
24
0
44
53
53
0
0
0
0
15
19
0
0
26
9
21
0
0
0
0
22
80
36
49
99
48
41
34
0
0
0
75
64
0
0
10
19
7
24
36
1
7
0
0
0
0
13
0
0
0
14
1
13
0
0
0
12
0
0
0
0
4
0
10
20
0
0
4
20
13
8
8
7
0
18
0
3
0
39
239
3
0
0
38
0
0
0
20
0
0
0
0
0
0
0
0
50
0
22
52
1
11
43
12
41
5
30
0
0
12
7
29
25
0
0
0
40
0
0
0
11
0
0
0
29
33
34
0
5
20
8
11
0
0
0
5
0
0
14
0
38
12
4
0
0
4
0
0
0
2
0
0
0
0
11
0
0
19
0
0
0
21
0
0
0
4
0
43
0
39
0
1
21
0
156
100
5
0
0
41
24
13
15
16
0
8
47
0
5
0
0
33
22
0
27
0
12
0
36
10
24
4
17
8
0
29
0
0
20
0
13
12
0
9
2
0
0
14
0
0
53
0
2
0
0
0
12
34
21
0
0
0
21
0
0
0
6
6
0
0
0
0
23
0
22
0
18
0
0
0
57
0
44
14
0
18
4
0
0
0
0
53
0
0
25
27
0
26
0
21
20
0
4
0
21
0
0
0
4
0
38
26
0
0
0
12
0
10
0
22
17
10
32
5
0
0
0
255
57
0
83
0
61
0
0
60
0
0
33
3
0
45
0
0
41
5
0
12
7
8
0
0
115
24
0
0
49
39
64
0
0
0
53
45
15
0
0
0
12
45
7
26
21
0
71
35
7
0
0
0
28
0
0
0
10
0
46
0
0
61
56
0
0
14
0
0
0
30
68
0
0
0
6
0
0
0
72
103
0
0
0
0
80
49
15
44
0
0
5
11
0
5
0
3
31
11
17
0
0
47
0
46
0
0
0
46
15
13
0
0
62
62
26
6
0
0
63
21
0
0
0
23
26
0
19
30
1
0
0
0
49
30
6
0
10
0
1
10
0
0
0
0
30
34
0
0
0
0
0
26
30
11
9
0
0
13
0
14
30
23
16
29
46
19
0
0
0
71
45
13
20
16
12
7
0
0
8
24
0
0
11
25
0
10
0
5
2
1
0
31
8
0
0
16
9
12
22
10
0
15
0
0
25
0
0
13
18
13
4
0
11
24
32
0
24
46
104
0
3
26
2
8
0
0
2
0
0
0
0
0
0
80
23
26
51
53
25
19
0
0
0
49
107
0
0
0
38
32
17
34
11
13
9
0
0
3
8
9
0
0
5
7
0
4
0
0
0
15
8
7
13
0
0
2
0
0
6
9
6
0
13
0
0
0
4
1
10
0
15
0
49
255
0
0
0
2
0
0
0
3
0
0
44
68
0
0
5
0
0
0
44
0
6
22
0
11
0
30
0
5
0
0
17
0
23
0
34
0
1
1
0
0
0
0
41
21
33
6
40
12
11
0
0
0
9
21
0
0
0
36
0
20
0
0
4
0
18
5
0
44
5
24
2
13
7
5
7
0
0
15
0
13
0
0
0
16
33
1
0
0
2
0
0
10
6
0
153
97
0
29
0
0
25
0
19
0
22
17
0
21
0
37
0
20
0
0
0
0
42
0
0
14
0
0
0
12
14
0
0
9
12
1
9
0
12
16
12
0
0
28
0
0
0
8
0
11
12
12
1
4
0
3
0
14
18
8
3
27
6
1
0
53
0
0
10
1
0
0
0
0
10
0
55
0
0
0
0
16
0
50
0
4
0
11
42
0
0
0
0
20
0
3
0
0
10
0
0
0
23
1
26
0
21
0
0
10
13
0
0
0
0
0
24
43
0
0
0
0
0
211
36
24
79
0
0
19
54
0
14
37
13
0
13
19
0
34
0
0
47
0
0
0
14
13
43
0
0
14
74
0
0
0
33
42
18
0
0
0
16
54
12
0
0
0
41
15
25
0
0
0
10
69
17
0
0
4
0
1
0
0
57
48
43
0
0
0
64
34
0
36
33
0
0
0
26
0
2
115
116
0
0
0
8
36
0
10
50
7
0
0
0
13
24
0
20
38
2
77
0
0
0
15
0
0
78
0
0
0
0
77
39
0
0
40
39
43
6
0
6
0
0
0
52
51
35
0
0
24
18
13
30
0
0
55
61
0
0
0
41
2
21
0
12
0
0
2
69
44
0
0
0
0
10
13
17
37
32
27
31
0
41
59
29
33
7
0
0
3
70
39
0
46
53
0
30
17
45
0
30
8
0
0
24
2
0
6
0
8
1
0
0
4
48
10
0
0
0
0
21
9
0
3
11
3
7
13
0
1
0
20
0
0
0
0
0
0
5
52
58
0
0
7
19
0
16
0
18
0
0
0
0
4
59
28
19
70
15
6
13
0
0
0
59
62
0
0
0
0
17
33
3
15
0
4
0
18
3
0
10
0
0
0
0
4
0
20
0
13
12
9
1
0
15
0
0
8
0
0
0
0
0
15
0
0
3
0
0
0
0
0
3
2
70
255
0
0
0
32
39
14
143
0
19
0
4
3
0
29
0
60
0
0
62
0
0
71
0
0
0
0
0
0
0
0
12
6
3
0
20
0
10
0
0
0
6
0
2
18
37
9
16
37
0
3
0
6
21
0
0
0
15
0
0
20
4
1
0
0
0
24
8
8
0
1
0
12
0
9
8
0
2
0
1
1
2
4
8
10
1
3
0
0
26
0
10
3
22
0
156
103
24
7
17
0
0
0
0
6
0
7
0
28
0
17
0
13
43
0
0
19
2
0
39
0
36
8
0
9
0
16
4
23
1
0
0
0
9
0
0
1
0
0
10
8
0
19
12
0
0
6
0
0
5
7
26
7
0
1
0
0
0
28
0
34
0
17
0
0
0
0
54
45
0
0
59
0
31
21
42
0
37
0
0
6
2
0
0
18
0
0
23
0
26
25
14
49
32
0
62
18
0
0
22
0
15
0
23
0
0
6
17
0
0
23
0
31
0
0
36
0
0
175
16
14
68
0
16
38
0
0
17
25
0
0
0
0
9
35
0
34
21
0
0
1
48
0
0
0
77
60
33
0
0
44
14
0
0
0
2
46
45
1
0
0
0
36
0
0
0
0
0
50
4
0
14
2
0
31
0
0
0
66
50
14
0
60
8
0
1
39
0
0
0
20
0
0
0
5
81
104
0
0
0
70
75
21
45
0
0
20
23
0
0
0
45
93
0
16
0
0
28
0
14
8
0
0
0
19
34
0
0
0
98
61
0
0
53
26
41
0
0
0
12
0
19
50
27
14
0
0
0
9
22
0
0
0
25
57
4
0
0
12
10
0
0
13
0
0
30
51
0
0
0
0
0
36
16
0
42
9
40
0
15
0
0
0
0
0
0
0
0
8
0
13
29
7
1
23
0
0
0
0
0
5
15
0
0
0
12
0
0
10
27
0
0
15
14
4
0
0
0
29
14
0
39
9
0
16
27
0
22
19
13
0
0
0
3
10
0
30
69
16
0
0
27
0
12
0
0
0
0
11
90
38
23
44
85
76
16
0
0
0
87
85
0
0
0
32
10
47
29
8
8
3
0
0
4
0
0
0
0
9
0
6
0
0
0
0
1
0
0
0
1
16
19
0
0
13
0
0
11
11
15
0
1
0
0
12
0
25
9
6
2
3
128
247
0
0
0
10
0
0
0
0
40
0
18
0
0
4
26
0
0
6
0
11
0
7
0
0
0
0
58
21
20
7
26
19
0
26
52
0
0
20
8
7
0
0
26
24
12
1
1
27
0
9
0
0
0
0
8
0
26
7
12
0
7
7
10
34
0
5
0
0
5
2
0
0
0
23
36
0
38
9
0
13
0
0
0
11
0
0
43
0
0
0
1
2
0
0
151
99
0
2
0
41
0
17
34
0
12
3
0
36
0
0
0
2
14
0
0
36
0
0
27
0
10
0
0
45
0
0
0
4
13
0
0
2
20
0
6
2
0
0
8
0
8
0
6
0
0
5
1
15
0
0
0
4
17
14
0
31
0
0
0
4
0
24
4
14
0
0
0
0
0
0
61
0
21
0
0
7
26
0
17
0
0
1
12
28
16
15
0
6
0
17
0
0
0
21
0
9
0
0
16
0
7
4
40
0
26
0
25
0
4
0
13
45
0
9
0
0
102
142
0
12
0
30
25
0
36
32
0
16
43
0
0
28
43
2
0
25
13
0
33
27
44
0
5
22
10
0
0
0
18
55
12
0
0
33
35
48
28
0
42
34
51
42
0
0
0
0
74
0
13
5
0
18
39
0
0
0
56
99
0
0
0
0
0
5
0
21
15
0
0
16
0
7
62
0
55
0
0
0
31
8
0
20
14
1
9
0
40
0
10
51
0
48
66
0
0
23
0
11
0
7
8
6
3
20
44
51
0
0
0
92
29
0
0
53
64
0
0
0
59
23
18
0
0
3
0
20
24
0
0
20
44
0
0
6
59
35
0
0
7
26
64
0
0
0
0
19
35
26
0
0
16
10
16
0
0
44
20
0
0
0
0
0
11
8
19
30
13
69
0
52
0
0
0
0
0
0
0
27
0
4
0
0
0
0
41
4
6
2
34
0
0
0
20
36
2
3
0
0
6
0
20
0
0
3
14
0
13
0
10
0
0
0
17
4
0
17
50
41
0
0
0
55
0
1
0
0
52
67
7
32
95
23
0
0
0
0
23
96
17
0
0
51
0
12
26
13
21
1
0
0
0
7
0
0
0
0
0
18
0
8
1
0
12
0
9
0
7
10
8
0
10
0
10
34
0
22
0
0
19
0
0
0
11
27
0
11
13
0
0
17
163
117
0
36
15
12
15
28
1
3
0
8
0
44
0
0
26
23
0
0
6
0
0
0
0
0
0
30
14
0
0
0
3
0
0
0
0
0
47
19
0
0
0
0
28
56
6
19
0
0
0
0
1
0
0
0
20
31
0
13
16
21
0
0
0
18
0
40
3
34
0
20
3
28
0
21
0
0
4
8
13
18
8
23
0
6
3
0
0
2
10
3
0
0
22
0
154
103
17
17
0
19
0
0
0
0
3
1
0
5
11
13
18
3
50
0
12
0
0
0
29
0
16
10
0
8
0
14
1
0
15
5
33
3
0
4
0
1
19
5
52
0
5
0
0
6
39
0
4
26
20
8
5
4
0
0
8
0
6
29
0
57
0
1
0
16
7
43
0
0
0
7
0
0
35
15
0
35
12
0
26
0
13
0
18
0
0
14
10
0
0
10
14
0
0
28
0
0
4
16
24
0
0
0
30
0
27
0
20
0
0
20
0
0
7
5
0
0
255
101
0
18
0
2
0
0
0
17
0
31
37
0
0
0
0
24
1
0
0
37
22
31
0
8
49
33
0
0
13
0
58
9
14
0
60
54
0
0
0
0
95
12
0
0
2
0
16
62
18
0
40
14
32
20
0
0
0
77
20
22
17
0
8
45
34
0
0
0
0
74
0
0
0
102
142
0
0
0
0
62
20
20
0
0
6
0
18
4
0
19
54
30
0
0
32
71
24
2
0
0
16
0
0
18
0
0
42
27
66
0
0
9
116
32
0
0
0
0
0
0
18
0
62
1
0
0
0
5
0
0
0
0
35
18
13
0
0
45
57
0
0
0
83
0
25
0
0
0
5
42
22
0
23
0
38
0
0
7
0
0
4
42
0
10
0
11
32
22
36
44
0
23
0
8
0
0
24
8
0
0
5
15
37
13
0
0
0
22
29
0
8
17
40
0
0
0
0
3
0
34
0
0
27
0
7
0
30
0
0
0
21
0
0
9
28
0
0
0
34
54
63
0
0
0
0
0
0
68
21
16
19
66
57
0
0
0
39
74
24
0
0
0
19
0
4
29
28
8
0
2
0
13
12
0
0
0
15
11
0
6
2
8
1
6
10
0
0
0
0
4
2
9
8
0
4
18
0
0
0
0
17
0
0
0
0
0
0
0
0
0
0
35
186
73
0
0
12
0
0
0
0
22
0
34
0
6
16
0
0
22
0
9
18
0
10
0
0
54
0
23
25
0
25
67
10
3
53
23
0
14
0
21
0
12
11
0
6
31
15
0
2
0
5
0
0
0
29
12
0
21
0
12
11
0
0
10
5
37
0
0
0
20
5
0
0
15
0
12
0
1
10
0
0
6
0
8
0
25
0
0
26
1
0
12
0
0
18
5
153
100
0
18
0
0
0
0
28
52
0
20
0
0
0
0
0
13
0
0
19
12
0
0
14
0
0
8
19
1
12
12
0
0
25
3
0
25
0
4
17
8
0
0
0
23
0
12
18
0
0
53
0
2
0
30
0
0
6
0
13
36
0
0
0
20
0
35
0
8
0
0
12
13
133
64
3
0
0
9
18
0
0
9
0
0
13
0
22
0
0
24
0
3
0
30
0
0
12
39
0
14
41
0
0
19
0
29
0
0
13
0
0
49
7
23
10
2
0
13
0
0
217
32
30
0
99
0
18
92
0
0
0
51
0
0
24
0
0
30
0
0
0
0
0
0
26
17
28
0
0
0
60
0
0
0
16
0
17
18
0
0
20
10
12
0
0
0
0
55
0
0
4
18
8
12
0
0
0
13
8
46
41
0
15
16
0
24
39
3
0
7
0
0
15
0
0
47
75
0
0
30
0
60
53
51
38
0
0
0
0
19
32
7
86
0
0
0
0
14
50
7
0
0
0
27
25
0
0
0
37
45
48
0
0
0
19
85
0
0
0
42
53
14
0
0
0
46
39
0
0
35
22
9
39
7
0
0
53
4
0
0
29
49
0
0
0
48
43
7
0
0
1
36
0
0
0
8
83
47
0
0
0
63
51
23
0
5
0
10
2
0
0
0
0
0
9
60
35
17
1
43
1
0
0
15
30
0
1
5
0
0
20
6
0
3
0
0
0
0
23
11
25
9
14
0
34
0
0
0
17
2
0
0
34
17
9
0
0
18
0
0
25
52
79
0
0
0
21
15
59
87
39
46
19
0
0
0
70
72
16
0
0
0
52
36
26
15
30
6
13
2
0
0
4
12
0
3
0
0
29
2
1
15
0
0
0
0
0
18
13
0
2
3
3
0
0
9
0
0
1
0
0
0
12
0
9
0
10
0
15
0
0
0
17
35
210
13
0
0
1
18
67
10
37
24
25
87
0
6
0
32
56
29
13
12
0
37
50
11
0
14
0
19
0
0
0
0
0
0
0
0
30
10
0
0
0
0
0
2
4
16
15
21
6
38
0
0
8
0
1
0
0
4
6
0
0
19
26
0
0
0
2
0
0
8
0
4
0
17
6
0
5
0
1
8
0
20
0
0
0
4
0
13
3
0
55
9
11
13
0
0
156
100
0
28
14
11
17
0
0
0
0
42
5
53
29
36
0
19
13
0
1
0
42
0
0
0
18
0
0
0
9
4
0
19
0
4
20
0
26
0
0
0
12
0
0
17
0
17
0
0
0
0
6
5
8
5
26
24
0
49
18
0
0
32
13
0
0
0
2
54
0
0
7
0
0
37
0
0
0
0
0
0
15
14
32
25
14
0
21
0
0
0
0
10
0
0
0
0
21
0
0
0
12
0
0
28
0
0
0
14
9
19
0
0
0
0
0
11
0
0
0
0
167
0
20
20
0
0
144
70
0
30
49
0
63
30
70
0
0
47
0
0
0
43
0
10
15
0
0
0
20
61
71
0
0
0
69
0
0
0
0
54
69
20
0
0
0
52
18
30
0
39
33
4
44
0
0
0
0
77
0
4
0
5
0
22
1
0
25
16
0
0
0
0
38
79
129
0
0
0
11
53
3
0
0
0
59
10
0
0
0
0
49
67
0
0
0
22
0
0
0
37
27
0
12
0
29
31
5
0
0
0
40
57
73
0
0
0
0
2
6
47
55
48
0
0
0
0
9
47
0
0
0
0
22
0
0
0
1
53
26
0
0
38
36
0
0
0
22
56
14
0
0
2
21
0
25
77
2
0
0
23
18
0
58
37
41
26
6
37
11
0
20
18
0
0
0
8
11
8
0
6
37
13
0
16
38
19
0
29
9
10
14
16
0
2
0
0
24
2
0
0
0
0
33
0
0
25
14
5
0
25
0
0
24
39
0
0
6
0
0
0
0
17
61
48
0
0
52
18
69
40
56
29
0
0
0
27
22
0
0
4
35
2
24
0
14
5
0
0
0
0
6
0
7
2
0
0
0
17
0
0
2
4
11
2
16
0
8
0
0
12
14
8
8
0
16
0
14
0
4
0
0
12
9
0
7
0
0
0
15
31
0
5
5
53
255
0
0
0
0
0
18
0
0
0
0
34
0
20
0
0
0
0
3
0
0
0
4
0
0
54
0
42
6
1
24
24
16
18
77
0
0
0
0
0
14
1
49
59
50
0
7
0
1
0
8
3
0
0
4
0
18
0
12
2
0
0
0
0
4
2
1
2
21
5
0
0
0
15
0
0
0
25
4
0
0
16
0
18
19
0
0
0
0
0
0
0
0
0
27
0
152
98
0
0
0
22
0
0
37
34
28
0
0
0
0
1
4
0
0
0
0
30
0
0
29
0
0
0
22
31
0
17
0
0
11
0
2
0
0
0
6
1
31
1
5
11
0
8
0
22
0
0
16
6
14
0
0
26
0
18
0
0
0
2
27
0
8
14
0
0
0
0
0
0
0
0
14
0
6
0
35
0
19
0
0
0
0
8
7
31
0
16
19
0
0
0
25
5
14
0
33
23
0
0
0
53
8
24
0
3
0
0
0
0
24
0
28
23
0
0
0
43
173
47
6
19
0
56
0
0
0
14
0
0
3
0
0
56
0
0
8
30
0
29
0
26
0
0
0
24
10
0
16
0
31
36
0
0
4
0
0
40
0
0
0
0
20
34
0
57
0
16
26
14
8
0
0
0
16
91
0
0
20
8
10
0
55
5
0
10
0
0
0
0
6
89
134
0
0
0
57
20
67
0
0
0
31
31
0
20
0
52
49
0
0
47
60
25
0
24
0
0
28
25
0
27
0
0
37
0
0
0
46
29
82
0
0
5
0
15
42
0
0
3
42
5
0
0
0
1
82
27
3
0
32
0
0
22
0
6
13
33
0
0
61
26
15
0
0
38
41
12
18
0
72
48
12
0
0
0
0
12
8
0
0
0
0
0
22
19
0
28
2
49
6
0
12
16
0
13
0
0
3
39
0
0
36
0
0
0
0
0
1
9
22
17
0
0
0
0
0
9
30
0
24
12
0
10
22
27
0
26
33
0
0
58
30
0
9
23
45
0
2
12
40
0
17
51
45
28
42
0
6
0
0
5
61
30
0
0
14
12
0
14
14
29
0
0
5
2
14
9
0
0
0
6
18
14
0
38
0
0
0
0
0
0
0
7
17
1
7
6
0
0
6
0
57
0
0
0
0
0
14
32
0
15
4
0
0
26
7
5
0
13
18
90
255
0
0
0
24
3
0
0
31
0
0
0
0
5
15
153
0
85
33
0
22
47
0
0
0
50
0
0
0
0
0
18
0
0
43
0
29
64
0
0
51
13
0
11
2
8
19
0
0
0
0
0
0
10
7
6
0
10
3
4
19
9
6
18
31
0
21
0
0
10
7
9
0
0
15
15
8
0
6
5
8
11
0
0
12
13
5
18
5
0
39
0
8
0
6
10
153
100
10
0
21
10
10
0
2
6
0
14
0
1
0
32
0
72
9
3
4
0
0
5
11
0
11
20
0
34
0
0
7
5
54
0
0
0
39
0
20
15
0
0
0
18
0
42
0
0
8
13
0
0
27
0
0
0
0
26
9
14
0
29
0
0
0
0
5
39
0
42
0
36
14
29
0
2
12
15
21
0
0
32
6
41
0
11
4
0
0
7
0
15
3
18
0
0
18
12
30
0
0
30
0
0
0
0
23
0
17
86
0
30
0
0
0
0
12
0
0
164
112
5
20
0
0
74
0
29
6
0
0
0
0
0
0
11
0
0
0
51
43
15
0
56
0
0
8
0
0
25
0
17
13
4
0
0
35
23
0
0
0
0
0
41
0
0
0
42
0
0
0
0
0
0
0
55
39
46
0
0
0
24
35
0
31
0
0
0
4
0
16
145
0
0
0
0
52
57
0
0
8
17
28
0
0
0
39
103
44
0
0
0
42
6
13
5
0
0
47
0
0
26
61
43
22
0
62
70
0
0
0
36
2
0
0
57
79
0
35
6
0
0
25
41
25
21
0
0
0
36
53
0
0
10
0
33
22
0
0
0
0
0
14
51
36
0
0
0
47
49
51
0
2
0
0
0
22
21
21
12
0
9
11
2
0
0
11
59
0
25
0
29
0
0
0
0
0
0
32
8
0
21
0
0
0
24
12
28
8
0
0
0
25
0
9
14
8
0
0
0
8
0
29
23
0
0
14
18
0
0
21
0
0
0
13
3
0
0
29
0
0
0
0
15
0
17
44
39
2
0
0
0
60
12
0
0
34
8
0
0
15
31
0
0
0
0
12
11
0
4
0
6
0
0
0
0
0
9
0
0
16
14
0
5
0
0
19
0
0
20
0
0
13
5
12
0
5
0
24
0
21
9
0
0
0
0
0
11
0
2
2
14
14
144
197
0
0
47
0
7
48
0
0
32
64
22
0
0
0
18
0
0
29
0
51
7
0
37
0
0
53
8
79
6
0
55
34
38
67
0
0
0
0
0
3
0
22
10
44
0
7
0
9
0
0
8
6
21
0
31
9
0
0
0
0
0
8
0
0
0
6
27
23
3
11
1
0
5
0
0
16
0
0
2
25
0
0
6
0
21
0
0
21
0
18
0
27
0
29
12
155
99
0
6
0
0
0
19
0
47
56
0
27
51
0
31
0
30
2
0
4
0
24
19
0
0
0
45
0
30
0
0
9
0
2
15
8
37
0
12
0
0
0
33
0
2
0
0
0
4
9
25
1
9
1
7
0
19
12
19
5
0
0
62
0
0
30
0
0
30
0
1
0
0
5
14
7
0
11
0
9
3
7
0
12
0
0
30
55
16
46
0
13
2
0
0
34
0
0
0
14
0
30
4
0
0
0
0
19
5
0
0
0
0
5
5
3
23
0
0
0
172
110
0
6
73
0
0
46
0
0
0
110
46
0
25
51
0
0
47
0
0
2
0
9
0
0
22
0
37
7
0
20
0
0
0
3
44
62
20
17
0
17
75
52
45
0
12
11
65
1
6
0
0
0
0
88
54
0
51
18
16
0
0
71
0
17
0
22
0
0
72
37
21
0
0
0
0
4
58
27
0
0
0
84
0
0
0
41
77
15
0
0
0
22
0
0
0
28
0
9
34
0
0
0
33
33
41
3
59
7
14
0
0
0
0
13
6
24
85
0
12
40
0
0
0
27
0
0
0
0
16
0
78
8
0
0
1
10
0
0
30
15
25
0
0
28
41
28
0
0
40
51
0
0
0
0
4
31
9
19
31
30
0
7
45
22
4
0
0
0
16
10
0
0
14
13
0
0
0
34
0
0
0
18
39
0
0
23
50
0
0
0
0
17
0
0
16
26
0
0
19
22
0
0
52
0
0
28
6
10
17
42
0
0
0
3
44
24
0
13
0
0
0
39
2
41
49
44
33
0
9
0
18
12
0
0
0
11
0
6
33
21
0
20
0
26
9
0
1
0
7
5
2
8
0
19
14
0
1
4
10
0
0
7
17
0
16
0
0
3
0
5
0
15
31
19
0
5
0
1
5
0
0
2
5
1
0
3
13
0
0
10
9
30
207
79
0
0
0
0
0
0
0
22
28
0
0
0
0
38
0
27
0
0
9
0
0
0
0
0
0
20
0
0
51
0
0
0
0
0
0
0
0
10
0
0
26
7
25
0
0
36
21
0
22
0
0
0
0
7
0
0
6
12
2
48
8
15
4
0
8
0
0
0
0
7
22
0
0
0
3
0
0
15
5
0
0
14
2
0
14
0
2
11
0
10
0
22
0
5
0
157
106
29
0
0
34
7
0
3
0
0
0
0
2
0
59
0
25
0
12
25
17
24
0
0
14
0
0
0
0
0
25
4
0
26
0
23
0
0
0
0
31
0
1
0
0
23
4
0
2
0
0
0
6
0
15
2
0
0
0
2
0
0
54
0
7
0
35
0
0
0
46
0
0
0
7
0
27
31
0
0
0
21
0
0
7
24
0
0
0
6
6
0
0
0
20
0
8
11
0
1
0
55
0
44
0
30
0
14
11
5
0
20
0
0
18
0
0
0
0
0
215
108
0
0
57
0
7
149
0
0
0
109
0
0
66
20
0
20
105
0
0
14
0
0
0
84
0
0
5
16
0
72
0
0
1
22
0
6
0
0
38
0
86
0
0
0
10
0
12
0
44
0
0
0
5
76
0
0
0
4
53
0
0
13
0
0
0
0
0
64
42
0
0
0
0
19
47
0
0
10
19
0
0
3
6
38
0
0
77
56
0
0
0
0
0
30
0
5
0
0
32
51
0
0
0
0
8
37
2
30
27
0
0
27
0
1
0
24
79
5
52
0
0
0
0
36
3
30
54
0
0
0
8
41
15
0
0
26
10
18
0
5
0
0
0
0
25
31
51
0
0
0
0
33
24
0
0
0
0
7
0
8
7
31
42
0
0
5
0
0
0
20
9
10
43
21
0
0
0
8
15
9
0
0
25
0
0
0
0
18
68
40
0
0
11
15
0
23
13
20
0
9
0
0
36
17
18
0
28
49
0
0
7
0
0
0
6
0
0
0
21
0
73
77
53
62
0
0
0
0
38
40
0
0
0
0
0
8
14
11
6
1
5
0
12
0
0
0
14
6
6
0
0
0
0
0
0
0
10
12
0
0
6
0
10
0
30
0
0
15
0
0
5
31
0
0
0
18
0
13
24
3
7
24
0
0
7
0
46
10
0
18
0
44
255
0
0
20
10
0
69
0
9
0
46
1
0
0
30
26
4
0
0
0
7
0
50
0
144
16
5
0
21
7
64
14
0
75
0
26
0
81
0
51
3
53
22
0
38
6
15
0
16
0
0
2
9
31
9
10
10
0
23
3
0
0
0
0
3
0
8
7
0
5
0
0
12
0
0
12
0
10
0
30
0
0
11
0
13
0
19
0
0
11
2
4
8
0
0
8
0
154
106
25
24
0
0
4
0
13
0
21
12
38
0
0
5
0
0
0
0
0
0
0
0
2
26
0
19
0
18
0
0
0
0
33
0
19
0
19
19
15
0
0
10
0
6
7
0
0
0
0
25
2
16
0
22
0
0
26
0
13
25
0
18
0
0
0
0
0
27
0
0
0
23
23
21
0
0
3
25
35
0
35
29
18
0
0
12
24
0
30
15
0
5
0
8
14
0
4
0
0
54
0
10
4
0
1
0
32
38
5
0
29
0
0
47
0
0
0
0
0
255
42
9
41
0
0
124
124
0
110
0
44
0
42
5
0
0
83
60
6
16
0
15
23
0
31
0
0
34
4
1
0
6
19
102
19
0
0
0
0
27
4
0
0
0
0
28
44
4
28
5
0
0
24
43
37
26
11
0
0
41
36
4
0
0
0
20
0
37
164
0
0
42
0
0
24
70
14
0
0
0
0
0
0
0
111
49
0
0
10
60
10
0
0
0
73
0
11
7
0
24
0
70
0
0
0
0
37
68
0
0
0
11
66
38
9
0
0
38
35
8
0
0
0
5
0
5
4
4
29
0
0
0
0
48
72
0
8
0
10
26
48
0
0
6
12
0
0
80
20
0
0
0
0
13
54
15
3
0
0
0
0
0
18
27
0
0
15
43
0
0
2
0
0
8
12
0
0
18
0
0
18
35
0
0
3
0
0
0
0
9
39
29
0
0
0
0
14
0
0
8
0
56
0
0
26
15
0
15
20
2
0
0
31
0
0
0
6
0
11
90
59
20
5
0
0
0
0
2
25
10
24
0
0
0
11
29
15
21
21
0
8
14
25
17
0
0
6
0
0
0
0
2
0
15
9
6
0
3
0
0
8
18
0
0
0
21
7
0
0
2
0
45
48
0
4
0
0
0
9
6
0
13
0
15
1
10
0
0
1
0
0
0
132
232
0
0
0
0
0
5
14
21
0
0
4
0
7
0
0
0
26
0
46
0
0
0
0
0
0
0
11
28
0
0
13
0
51
0
0
0
49
0
14
0
54
1
40
0
5
8
0
0
0
0
0
0
0
6
8
0
0
0
0
0
20
0
3
6
0
10
9
13
0
15
0
9
8
0
28
0
30
0
0
0
0
19
9
0
5
23
17
9
0
0
0
1
24
0
22
0
157
102
13
0
0
19
0
0
50
12
24
0
35
0
0
7
0
0
2
0
0
0
32
0
2
0
3
31
0
24
0
0
78
0
5
0
0
0
35
0
0
0
5
6
25
0
8
24
0
10
0
36
0
0
0
0
17
0
14
7
0
0
0
12
19
0
0
1
0
0
0
17
28
0
0
32
0
54
0
0
8
0
14
22
0
26
3
15
0
0
0
6
0
20
0
30
0
0
23
11
0
0
8
18
7
12
0
0
10
0
41
0
0
0
4
34
27
0
0
0
0
211
28
9
14
0
84
22
0
0
79
0
0
55
2
19
40
0
12
0
0
0
0
9
82
0
0
3
21
53
0
0
25
0
0
22
0
0
0
53
0
25
0
0
46
11
47
0
0
0
7
0
0
27
22
26
0
0
10
64
0
0
14
49
0
0
11
0
24
105
107
0
0
0
3
20
23
38
0
22
35
0
22
0
15
46
55
10
0
0
0
45
55
0
0
0
58
65
44
40
0
1
0
0
58
16
0
0
0
0
0
0
0
83
0
35
34
0
0
0
0
0
75
20
0
0
19
0
0
0
56
16
2
0
0
0
36
15
0
0
0
4
12
0
0
61
27
16
0
0
0
21
32
0
0
3
21
35
27
14
39
42
0
0
9
15
0
0
0
0
0
19
20
0
0
4
27
4
14
0
0
0
12
20
12
0
0
27
22
21
0
0
0
0
74
0
7
17
33
15
0
0
16
25
33
0
30
50
0
0
59
0
0
0
0
0
0
0
40
72
75
76
23
0
0
0
0
49
32
62
10
0
0
0
0
21
17
4
6
0
0
0
3
13
10
0
0
3
18
2
15
0
0
4
7
8
1
0
0
4
15
0
6
1
11
0
0
0
0
6
0
14
29
53
5
0
51
0
0
21
13
48
0
23
0
0
0
0
3
8
0
9
0
13
203
78
0
10
0
0
25
18
12
0
89
5
0
89
28
0
40
13
21
0
0
42
0
40
12
0
5
0
46
0
55
5
23
0
0
0
22
0
0
0
12
12
16
5
0
0
20
0
17
16
0
0
0
1
0
0
0
16
4
27
21
0
14
0
21
21
6
0
0
1
8
43
0
0
0
3
0
0
26
0
8
22
9
0
0
4
0
0
4
0
9
0
3
2
0
0
15
0
156
95
0
10
0
0
8
0
23
0
0
0
0
0
0
17
0
0
24
0
46
1
41
0
0
0
3
39
0
0
2
0
0
0
9
0
7
0
15
0
19
6
30
0
0
0
0
0
0
6
12
10
0
1
0
13
28
0
0
24
0
27
0
31
0
9
23
2
16
0
28
22
9
9
0
40
0
13
0
8
0
0
0
0
5
9
0
10
0
0
0
5
14
0
30
0
47
0
15
2
52
0
0
2
0
28
13
20
0
0
0
11
21
28
0
0
0
0
0
0
0
217
51
0
0
20
50
0
143
7
0
25
56
0
0
0
51
0
0
56
0
6
0
35
49
0
0
29
36
0
0
28
10
10
0
0
0
1
33
15
0
122
0
0
42
62
10
0
24
0
0
0
18
105
0
0
0
6
0
38
6
0
0
35
23
0
0
62
162
0
0
0
0
12
23
14
18
0
19
0
0
9
0
45
43
42
0
0
30
58
0
0
0
64
29
0
0
0
27
47
16
0
0
12
5
59
3
0
0
0
0
67
55
7
0
12
0
40
19
0
0
0
47
21
16
0
0
26
0
0
38
0
59
0
0
0
0
30
36
12
0
20
0
0
26
0
0
40
0
0
0
0
40
4
0
0
1
0
21
47
19
0
14
2
0
0
19
57
0
0
0
52
6
0
0
0
0
2
16
0
26
0
0
0
15
13
0
8
0
26
27
0
0
0
29
25
0
0
0
61
0
0
1
0
11
0
0
67
8
0
22
27
0
0
0
21
35
47
78
27
0
4
0
0
0
43
48
0
4
16
0
3
0
13
6
29
0
3
8
0
14
13
15
0
0
0
26
8
0
0
0
14
9
0
0
11
0
0
7
0
3
0
15
0
7
5
5
13
1
12
0
11
39
5
0
0
1
0
0
13
11
22
0
22
19
3
5
0
11
0
19
24
0
59
255
0
0
25
0
0
26
0
0
0
0
0
0
0
0
0
1
0
31
121
30
0
0
0
16
0
29
21
58
0
48
0
43
0
5
0
0
0
0
45
25
12
0
18
35
26
0
0
0
0
0
5
34
0
9
30
9
0
0
0
12
2
27
0
0
12
23
8
0
4
0
13
0
0
21
0
2
11
2
0
0
0
26
3
24
11
0
0
5
0
15
0
0
0
9
0
28
31
154
99
21
0
0
9
7
0
49
0
89
55
10
1
5
0
2
7
0
20
0
0
9
1
0
0
0
0
0
37
0
43
0
0
1
11
4
8
0
0
0
16
9
3
0
34
0
0
8
5
0
18
0
29
0
0
40
0
2
1
9
24
0
45
0
0
0
0
12
0
0
0
0
0
0
8
0
46
10
30
15
0
0
4
3
7
0
11
12
0
13
1
0
25
0
0
12
0
22
0
30
0
8
11
0
0
0
16
0
0
4
0
18
0
0
34
15
15
0
0
0
253
15
0
6
28
0
15
102
0
0
81
0
0
6
33
33
0
0
169
20
0
0
0
0
0
0
0
0
0
0
100
32
0
0
25
42
49
0
1
0
16
0
29
1
0
0
23
0
0
2
16
0
62
35
0
1
57
16
0
35
29
0
0
0
15
56
38
52
0
0
0
46
7
0
4
35
15
0
0
0
54
0
0
0
8
0
0
0
0
39
0
0
0
39
99
40
0
0
81
28
58
0
0
36
34
7
0
0
3
33
20
18
0
0
0
25
0
2
53
0
0
0
6
51
31
0
0
11
11
10
0
41
19
0
0
44
0
33
66
18
41
0
0
11
0
0
17
59
45
19
0
0
13
46
0
13
7
0
37
0
0
0
30
11
7
12
0
0
0
0
0
8
10
1
5
17
0
19
18
20
0
24
0
0
0
30
20
0
21
31
27
14
0
0
2
83
0
0
21
38
6
0
37
47
25
0
75
28
0
0
0
0
0
12
78
59
68
11
0
0
0
0
58
5
40
14
21
10
0
0
1
35
25
0
6
13
0
0
0
16
0
0
0
0
0
13
15
5
3
0
5
0
8
11
1
9
0
0
0
3
7
7
0
0
15
10
0
0
0
14
64
27
0
0
0
4
18
0
0
0
0
0
35
51
14
0
0
20
0
41
10
0
123
255
0
0
0
13
0
1
0
23
27
0
19
0
16
23
7
0
34
69
10
0
0
0
8
68
0
11
0
10
20
66
15
8
7
0
0
0
0
0
27
0
24
64
32
0
0
6
0
0
9
10
0
0
0
11
0
1
0
0
2
0
0
0
7
0
5
0
0
35
0
0
0
23
4
20
0
7
12
0
2
24
30
0
0
0
0
15
15
2
0
0
0
5
16
0
9
8
0
154
95
0
10
0
26
18
0
21
0
3
0
0
0
2
0
30
21
0
39
7
0
0
0
40
0
0
35
0
0
4
27
24
0
13
0
0
0
1
14
9
1
0
0
0
13
0
14
0
0
0
0
3
0
0
0
39
4
0
19
0
0
4
35
0
8
15
0
0
0
7
15
9
9
12
0
0
0
0
0
0
5
0
20
0
0
0
4
34
5
0
0
0
23
8
0
4
0
0
0
2
0
6
2
0
13
17
8
0
18
3
16
27
0
40
0
0
10
0
0
0
251
24
13
41
0
71
69
0
0
70
58
0
0
64
23
15
0
0
27
0
44
41
0
0
78
0
0
22
2
0
17
20
0
0
38
29
0
0
0
50
65
70
19
0
0
0
0
0
0
37
62
3
0
22
0
0
10
59
0
0
29
0
0
29
74
137
0
0
0
0
4
60
37
0
12
0
0
46
23
19
0
12
25
0
6
0
0
0
13
0
0
22
0
2
6
84
0
0
0
37
50
56
0
17
0
0
0
0
10
71
0
6
52
31
9
13
3
0
0
26
11
0
0
70
34
1
0
0
0
28
0
41
26
28
0
0
0
9
0
0
46
20
30
42
0
0
0
0
20
16
0
17
0
19
51
62
0
0
0
28
10
0
0
0
6
26
6
0
18
26
0
0
39
15
23
0
0
8
11
1
0
0
0
4
0
0
0
0
0
0
0
48
17
0
0
17
88
0
0
72
6
0
14
0
14
0
13
1
0
0
0
52
67
72
87
5
5
0
0
0
35
39
0
0
16
0
0
0
8
39
4
11
16
0
5
7
1
0
21
0
0
0
0
2
0
5
0
0
0
0
0
3
8
0
0
13
0
9
32
0
0
20
1
0
0
0
15
18
0
34
43
0
0
0
0
0
25
0
0
13
0
17
70
22
0
0
0
11
19
11
0
24
211
145
0
13
27
0
0
26
0
0
0
0
2
61
0
0
0
0
19
0
0
46
50
0
0
0
20
0
0
0
0
0
0
0
0
0
0
0
0
24
26
45
0
20
0
4
2
0
0
0
0
0
15
12
3
17
0
0
0
25
0
7
18
26
0
0
0
20
0
8
5
8
0
34
0
0
0
11
8
0
0
0
15
0
0
20
7
12
0
0
31
28
13
0
19
0
0
37
2
153
95
0
35
16
0
47
0
8
0
0
16
0
7
12
3
23
25
0
59
0
13
18
0
0
0
0
34
0
0
0
0
6
0
1
55
0
25
7
0
0
26
12
20
5
0
19
0
0
25
0
46
0
0
34
0
0
0
1
0
18
0
0
39
0
0
9
11
30
1
10
10
0
55
9
0
1
0
0
5
0
36
0
27
10
20
0
13
0
0
32
0
0
24
0
11
31
0
0
38
20
3
22
0
0
31
8
12
1
0
27
8
9
0
0
0
14
9
0
0
0
215
35
38
0
0
51
32
0
16
154
31
0
0
0
0
66
19
0
0
0
22
4
0
14
2
0
22
40
14
15
0
0
0
69
37
31
0
0
6
35
27
0
0
0
0
0
0
0
28
73
58
38
0
0
55
24
0
30
7
0
8
29
8
0
55
95
0
0
20
17
0
15
3
21
0
0
0
2
15
0
23
5
16
38
0
0
0
0
26
0
14
33
9
0
0
95
28
0
0
0
54
93
9
0
0
0
39
28
0
33
0
0
0
0
46
0
0
26
34
0
13
29
0
0
0
71
68
20
0
0
0
0
20
40
52
25
0
0
0
0
0
0
56
44
42
0
1
0
0
0
41
54
41
0
6
13
0
0
0
8
47
42
0
0
0
30
14
19
0
39
0
0
0
9
13
15
2
3
21
0
7
39
0
11
34
18
0
16
0
0
0
61
0
78
0
0
106
0
0
12
27
20
15
5
29
0
0
0
0
31
70
73
54
38
0
0
0
0
31
65
41
0
13
9
0
0
1
19
3
22
0
2
0
5
3
1
0
23
0
8
1
1
2
4
9
1
9
5
24
2
0
9
0
19
2
0
4
0
2
0
0
9
1
4
0
1
21
0
1
50
0
0
5
0
0
27
0
0
0
0
8
103
75
0
0
3
0
8
20
10
0
75
255
0
0
0
0
0
57
0
11
0
0
38
0
0
27
0
0
0
0
0
18
0
0
5
34
0
1
0
20
0
14
0
0
0
11
0
0
0
25
6
0
8
12
9
23
0
0
11
10
2
4
22
0
12
0
0
0
17
21
0
22
0
15
0
19
14
0
0
0
1
8
0
24
9
0
0
0
0
29
0
11
4
7
0
0
19
0
0
0
0
0
0
2
0
30
0
0
0
29
155
99
14
0
0
0
0
0
24
30
0
22
76
0
1
0
2
0
0
34
0
0
22
7
0
43
0
0
0
30
1
0
0
0
0
5
1
7
0
25
3
0
0
0
0
23
13
0
21
9
0
6
3
29
0
0
0
24
9
0
10
28
0
0
0
0
33
0
15
0
0
0
12
6
0
35
1
16
14
24
0
19
14
0
0
21
0
8
0
35
28
0
0
4
0
21
0
3
7
0
0
7
0
12
0
0
2
0
40
0
0
0
3
20
0
0
15
0
0
0
0
212
25
0
0
89
15
0
69
48
46
0
148
163
0
0
80
127
0
0
54
0
0
0
5
21
0
33
49
0
0
0
33
8
45
0
0
0
19
52
0
0
0
0
25
0
0
0
51
20
49
0
0
0
0
0
43
14
41
29
0
0
67
100
0
0
0
0
0
0
81
0
0
11
10
19
0
13
0
22
67
21
0
0
5
0
0
0
38
2
0
94
77
0
0
0
0
67
52
0
0
0
12
0
0
35
59
54
10
11
5
3
0
0
0
0
0
26
0
0
0
0
5
0
0
0
0
0
71
28
0
0
0
0
18
8
0
9
0
16
35
2
0
0
42
14
0
37
0
0
42
0
49
0
0
0
0
0
68
0
0
0
22
15
9
0
0
23
23
0
27
0
28
0
2
0
15
12
0
0
0
0
23
0
4
0
7
37
43
0
33
41
0
2
9
54
0
67
75
0
0
86
0
0
0
0
0
0
23
57
73
73
93
0
0
0
0
0
62
37
0
33
0
0
3
5
0
42
0
11
9
0
18
0
23
0
23
0
20
0
0
0
3
1
5
4
2
20
5
0
2
0
3
0
0
19
4
5
11
0
4
0
10
0
24
0
26
0
0
45
37
0
0
32
0
16
0
0
0
0
3
74
92
0
0
0
0
12
27
3
0
10
167
154
0
0
33
4
0
97
0
32
33
50
0
0
34
0
28
11
22
78
0
0
0
0
0
0
22
0
8
12
0
5
0
5
0
59
0
0
0
41
21
63
37
8
9
21
0
19
8
0
7
0
12
20
0
42
3
22
0
4
0
7
0
0
0
15
0
12
5
20
0
50
0
6
0
0
2
37
0
0
1
25
19
0
0
2
9
0
6
15
8
21
1
6
0
0
0
0
0
13
155
96
0
22
0
30
0
0
20
0
17
0
0
0
0
8
11
0
21
11
23
0
12
0
0
4
0
13
0
0
11
15
31
20
2
0
2
0
16
26
0
10
13
51
0
0
0
0
19
0
0
0
0
15
6
29
0
3
12
0
0
5
0
18
0
0
0
0
0
0
0
4
0
11
0
32
0
4
3
29
0
3
0
7
0
0
61
5
16
3
0
0
36
13
0
1
3
0
0
7
24
0
0
20
0
0
16
0
24
2
10
14
0
0
16
22
32
0
0
0
0
250
33
0
40
0
0
0
82
0
0
0
101
11
0
4
29
0
0
78
36
0
25
0
32
8
22
33
0
0
0
0
115
20
35
0
0
45
16
0
16
1
63
20
0
0
0
0
53
17
0
0
23
29
32
0
0
0
0
0
0
0
109
125
0
0
0
0
0
38
70
4
1
9
10
9
0
5
8
9
8
51
0
36
71
1
0
12
0
53
38
13
19
0
0
0
0
39
50
51
9
0
0
0
51
0
11
45
0
20
12
0
0
3
0
0
4
27
41
0
0
24
6
14
54
1
0
0
19
0
50
4
0
0
0
0
3
20
23
12
0
34
0
0
0
19
21
26
44
59
30
0
0
5
0
43
41
10
51
0
5
0
0
0
19
0
0
16
16
0
9
24
2
22
0
0
12
0
11
0
0
0
0
6
0
0
0
0
59
0
0
0
0
6
0
71
0
0
84
16
0
67
0
34
0
0
0
0
83
93
52
6
0
0
0
0
54
43
1
0
0
0
0
29
29
28
14
11
0
11
0
0
4
0
6
0
0
0
0
0
3
0
21
11
0
0
0
6
0
0
6
5
23
0
0
8
10
0
30
0
0
15
0
0
9
0
20
0
0
90
0
18
0
22
0
6
0
0
0
0
105
138
0
0
0
18
0
14
2
0
12
52
255
0
0
0
0
15
0
0
56
16
0
0
50
0
3
13
95
0
0
16
0
40
0
0
27
0
34
6
0
0
0
0
0
49
57
67
0
0
11
4
17
6
6
0
12
0
0
9
0
0
1
0
11
0
0
0
0
4
0
1
5
1
14
33
0
14
0
0
9
0
0
16
8
7
0
0
0
22
12
14
0
3
4
6
13
1
13
0
0
13
0
0
6
0
0
0
10
18
24
0
156
94
0
4
0
0
0
22
45
0
0
6
28
0
6
0
44
0
24
0
0
0
2
28
0
27
0
0
18
6
0
0
0
0
5
0
2
20
12
0
5
0
0
0
0
0
40
0
0
0
6
22
30
0
5
0
0
13
0
30
0
45
0
0
32
0
0
37
0
9
0
34
0
24
0
50
0
0
0
0
0
0
0
0
7
0
0
0
0
2
11
0
4
7
0
17
0
31
0
5
0
0
0
42
4
0
0
0
2
0
24
0
28
30
0
26
0
36
9
0
0
220
44
0
33
0
115
48
0
0
90
0
0
0
0
0
10
0
0
23
0
0
55
0
23
28
0
6
0
0
14
64
0
0
27
0
35
75
17
3
0
24
31
0
0
21
56
54
10
55
9
0
0
20
34
0
0
8
16
0
57
96
55
0
0
0
0
32
40
35
0
33
14
0
0
34
0
19
0
0
0
41
0
0
6
55
0
23
66
1
10
0
0
0
0
0
0
5
24
91
0
0
0
43
46
19
0
0
33
31
11
7
27
0
0
7
7
0
0
14
0
0
0
22
0
24
0
0
0
0
31
28
21
0
0
11
17
4
53
9
0
0
41
39
0
0
31
25
12
69
0
0
0
0
0
35
9
0
16
0
6
0
0
24
12
45
0
7
9
16
14
0
12
39
0
11
0
18
9
10
32
0
0
19
18
31
0
0
19
0
5
37
7
0
0
16
40
0
52
35
0
3
0
0
0
21
47
45
113
5
0
0
0
0
11
27
0
0
7
4
3
7
19
51
8
9
0
16
0
0
38
7
7
0
0
0
11
21
0
22
0
0
4
0
0
19
9
0
0
0
5
0
0
0
5
0
3
0
0
0
15
1
0
20
0
8
4
0
69
57
0
0
0
0
0
0
0
0
2
94
124
0
0
0
0
0
26
0
31
0
5
123
255
0
0
66
24
0
0
101
0
123
0
0
0
0
0
28
0
0
0
33
0
64
0
0
12
0
51
0
0
49
0
0
0
0
0
0
0
27
0
33
0
17
10
0
25
3
21
0
0
0
0
33
0
8
12
0
11
5
4
0
20
17
0
0
0
2
18
5
2
0
7
0
19
10
0
13
0
0
0
20
0
1
10
0
0
1
0
7
2
48
0
14
19
0
0
22
0
0
21
0
155
101
35
14
38
0
9
0
81
0
0
31
0
42
4
8
0
0
0
35
8
0
20
36
0
0
0
0
4
2
1
11
2
33
18
0
11
0
0
0
26
0
4
0
29
0
14
0
11
28
0
24
0
0
0
23
29
0
0
17
0
28
0
6
0
0
39
0
23
9
5
0
0
30
0
1
1
20
10
43
0
50
32
32
0
31
0
0
29
12
15
14
0
3
19
0
0
10
0
2
30
0
4
0
6
5
14
24
0
16
41
0
0
14
0
13
0
0
0
0
0
233
30
3
0
41
121
3
0
9
60
0
0
27
73
0
0
107
0
9
0
0
68
33
0
36
0
0
4
21
90
0
0
0
0
34
24
0
0
6
12
44
0
0
0
58
44
0
0
0
0
32
0
0
22
30
0
0
0
0
85
51
8
0
0
10
2
29
11
32
0
0
14
0
2
25
34
1
0
7
0
58
0
0
0
0
45
67
7
0
0
11
19
0
25
76
0
18
0
0
0
5
21
0
56
42
31
0
0
0
32
0
0
41
0
0
0
0
0
35
19
7
0
72
1
8
42
0
0
0
0
12
37
89
0
0
0
0
5
8
1
0
0
43
46
8
7
44
0
0
0
0
25
26
0
0
8
0
39
18
14
17
0
34
0
30
0
0
0
48
17
15
0
0
7
4
0
0
41
22
7
0
5
9
0
26
0
0
0
0
54
31
29
11
9
0
89
0
0
97
0
0
0
10
38
68
60
50
0
0
0
0
74
38
50
0
0
0
0
0
28
27
17
0
0
4
0
0
3
0
22
0
0
4
0
0
29
0
0
7
0
15
0
10
9
5
6
0
0
5
17
25
10
0
0
13
0
3
2
0
21
8
0
15
3
18
0
1
108
0
0
9
0
0
0
33
12
0
73
169
0
0
0
0
0
0
40
0
0
0
30
218
117
0
0
0
53
0
0
0
0
77
0
0
148
12
0
0
18
0
13
0
0
0
0
29
0
0
56
0
0
5
0
30
0
50
60
0
0
17
0
65
23
30
0
20
0
0
0
0
0
19
10
17
10
0
4
0
5
0
12
5
0
4
0
15
10
1
0
1
18
0
28
5
0
0
0
27
0
45
1
0
39
17
0
36
1
11
22
0
0
0
0
0
11
0
13
0
0
11
8
6
159
97
0
0
30
21
0
14
0
0
9
21
0
0
0
19
14
23
37
0
0
16
27
0
29
0
7
16
0
2
0
13
20
14
0
9
0
0
5
1
3
18
0
0
9
0
0
0
0
21
0
6
22
16
0
11
0
0
20
18
0
8
0
0
9
0
20
0
0
0
0
0
27
29
12
19
18
0
0
28
0
0
0
75
0
19
12
3
7
0
0
0
2
0
11
0
18
0
10
0
5
0
17
0
0
0
22
0
0
0
23
33
0
18
0
30
15
0
0
0
53
224
0
0
0
36
34
0
93
64
37
0
138
140
88
0
0
98
0
0
29
13
47
0
0
0
0
9
0
39
0
0
0
0
22
66
20
0
13
45
13
0
0
0
64
36
28
22
0
0
0
23
16
0
0
9
0
0
39
114
60
0
0
0
0
0
14
0
0
0
3
19
34
32
0
0
22
18
10
0
0
43
35
23
0
56
0
69
0
0
0
73
0
40
6
15
39
4
0
0
37
96
18
0
0
5
24
44
1
0
21
0
0
12
44
0
16
14
0
15
0
0
0
0
22
39
0
8
10
0
0
0
0
118
30
0
0
0
9
1
15
33
31
62
0
16
0
0
0
0
41
12
0
0
31
0
0
25
0
44
12
0
38
33
0
0
82
0
0
13
30
12
27
0
0
10
27
0
0
0
23
0
9
21
33
0
20
51
0
0
0
28
0
0
34
0
15
13
0
0
0
0
35
18
108
82
0
0
0
0
0
55
0
0
0
12
7
0
33
6
1
15
0
8
0
7
35
21
35
0
0
0
13
0
36
0
0
0
10
0
19
20
3
0
0
4
3
2
5
0
25
0
11
0
0
38
0
0
5
0
22
7
4
0
15
0
0
59
89
0
0
17
0
0
9
0
16
58
165
0
0
0
3
0
0
19
29
0
35
0
95
255
0
0
0
2
0
0
7
0
0
22
0
0
105
12
34
27
0
0
0
0
0
56
0
4
27
0
0
0
13
32
0
0
7
7
0
0
13
20
8
0
7
14
0
0
15
6
0
33
0
0
0
8
23
0
25
0
26
0
0
2
0
0
20
27
0
24
5
0
0
0
6
0
1
23
0
6
1
0
4
0
0
0
0
0
23
7
0
2
10
24
0
0
21
0
28
2
0
0
2
0
156
98
15
5
0
0
0
23
0
5
5
0
25
0
0
17
0
0
0
19
0
0
0
0
0
0
0
0
6
15
15
0
1
0
0
3
10
0
44
0
0
0
9
0
19
0
27
18
0
0
0
4
0
5
0
8
6
0
0
12
0
0
13
0
30
0
46
0
0
0
34
0
0
0
0
11
0
4
0
33
0
24
0
3
0
0
17
0
8
0
0
0
78
0
0
0
23
0
8
0
0
2
0
0
14
0
5
26
2
0
17
18
0
23
0
7
6
0
0
0
60
175
0
0
57
21
0
0
47
53
0
0
101
96
0
0
0
17
0
28
120
4
0
0
0
0
0
34
0
3
0
0
0
98
0
0
0
0
16
32
0
0
0
67
54
21
0
4
0
45
10
0
39
21
0
0
32
23
30
74
0
0
32
53
0
2
73
12
0
0
0
0
0
40
25
5
0
0
45
13
0
0
0
58
63
75
0
83
0
0
0
50
28
0
15
0
17
0
0
0
49
34
66
41
0
0
0
0
57
7
0
0
13
48
0
0
60
0
0
0
32
44
0
4
12
12
1
0
0
9
15
0
0
61
25
72
19
0
0
1
19
55
37
0
0
0
0
34
56
53
37
53
14
12
55
41
0
0
0
0
47
0
48
41
0
0
62
13
0
0
0
46
23
14
22
8
7
1
1
0
0
0
17
0
16
0
0
46
20
0
1
74
0
0
9
0
0
31
0
0
27
70
73
93
100
0
0
0
0
70
50
0
0
9
0
0
15
40
38
7
0
0
0
0
12
3
10
1
0
0
0
6
2
5
15
0
34
0
9
6
0
0
0
0
17
0
0
0
21
0
0
0
3
0
0
20
0
0
0
0
9
0
5
0
18
0
26
106
0
0
0
0
16
13
0
0
63
134
0
0
0
0
0
29
10
3
0
0
0
11
157
255
0
0
35
0
18
0
34
0
0
36
0
5
120
0
1
0
0
13
0
7
0
0
0
36
19
0
43
0
0
0
0
19
0
0
0
0
0
4
72
0
8
36
0
25
15
6
0
0
0
34
0
2
0
1
0
12
0
1
14
0
34
8
0
0
2
19
0
6
0
1
0
0
19
11
0
3
11
16
18
0
9
2
0
0
0
0
0
3
0
54
2
16
24
0
34
0
0
0
40
0
160
93
0
2
41
1
0
3
0
19
12
0
19
12
4
12
30
22
18
0
6
7
74
0
0
1
1
21
4
16
0
34
4
0
7
8
0
0
14
0
0
0
20
0
0
0
9
0
20
5
10
27
0
10
9
0
11
18
0
31
14
10
0
0
0
13
0
0
12
17
0
0
2
0
30
6
0
14
0
29
0
0
0
10
47
5
49
4
16
27
9
0
0
0
11
10
5
0
34
11
33
0
0
18
0
12
6
0
8
62
0
0
0
19
0
19
0
16
0
0
110
201
0
49
33
0
30
84
0
0
73
28
41
0
0
49
98
0
0
64
48
0
124
22
33
0
0
4
0
0
0
56
15
28
3
0
62
6
0
0
0
0
92
66
2
0
17
0
17
4
25
0
3
68
0
6
61
132
0
0
0
0
0
0
0
30
15
56
0
0
0
27
23
0
13
66
0
0
28
59
0
0
6
0
142
1
0
49
45
0
15
0
17
27
43
0
0
0
0
0
0
84
17
29
28
11
0
0
0
0
47
0
0
14
30
23
50
0
0
11
0
47
0
0
0
0
0
13
29
0
18
17
0
0
0
8
47
17
36
30
0
0
0
0
46
76
0
0
0
1
0
0
16
0
0
0
6
24
0
0
63
18
0
0
15
0
12
44
0
21
0
9
57
0
0
27
0
26
0
0
5
0
86
19
28
0
0
0
101
0
0
53
8
21
0
0
0
28
0
54
68
119
25
0
0
0
0
38
32
0
0
18
49
2
9
41
27
3
0
9
4
20
16
15
0
0
0
7
8
9
19
14
10
1
0
0
10
0
15
0
0
18
0
0
7
7
16
0
4
0
0
0
17
0
7
0
0
0
10
0
8
0
4
0
0
0
62
54
0
0
0
29
0
0
0
43
153
0
0
0
0
0
0
30
23
38
0
0
0
36
198
163
0
0
0
0
3
0
0
0
2
14
0
0
0
0
37
0
59
23
0
12
33
0
70
0
0
1
28
0
0
0
29
23
0
0
0
12
3
23
8
25
32
0
0
12
0
0
8
0
0
20
25
10
2
0
14
15
0
0
0
13
0
18
19
4
15
18
0
0
2
26
0
8
0
0
4
0
1
3
0
23
24
8
13
14
5
6
1
0
0
0
0
10
0
0
0
0
35
0
17
0
157
96
0
79
45
0
0
78
0
0
0
6
30
0
22
0
0
5
0
21
0
0
0
1
30
0
0
2
0
4
0
0
0
11
19
24
0
0
0
0
0
28
3
0
18
0
6
13
2
29
0
14
0
0
13
0
6
0
7
19
10
7
0
0
14
0
4
0
7
0
12
21
1
19
11
22
30
0
0
18
0
36
5
0
7
0
0
0
0
10
0
0
0
0
0
19
5
0
0
0
0
10
0
0
0
32
18
0
0
0
0
42
0
35
0
0
0
0
0
0
218
122
0
23
0
50
53
36
0
0
53
7
0
11
10
0
17
0
70
11
0
0
135
0
0
0
35
53
0
0
37
0
24
0
5
21
30
0
23
0
0
51
0
11
0
15
0
0
0
29
1
0
0
0
4
21
49
0
0
0
65
20
0
0
26
0
0
30
0
35
0
0
0
0
16
38
0
0
9
0
30
100
14
0
18
0
0
0
10
78
1
16
10
28
25
0
0
57
56
0
0
0
0
11
27
36
8
9
0
0
18
75
0
0
0
72
64
61
0
0
0
0
0
0
0
8
20
4
4
55
0
33
6
0
0
0
65
83
80
0
0
0
0
0
0
98
51
1
0
0
0
21
5
0
0
53
5
22
11
0
0
46
3
0
50
0
0
0
49
9
0
0
8
6
8
0
0
48
11
0
0
0
0
13
14
0
5
0
53
13
0
28
0
0
0
0
7
36
33
92
68
0
0
0
0
9
62
0
0
0
21
1
0
0
12
13
20
23
0
12
2
0
0
0
0
8
0
0
28
3
1
0
1
0
4
0
0
0
27
0
0
5
3
7
0
0
14
0
3
0
0
14
0
0
18
13
12
0
0
0
1
0
0
22
22
17
113
0
0
1
0
0
0
28
82
126
0
0
0
0
42
0
60
38
0
0
0
0
10
99
255
0
0
0
0
23
0
44
0
0
17
0
5
0
10
16
0
0
0
20
0
0
3
0
13
38
11
0
0
0
6
0
0
2
45
0
0
53
0
14
21
42
0
0
0
0
0
0
15
16
0
0
5
0
0
0
0
15
1
9
0
0
0
8
7
0
0
0
25
0
18
1
0
0
27
3
13
0
19
4
11
0
0
0
3
0
2
8
0
0
4
16
13
0
0
18
20
0
28
14
4
0
162
97
0
0
9
18
0
0
0
0
17
12
15
4
0
0
0
28
0
14
20
62
0
5
0
0
35
32
0
3
17
8
0
7
0
0
0
3
7
7
2
27
8
0
15
0
0
0
0
0
0
19
0
15
14
0
0
0
0
9
0
49
0
0
11
0
11
0
0
0
2
6
0
0
0
19
2
0
27
32
0
0
7
15
15
9
29
0
33
0
14
0
0
40
23
0
0
0
0
6
28
10
37
40
0
5
14
2
0
65
0
26
0
0
2
7
0
50
0
0
255
109
0
0
0
52
12
0
0
71
58
0
0
153
65
0
0
16
0
0
0
29
49
0
0
16
0
57
0
0
40
0
7
0
65
39
0
0
29
52
14
47
21
24
1
17
3
0
29
12
21
0
23
0
73
169
7
0
0
71
36
0
0
45
0
0
25
0
0
0
68
0
0
0
0
1
0
0
97
11
0
84
0
0
14
36
33
14
0
23
17
8
0
11
0
0
37
16
33
81
22
0
0
0
37
9
15
21
0
0
0
32
43
57
0
0
57
3
49
26
0
4
15
0
0
0
0
16
0
0
2
17
17
65
0
0
35
65
0
0
0
0
72
57
0
0
4
51
3
7
0
9
21
0
0
0
0
48
47
16
0
27
29
0
1
0
11
0
29
54
16
0
0
0
0
11
19
24
0
14
23
0
0
4
31
31
0
0
0
66
0
0
0
0
0
0
50
72
56
32
0
0
0
60
48
24
0
13
30
15
19
24
23
0
26
0
0
0
0
0
9
0
0
0
27
0
2
0
0
0
0
3
0
0
28
0
0
0
14
5
7
16
0
34
0
0
0
5
0
13
4
0
21
0
0
0
12
0
17
0
0
20
0
9
0
87
59
0
0
0
0
0
32
60
83
0
0
0
3
0
27
21
35
18
0
1
6
0
43
154
231
0
0
0
37
0
0
0
26
0
29
0
35
0
0
18
9
160
0
0
7
24
0
0
0
14
16
0
0
0
31
0
48
15
0
45
22
19
2
14
48
0
0
7
20
0
7
0
0
0
19
0
11
22
0
22
14
0
7
59
0
14
0
0
8
1
0
0
0
0
0
0
7
22
0
0
20
0
0
14
0
24
0
0
8
0
0
20
10
0
0
20
0
0
12
0
24
0
13
0
0
0
156
94
0
0
0
6
0
0
26
8
0
0
0
0
55
0
0
0
0
0
6
0
0
0
9
0
0
0
0
35
9
18
0
28
6
23
2
18
0
0
12
0
0
0
17
19
0
1
7
3
6
0
5
0
21
34
0
0
0
0
0
0
9
0
0
30
8
17
0
0
35
0
0
37
21
0
0
0
0
0
51
0
6
0
5
0
10
0
11
0
40
0
0
5
0
10
32
16
0
0
2
0
9
27
0
0
24
6
0
12
0
4
0
0
0
19
12
0
0
0
234
68
0
0
44
41
0
0
59
89
0
0
0
45
1
0
114
22
0
0
108
20
5
0
22
30
0
1
0
0
31
0
0
0
0
0
0
0
52
82
16
69
9
0
0
6
24
4
0
0
0
0
41
1
64
34
0
0
44
57
0
0
30
39
13
50
0
0
36
29
44
5
0
0
0
34
0
57
43
43
0
0
0
54
0
0
63
4
0
0
45
30
0
0
0
15
56
0
7
0
51
0
0
0
0
26
0
0
27
30
0
0
0
90
0
6
0
3
30
31
0
0
32
9
0
39
9
5
0
16
0
8
13
56
5
0
0
0
0
10
0
22
30
16
83
0
0
0
14
36
42
35
0
21
6
0
0
0
12
72
0
0
77
41
0
23
61
0
0
0
38
22
0
0
0
10
0
46
33
0
6
0
0
0
70
2
37
0
0
47
0
4
0
19
0
40
89
59
0
0
0
0
67
51
0
0
32
7
0
8
31
38
5
16
6
8
7
14
42
23
0
0
0
32
0
0
0
5
5
0
0
13
7
0
13
16
5
13
0
6
0
0
0
0
0
21
0
17
0
6
0
2
8
1
12
0
15
0
17
5
15
9
0
15
17
120
0
0
0
0
0
0
76
71
0
0
0
0
52
47
36
53
72
0
0
0
14
26
49
219
110
0
0
1
37
46
0
49
0
19
0
0
0
57
21
0
0
78
120
0
0
0
0
0
21
0
0
36
45
0
0
6
6
0
0
0
22
0
40
1
25
3
25
0
1
0
18
0
4
0
0
0
0
0
0
0
14
0
0
0
0
10
0
22
8
0
36
0
15
0
16
0
0
6
2
13
0
31
15
0
0
10
0
0
0
0
13
11
7
0
7
0
21
0
0
0
21
0
11
10
2
0
159
96
0
0
47
57
0
0
1
0
8
0
36
29
0
27
0
34
0
30
10
0
7
21
0
14
15
0
10
0
0
0
0
1
0
21
0
3
14
2
28
0
0
0
0
8
0
12
15
0
8
0
0
1
34
0
34
0
23
31
40
18
1
0
13
0
0
20
0
0
49
0
0
15
18
0
46
0
34
21
0
0
17
3
19
35
0
11
14
29
0
0
18
40
7
0
54
0
0
12
10
0
0
9
0
2
0
0
18
0
9
19
35
4
0
9
0
0
0
0
243
6
0
83
50
0
0
80
95
0
0
91
4
0
0
73
133
0
0
0
80
0
0
165
0
0
0
91
30
23
0
0
60
43
0
0
0
19
36
0
0
30
47
15
0
7
0
16
0
1
0
45
30
41
0
0
0
14
0
0
0
11
99
39
0
10
0
0
24
14
38
0
0
0
0
3
61
97
0
44
0
3
0
20
23
20
0
7
0
13
26
0
0
0
12
0
2
0
43
0
0
50
28
0
0
1
0
0
56
36
0
0
0
0
22
45
0
0
0
0
0
44
62
27
8
25
10
47
23
6
26
62
80
0
0
0
0
8
21
25
30
2
0
0
77
54
0
0
0
0
4
18
4
23
14
0
0
0
0
0
80
0
0
60
0
0
28
41
0
0
7
70
20
0
0
18
0
0
19
25
0
0
0
20
16
14
0
0
0
0
0
21
15
62
60
106
41
0
0
0
70
17
0
0
6
33
41
0
0
32
0
10
0
11
0
23
16
0
0
0
0
0
27
0
0
4
0
10
0
0
8
12
0
0
0
0
2
0
7
6
0
11
0
0
17
2
11
2
8
5
0
15
0
7
0
0
7
2
0
0
0
0
0
11
85
13
0
0
0
0
7
76
105
0
0
0
0
33
46
77
65
20
0
0
0
0
38
36
109
255
0
0
14
0
0
0
18
81
0
29
1
0
0
33
0
0
0
0
0
7
53
0
9
0
43
37
0
0
4
0
0
77
0
0
0
4
17
15
37
19
0
26
0
0
0
4
0
7
10
38
38
0
0
29
0
19
0
0
0
26
0
17
8
0
0
0
0
0
7
0
36
0
2
0
0
11
0
0
0
2
5
13
23
0
25
0
2
0
3
6
0
5
10
0
10
0
9
21
0
9
24
19
155
99
22
7
0
16
8
0
34
0
0
0
0
0
0
12
0
0
0
0
2
0
0
48
0
10
0
4
27
16
38
2
2
8
0
24
0
0
0
0
0
0
24
0
6
28
0
0
0
5
23
3
0
0
17
0
31
0
0
8
0
0
0
0
0
1
0
22
0
0
7
0
21
11
0
0
0
0
0
21
0
0
41
0
11
2
0
0
0
8
0
16
3
0
0
0
0
0
0
0
0
0
0
8
0
0
32
0
0
0
0
29
0
29
0
37
0
0
0
0
255
0
1
42
0
0
10
68
0
0
0
25
51
0
13
5
0
0
143
58
0
0
22
37
0
0
0
126
0
0
8
0
34
0
0
0
0
76
34
21
0
0
19
10
4
2
0
5
25
0
13
73
82
0
0
0
62
28
0
0
25
0
40
0
0
0
18
6
0
0
19
13
0
0
51
97
5
5
0
2
0
0
0
16
0
0
19
58
42
0
0
0
5
26
70
10
7
0
39
42
0
0
39
21
0
0
0
0
76
60
27
0
0
0
0
33
27
0
37
27
0
0
35
104
27
89
61
0
104
95
8
0
0
0
42
33
0
76
48
0
2
18
0
0
0
24
12
0
28
0
0
0
18
15
0
0
26
15
0
0
70
24
0
0
31
0
0
6
52
27
0
0
23
19
14
25
0
5
0
46
9
19
0
3
8
28
0
0
0
0
30
13
46
89
35
0
0
0
33
0
0
0
7
39
16
5
14
24
1
21
0
0
0
3
0
0
0
0
0
0
3
7
0
0
0
6
0
32
22
0
22
9
0
0
10
0
0
17
0
11
4
6
14
0
0
0
7
1
0
3
0
5
0
0
18
0
10
0
2
24
0
22
0
32
82
0
0
0
0
0
92
95
0
0
0
13
55
91
83
53
0
0
0
0
0
3
28
32
192
218
0
0
0
0
18
0
0
2
0
0
0
30
0
0
0
109
26
0
0
0
115
0
0
25
0
12
2
0
9
0
90
36
0
0
14
31
59
28
12
0
0
0
11
8
0
0
0
24
0
0
1
12
2
0
16
7
6
16
9
12
0
3
2
0
18
0
0
19
13
0
7
5
5
53
9
6
0
9
0
0
0
12
0
18
0
9
0
8
0
0
0
4
0
0
0
19
0
0
0
11
0
8
156
95
0
11
0
50
0
10
29
0
15
12
0
81
0
7
0
32
0
47
0
24
12
0
0
0
16
0
0
16
0
9
4
0
0
5
0
22
1
41
0
36
0
8
0
10
22
0
0
0
0
4
6
8
0
0
23
13
0
24
14
19
17
24
36
49
0
0
11
0
71
0
6
16
27
6
0
8
0
18
4
0
0
32
0
0
9
0
0
7
65
0
0
32
8
13
1
7
3
1
6
33
0
14
32
10
16
5
16
54
19
29
0
13
0
23
0
0
0
56
255
10
0
0
0
87
52
0
0
102
6
43
0
0
70
47
0
0
97
54
0
30
71
47
0
16
0
6
0
0
32
22
0
0
0
67
0
41
0
50
9
0
0
36
32
0
0
0
17
5
51
86
0
0
0
19
0
0
0
50
48
0
6
0
34
12
0
61
57
0
0
0
0
19
68
1
0
0
0
23
0
55
0
4
80
0
0
109
62
0
0
46
29
26
0
0
37
0
0
0
0
29
0
22
15
13
0
0
0
56
63
60
4
39
27
98
47
0
47
0
0
0
0
0
0
16
130
0
85
107
0
0
19
0
5
12
25
0
0
51
0
34
8
28
8
0
0
7
55
11
0
4
0
60
0
17
46
27
0
0
24
51
12
0
52
73
26
0
31
67
0
0
0
24
56
6
4
0
0
32
24
0
0
0
0
0
0
0
31
38
12
94
92
6
0
0
0
60
35
0
31
26
4
18
12
32
8
11
25
0
19
14
0
0
6
0
0
0
0
0
0
0
11
10
20
0
2
19
0
0
12
5
0
22
0
2
10
0
7
0
0
9
18
0
24
0
0
0
1
0
0
18
0
1
0
0
12
18
0
5
0
47
0
100
0
0
0
0
36
105
58
0
0
0
41
99
93
141
0
0
0
0
0
0
2
5
37
61
243
0
0
0
9
3
29
0
26
0
29
26
0
0
0
0
0
14
38
0
35
0
92
55
15
0
0
75
0
46
39
0
0
0
0
0
11
7
30
7
34
0
67
0
22
19
0
0
0
13
0
39
0
0
18
0
1
0
0
9
0
0
5
0
0
30
0
24
6
0
0
4
0
4
0
0
0
21
0
5
1
15
0
0
0
0
6
0
0
12
9
0
0
37
4
0
17
6
0
0
1
19
0
0
153
94
0
0
0
12
0
13
0
37
21
0
0
0
0
27
0
13
1
0
0
12
0
6
0
0
0
8
0
0
7
0
22
10
5
21
0
0
12
0
0
1
0
10
0
6
1
0
37
0
14
25
0
19
0
0
20
0
12
44
6
0
7
12
0
50
0
0
0
0
37
0
16
2
0
0
0
27
0
7
0
0
0
43
0
0
0
2
15
0
0
0
0
0
0
0
32
10
24
9
5
0
0
4
0
0
0
0
30
0
0
0
0
0
17
0
0
0
0
13
211
2
0
0
72
72
0
0
28
158
0
0
71
95
36
0
101
44
0
0
0
13
61
28
0
123
0
0
0
0
30
6
0
0
0
157
7
68
8
7
14
0
0
14
18
42
0
0
0
48
45
4
0
0
56
40
0
0
39
45
33
30
0
0
0
11
0
45
0
0
0
48
86
4
0
0
0
0
63
22
0
30
24
0
22
11
0
7
51
0
2
25
0
16
45
0
0
0
0
0
0
26
49
0
0
91
33
0
0
32
0
16
41
42
41
0
0
0
0
14
28
0
0
0
0
0
0
0
0
0
0
100
113
66
0
0
42
43
5
0
22
0
0
4
21
25
0
14
11
0
17
0
0
0
0
0
33
0
0
0
0
12
69
0
0
0
5
0
0
0
34
27
0
0
17
58
0
5
0
9
53
0
19
6
0
0
0
48
71
9
75
41
0
0
0
54
0
0
15
41
4
0
49
16
21
8
0
4
0
0
0
0
0
0
1
0
15
1
14
28
0
1
8
0
11
0
3
25
0
1
0
10
0
8
1
0
0
8
6
4
9
0
0
20
15
0
24
6
0
2
4
0
24
0
0
0
16
0
0
16
2
12
70
113
0
0
0
25
100
53
0
0
48
124
167
111
23
0
0
0
0
0
32
0
37
35
38
107
254
0
0
0
0
10
5
0
35
0
0
23
0
15
0
9
81
0
62
0
35
10
0
20
43
0
38
0
0
0
13
13
0
0
0
3
0
11
36
0
2
0
0
0
0
0
0
4
4
15
11
0
0
9
0
9
6
27
4
17
0
25
0
17
0
3
0
0
0
5
20
0
0
0
8
0
20
9
0
11
6
18
0
0
6
0
18
0
12
0
2
20
19
0
9
0
0
11
28
17
0
12
0
12
155
95
0
2
4
15
0
13
0
0
0
35
0
21
0
2
0
8
0
0
0
33
7
37
28
24
0
51
0
0
0
6
0
11
2
22
0
0
19
18
5
10
35
20
0
0
0
14
0
0
9
0
0
0
6
0
30
6
0
26
0
27
52
0
0
3
0
0
0
12
0
0
0
0
0
25
6
43
0
22
0
21
0
0
11
0
0
1
28
0
38
0
0
48
0
23
0
1
18
0
0
47
0
9
8
0
0
0
0
24
10
0
0
19
46
0
0
0
0
0
203
0
0
44
65
0
0
24
143
30
0
0
104
41
0
0
133
45
0
0
52
0
0
24
0
52
0
0
99
0
0
0
0
0
19
87
0
34
19
8
0
60
0
0
0
0
28
0
51
96
0
0
0
44
35
0
0
1
43
42
0
6
5
0
0
8
28
0
0
3
15
38
118
0
0
4
32
0
28
8
21
0
78
0
0
68
21
0
0
0
11
39
0
0
21
62
38
0
33
44
0
53
134
82
26
81
152
141
71
0
12
37
22
0
54
0
0
14
43
0
0
0
20
55
46
112
0
0
6
0
0
123
98
10
10
0
0
0
28
0
0
0
0
0
16
7
42
0
28
14
0
26
3
0
0
17
0
13
0
28
0
0
37
0
12
0
0
46
60
0
0
5
23
0
0
32
56
14
0
0
46
30
6
0
0
6
52
33
105
35
0
0
0
13
0
0
0
53
31
21
0
0
26
21
0
21
5
0
0
0
0
0
0
16
0
18
0
2
0
0
24
29
0
3
0
0
0
13
0
19
9
18
0
0
0
0
22
9
0
5
0
0
0
0
0
0
0
8
1
0
0
2
1
0
0
0
11
0
0
4
0
32
107
0
0
0
34
82
0
0
0
106
139
56
0
0
0
0
0
0
0
0
0
0
4
14
47
168
216
0
0
20
38
0
0
10
0
2
26
14
51
84
0
0
0
40
0
6
0
0
0
93
35
0
32
0
0
0
0
0
32
0
15
0
9
45
9
36
13
3
0
12
0
18
0
0
14
2
25
0
16
12
15
0
0
0
0
18
0
0
0
0
9
0
6
0
42
0
21
0
0
0
14
4
0
1
0
0
0
4
0
16
15
0
9
0
0
19
0
0
0
0
2
25
0
20
0
0
10
0
7
1
153
98
5
0
15
5
0
24
25
31
0
18
0
0
0
0
0
4
10
36
0
0
0
9
0
0
20
0
0
26
0
0
0
0
0
15
11
0
0
5
3
0
8
0
0
0
33
4
0
0
0
8
4
5
0
0
5
0
0
20
7
44
0
4
0
21
0
24
0
0
0
0
61
18
23
8
0
0
0
30
26
0
10
0
36
28
9
0
0
2
0
10
0
35
0
16
0
0
0
0
0
0
24
0
19
0
7
0
0
0
0
0
22
0
0
0
0
0
0
78
251
0
35
44
0
0
35
102
79
0
17
40
38
0
43
5
20
0
0
107
18
0
0
164
0
39
0
18
109
9
0
0
0
40
55
19
0
11
32
14
6
60
0
0
0
0
66
2
82
74
0
0
85
11
17
0
0
77
10
0
0
0
0
13
9
0
33
0
0
16
45
0
0
0
6
2
37
36
0
0
3
0
61
69
0
0
29
0
0
51
0
0
7
22
0
27
0
74
81
74
72
116
0
0
0
0
0
0
0
9
9
51
23
0
48
91
74
42
56
0
0
85
99
11
0
114
21
4
0
0
0
50
100
0
17
9
10
0
3
9
15
0
0
0
0
0
45
67
56
86
2
25
74
0
9
3
0
0
33
0
0
0
24
0
70
107
40
0
111
83
0
0
56
28
0
0
87
14
13
0
0
37
0
0
45
42
29
86
77
0
0
0
0
0
0
61
52
0
7
39
0
7
0
6
4
0
2
0
32
15
14
0
5
2
14
5
0
14
12
10
0
0
0
20
3
8
0
10
0
23
0
0
0
20
18
13
0
4
0
0
12
24
0
18
0
4
7
19
1
0
13
10
7
0
14
0
30
0
2
0
11
78
68
0
0
41
90
0
0
57
151
107
0
0
0
44
31
0
0
0
0
0
2
0
75
28
60
248
0
0
32
0
0
7
0
30
0
56
0
20
0
0
0
35
0
0
0
0
0
0
27
9
6
0
0
0
90
145
3
0
0
0
4
64
0
64
0
22
0
0
0
29
0
21
0
13
19
0
4
0
0
3
0
28
0
18
14
1
0
42
0
8
4
0
17
0
0
0
0
14
0
0
27
0
23
0
0
43
0
17
0
0
0
7
0
2
0
10
0
0
13
0
0
0
10
0
18
8
30
0
25
10
153
102
36
0
14
0
0
0
0
0
0
25
0
18
18
0
0
17
0
0
0
0
28
15
0
15
0
0
0
4
25
0
10
3
0
17
0
0
7
0
0
0
10
13
15
0
0
0
0
0
0
14
7
0
19
0
10
9
26
0
0
0
2
21
0
10
5
9
0
3
0
41
0
0
0
0
0
64
0
45
8
0
7
0
0
0
14
16
7
1
0
0
0
13
0
15
0
29
0
0
14
0
7
0
0
33
39
5
7
61
4
0
12
0
0
0
29
0
0
32
227
25
49
0
0
43
57
0
0
0
132
58
0
0
201
61
0
0
87
110
12
0
0
109
0
0
4
0
40
0
0
0
0
18
25
33
0
0
0
0
7
0
42
0
0
0
7
60
0
0
0
5
47
12
0
0
32
54
20
0
46
0
0
36
0
0
11
0
0
70
21
0
0
8
74
23
0
19
0
0
0
0
0
91
24
0
0
31
43
33
0
0
0
19
30
6
0
51
50
0
0
0
0
0
0
0
0
0
0
0
0
0
0
0
0
0
100
89
29
0
0
53
138
0
0
0
17
39
0
16
0
0
222
115
82
90
67
28
0
7
54
35
9
0
26
0
0
0
0
0
54
34
48
28
14
32
0
35
6
19
0
0
7
29
90
140
137
0
0
255
107
17
0
77
0
0
14
43
0
0
0
0
0
8
71
65
37
0
0
0
0
22
0
8
42
23
0
0
13
30
6
0
0
12
7
0
0
0
0
0
4
0
7
6
0
0
0
10
2
0
4
8
0
18
0
14
2
16
0
20
0
0
8
0
0
24
0
0
13
10
0
5
0
14
3
0
0
0
0
0
0
4
0
0
0
0
12
0
10
11
34
84
0
0
38
70
0
0
102
157
10
0
0
0
0
0
0
0
0
30
23
0
0
31
43
13
126
244
0
0
0
0
0
0
0
14
0
0
0
0
0
59
0
1
57
0
7
0
0
0
0
19
1
0
1
17
0
0
0
0
49
0
25
45
0
45
0
35
0
0
0
24
0
0
14
0
18
0
8
16
0
0
0
0
14
0
0
0
6
10
0
0
26
0
0
0
13
10
0
21
0
0
0
0
10
0
0
0
0
26
0
2
21
8
0
13
16
0
14
18
21
0
10
0
6
16
0
0
0
0
0
0
151
99
6
0
0
19
16
0
18
0
0
8
6
20
11
26
0
0
21
0
0
35
8
0
0
0
0
8
12
0
18
0
12
0
2
10
0
0
21
34
34
1
6
0
3
19
32
4
9
0
11
0
23
2
4
32
2
0
0
0
41
0
0
0
0
9
0
0
0
8
3
35
8
11
0
15
0
0
0
15
0
16
21
0
0
1
0
0
0
0
1
3
27
41
0
0
3
0
32
33
17
4
9
0
0
0
0
0
0
10
0
0
19
1
4
0
0
0
0
0
212
37
0
0
76
100
20
0
8
91
94
0
0
0
132
0
0
56
96
43
0
80
35
54
0
120
57
13
0
0
56
0
0
8
37
16
0
11
0
0
72
0
22
0
0
50
71
166
0
0
60
44
0
0
0
37
36
0
10
0
14
25
0
22
24
0
0
40
116
21
0
5
10
0
40
0
0
30
68
0
22
0
0
3
39
0
0
65
39
3
0
0
0
0
0
63
34
11
0
0
0
37
0
25
67
23
0
0
7
47
0
0
0
0
0
0
62
72
85
0
0
0
5
0
28
39
54
23
10
35
0
0
0
53
0
0
64
123
128
81
4
19
89
56
41
0
0
0
0
0
0
0
0
5
31
128
17
21
0
97
55
0
19
0
0
0
0
0
0
128
119
86
6
0
55
0
0
76
0
0
0
28
26
54
113
72
0
0
0
0
0
52
25
24
0
1
0
19
16
6
8
3
15
19
0
0
0
0
0
2
0
16
0
17
0
35
0
16
0
2
7
0
0
0
1
0
0
15
0
37
6
0
0
4
12
0
19
0
14
3
6
11
15
0
2
0
9
5
0
0
11
20
0
0
0
7
6
0
20
27
74
0
0
49
44
0
0
141
105
0
0
0
0
0
0
67
7
0
0
0
1
0
53
42
34
43
217
158
0
0
0
0
0
6
0
31
0
0
21
17
44
26
0
0
0
15
6
4
39
0
22
21
0
0
0
0
43
0
30
0
0
0
32
0
15
39
0
38
0
0
0
2
0
8
17
0
14
19
21
0
22
11
5
16
0
0
7
10
15
13
0
0
0
0
0
5
0
0
18
0
0
20
0
2
14
25
0
36
0
2
0
9
0
0
0
0
14
0
0
0
19
0
28
16
3
0
1
21
1
0
0
31
153
97
0
21
30
0
0
16
39
0
25
15
5
0
0
6
1
0
0
12
0
0
0
7
12
0
4
11
0
0
0
0
29
0
3
12
0
14
7
0
0
0
4
3
0
0
0
0
11
0
13
5
11
0
0
34
11
0
36
17
8
16
28
3
6
0
26
43
0
0
0
0
0
25
14
0
33
0
31
18
40
0
17
0
6
0
34
0
0
0
33
0
19
0
0
40
0
0
0
0
0
0
0
4
0
12
0
20
0
8
0
26
0
11
31
24
4
6
0
0
236
0
0
34
75
0
0
28
133
35
0
0
103
28
0
0
0
40
0
0
0
139
27
0
0
92
81
0
14
34
28
88
8
0
26
36
0
0
43
0
14
0
30
6
26
22
3
59
0
0
70
0
0
0
36
54
0
0
0
14
37
4
0
5
0
27
17
10
0
0
0
17
83
0
12
4
7
0
2
53
0
0
0
0
0
0
0
36
29
32
46
0
27
13
0
55
3
0
0
0
0
166
50
0
33
72
18
0
6
32
72
34
0
12
0
0
0
75
10
0
94
0
3
66
8
34
7
33
39
23
8
0
0
0
0
0
0
0
0
53
73
36
53
60
113
16
17
44
5
0
45
23
0
0
0
141
118
15
0
69
68
58
81
0
96
82
116
1
0
0
0
61
135
0
58
12
0
0
0
0
7
52
72
107
0
0
0
69
0
0
42
61
0
24
48
11
1
31
20
0
0
0
0
21
7
0
0
15
11
0
7
0
8
23
0
0
7
17
0
8
6
13
0
34
15
0
0
0
0
0
1
4
0
0
9
0
2
0
24
0
0
0
0
0
13
9
0
2
0
0
0
16
0
0
2
0
0
4
43
96
0
0
51
0
0
107
92
31
0
0
0
9
0
32
0
0
12
0
0
34
36
24
26
20
6
121
255
0
0
25
4
23
0
0
0
25
0
42
26
0
0
0
40
0
3
0
0
11
56
0
4
0
0
0
0
0
0
0
7
0
0
0
30
24
0
31
13
16
17
0
23
0
0
2
8
20
9
0
0
12
0
0
0
19
37
0
0
9
0
0
0
5
0
15
14
31
14
3
7
0
17
0
0
21
0
26
0
6
8
28
0
34
17
0
20
0
36
0
31
0
0
0
0
0
7
5
0
0
14
33
18
10
151
100
8
16
0
9
0
0
1
0
0
0
25
11
13
0
0
39
0
0
32
0
29
15
0
0
8
5
0
52
30
0
31
0
10
12
0
0
12
1
19
0
0
16
5
0
1
3
0
29
0
0
12
20
1
0
3
0
67
0
10
4
0
15
0
0
0
20
0
0
0
12
0
41
21
0
13
0
25
9
0
25
0
0
20
0
34
0
42
0
52
0
24
0
3
24
17
30
12
0
13
0
0
4
36
0
18
20
0
0
0
13
2
23
20
0
0
0
0
4
255
0
41
64
0
0
0
112
62
0
0
10
57
0
0
76
115
58
0
36
26
59
0
0
130
0
0
0
54
0
0
26
30
0
0
34
8
0
55
13
16
0
0
12
82
27
0
0
0
36
39
2
0
0
19
29
0
0
0
29
0
57
0
4
0
67
129
0
0
0
3
61
0
5
0
4
10
0
0
130
21
0
0
0
0
51
29
0
0
0
8
9
29
21
18
0
0
0
0
70
0
82
53
22
21
1
68
25
0
19
48
72
44
81
98
0
0
0
0
0
76
61
27
36
4
0
0
7
52
59
66
22
75
87
28
31
48
0
0
0
0
0
0
17
215
180
96
55
88
92
83
117
0
50
0
0
28
136
6
0
214
255
255
0
40
232
130
66
0
0
0
0
156
31
17
52
0
0
0
57
89
124
11
12
6
0
0
0
0
0
69
22
0
34
56
18
2
0
0
3
0
0
0
0
0
0
12
0
14
0
10
11
0
0
0
2
0
7
0
0
0
0
9
11
0
0
12
9
9
0
0
0
21
0
23
14
0
1
1
11
0
0
18
15
0
0
7
0
22
1
0
0
11
5
0
12
6
46
88
0
0
21
60
87
110
21
0
0
0
0
22
0
52
0
0
2
2
0
0
13
24
58
14
34
48
237
97
0
0
0
0
0
0
0
0
29
0
60
0
0
56
7
0
0
69
0
7
0
0
0
0
45
54
70
0
39
26
0
0
0
0
10
62
6
58
0
0
0
38
0
0
0
0
18
0
20
0
27
6
0
0
23
0
0
0
7
0
0
28
0
14
0
15
0
17
0
0
0
9
9
0
5
0
17
0
14
0
0
0
0
0
0
2
0
19
22
0
0
28
0
12
0
17
0
22
0
12
0
0
0
4
0
151
99
0
0
0
0
0
0
38
0
22
0
0
0
0
23
0
32
0
0
0
0
0
0
0
0
0
0
0
8
1
0
32
0
0
8
5
0
13
25
10
0
0
17
2
5
23
0
0
5
0
0
26
0
0
6
16
0
9
0
10
1
11
0
1
9
0
0
0
35
35
0
39
0
0
0
0
0
0
0
13
0
0
51
0
2
0
0
14
7
0
17
0
21
0
13
0
6
0
27
20
0
33
0
0
0
0
6
0
32
5
45
0
0
0
3
0
0
0
0
235
33
60
0
0
44
96
66
0
0
83
72
19
0
29
69
0
0
0
201
15
0
0
89
83
0
0
0
64
0
12
0
0
71
0
0
37
0
0
31
0
0
51
28
74
0
0
83
10
0
0
0
50
53
0
0
24
0
0
0
0
0
7
16
12
0
37
0
0
53
0
34
0
18
13
1
0
15
0
19
63
0
0
0
5
47
45
21
0
0
0
21
39
25
0
0
0
9
61
38
0
0
59
45
0
62
26
36
39
68
0
32
3
78
47
13
0
14
0
0
89
45
100
34
0
16
16
42
37
57
0
0
10
28
0
0
0
20
0
104
52
20
5
0
0
20
37
81
95
112
31
255
190
177
149
22
0
0
0
0
0
0
0
0
0
132
168
121
171
0
0
0
100
197
7
0
0
0
9
103
107
29
0
0
17
0
0
0
12
30
0
0
0
0
0
0
0
25
19
0
11
1
0
10
0
0
0
0
0
22
0
34
2
0
0
19
8
0
17
0
15
0
15
0
0
10
14
0
0
4
0
13
0
0
36
0
0
6
2
7
0
1
0
0
0
0
0
0
0
5
0
0
0
0
25
23
61
67
33
0
0
17
68
140
0
0
0
7
34
0
19
0
103
0
0
0
0
0
0
22
24
34
14
14
197
190
0
0
0
23
1
40
149
0
3
0
6
0
0
0
11
11
0
0
0
0
1
41
21
3
60
0
20
0
0
0
2
0
27
0
0
0
17
2
4
2
0
0
9
0
19
15
0
0
0
0
0
20
0
47
0
15
0
14
0
24
7
28
0
20
14
0
9
0
0
0
0
23
17
0
14
0
17
0
5
0
0
0
5
0
19
7
0
0
0
0
0
0
11
0
0
3
3
0
15
0
10
0
0
0
5
0
148
99
0
12
0
0
0
6
1
0
30
5
0
0
15
0
0
17
0
0
0
0
29
0
0
51
0
0
0
1
0
0
0
0
18
0
25
0
5
0
0
0
1
0
0
18
7
9
0
11
1
19
20
0
32
8
0
4
21
43
0
16
0
26
0
8
0
13
0
0
26
0
10
0
0
0
29
0
31
32
0
0
58
0
0
0
10
0
1
0
16
18
0
15
15
1
7
0
0
34
0
15
0
0
30
17
0
1
0
20
0
5
0
6
0
18
0
4
0
0
231
62
0
0
15
84
0
0
0
82
71
0
0
28
127
5
0
21
70
79
0
0
131
44
0
0
65
8
45
0
44
0
2
64
7
0
0
0
0
4
0
0
53
62
0
0
0
49
0
0
0
23
31
5
18
0
20
0
1
10
0
46
9
102
0
0
0
24
0
74
0
12
0
0
0
10
22
25
16
0
0
0
0
37
51
0
0
14
0
5
3
0
58
58
0
0
0
65
73
0
5
36
0
0
0
0
0
0
0
0
0
26
1
9
43
67
161
36
0
0
97
5
12
36
64
0
0
2
51
18
0
7
0
87
39
66
125
77
41
129
42
36
0
0
0
0
0
0
4
0
0
3
0
0
0
16
53
0
96
0
0
0
0
69
0
0
24
102
10
0
0
0
0
128
0
0
36
64
138
85
0
0
0
22
0
0
37
0
0
41
0
0
0
18
0
0
13
4
0
0
12
5
0
19
5
0
18
3
9
0
0
14
0
2
1
0
0
0
1
5
0
0
12
9
3
15
0
19
0
0
14
7
0
0
0
0
0
10
9
15
0
0
0
12
0
20
9
0
8
4
0
0
1
32
60
64
31
0
0
61
69
47
0
0
0
0
0
0
18
79
0
0
0
0
0
16
0
27
42
27
0
15
22
93
255
0
0
29
45
0
0
0
0
0
2
0
29
0
0
0
56
0
0
0
9
0
0
26
0
0
0
0
11
0
9
0
0
0
0
29
32
21
65
15
18
45
8
27
0
0
0
3
0
63
0
29
0
0
26
0
0
0
0
0
2
0
8
0
0
10
6
11
16
17
1
0
0
16
0
0
0
3
16
0
0
2
0
3
2
15
3
23
0
14
0
20
0
10
4
16
0
12
0
2
5
0
4
0
1
17
31
15
152
99
0
6
0
40
0
0
0
1
0
9
71
0
16
7
51
55
1
8
28
0
1
0
0
7
0
29
1
34
15
0
2
12
0
0
0
8
0
26
0
42
7
0
24
0
12
16
0
12
0
0
0
1
0
0
31
24
0
0
0
11
0
0
0
0
6
0
0
11
0
28
0
13
15
0
22
42
0
0
0
0
0
0
28
19
0
61
0
7
36
11
0
0
21
27
69
0
5
25
0
0
4
0
0
16
0
4
0
41
15
30
14
0
3
6
0
11
0
0
255
16
0
31
92
22
0
0
58
81
0
0
19
25
51
0
8
123
19
0
0
111
149
0
0
40
209
35
8
0
0
20
0
0
66
22
0
0
0
0
40
53
70
9
0
0
17
63
10
4
19
47
0
0
47
0
0
11
0
8
0
40
19
80
0
0
2
54
14
19
0
0
0
34
0
2
10
0
29
0
0
0
4
20
11
0
0
16
6
50
31
0
49
0
0
88
39
31
42
24
26
60
49
27
0
0
0
0
42
13
0
0
0
0
0
0
0
0
0
0
78
87
0
0
24
39
77
58
25
0
0
82
36
0
99
130
54
62
28
41
9
70
67
23
0
0
204
23
0
0
0
0
0
5
90
0
0
0
107
0
0
0
1
2
21
0
0
47
0
0
0
0
0
0
20
17
116
108
21
0
0
0
0
0
0
54
78
6
43
32
0
27
5
2
0
13
17
0
0
0
0
23
0
32
10
0
31
0
0
6
8
2
9
20
0
0
0
12
8
0
0
2
0
6
0
0
0
12
9
0
0
18
0
0
20
0
15
6
0
12
3
0
6
11
0
0
0
3
0
4
0
14
52
101
85
8
32
36
38
8
0
0
0
0
24
0
11
7
0
10
0
9
6
0
0
0
10
47
0
25
45
3
46
170
128
0
0
0
0
0
0
0
25
21
0
0
26
45
0
0
58
0
0
0
0
0
0
0
0
10
17
38
7
12
0
0
0
85
0
0
6
27
0
0
26
0
0
0
2
0
0
0
0
0
4
17
6
6
9
0
12
34
49
0
0
16
5
1
0
0
12
4
0
0
0
4
1
0
6
8
0
2
0
8
24
0
25
0
0
1
0
3
0
0
12
7
0
11
0
3
0
16
0
10
0
21
0
7
0
4
2
0
153
98
0
25
0
5
0
34
0
0
0
13
33
0
0
0
0
4
0
22
0
0
5
23
43
0
11
17
0
0
9
0
38
4
4
18
11
15
0
19
0
13
1
0
0
0
13
0
3
18
5
31
26
2
30
0
0
19
0
0
16
24
20
0
17
44
6
0
47
0
0
0
0
30
0
0
0
9
0
76
0
5
0
0
33
0
0
28
0
10
0
10
0
0
4
0
6
0
0
1
5
8
32
0
20
0
0
27
3
0
0
0
0
0
49
0
0
0
0
0
255
22
0
80
22
0
0
68
92
0
0
0
103
19
0
95
89
0
0
0
19
0
7
0
30
77
149
0
0
40
0
8
39
0
2
62
21
0
0
21
54
55
0
0
10
0
22
0
0
2
14
6
10
30
0
0
40
0
0
24
24
24
0
0
0
0
0
3
29
0
0
31
0
0
17
0
0
0
30
0
0
33
40
87
29
0
0
11
12
29
62
26
0
0
0
50
43
46
0
17
0
30
0
0
0
8
44
0
91
0
0
0
0
0
0
0
0
0
0
0
68
109
0
48
19
9
2
0
0
31
11
91
38
30
9
0
0
16
69
0
0
0
4
0
0
93
102
0
0
0
34
0
0
0
0
63
0
0
81
0
0
0
32
0
0
21
0
0
0
0
0
0
0
31
108
118
129
13
0
0
0
0
0
0
30
0
0
16
14
42
2
0
0
14
10
0
0
16
0
1
0
0
0
2
0
0
36
0
0
0
0
23
0
0
0
0
20
1
5
0
1
10
11
0
9
11
17
0
0
3
14
5
0
4
0
6
4
0
0
0
0
0
9
0
0
21
1
10
0
13
73
87
115
37
0
0
69
21
0
0
0
0
0
0
18
0
7
0
0
41
0
0
16
0
0
0
48
63
7
0
4
3
128
227
0
0
0
30
0
45
0
39
0
14
45
0
15
0
0
11
71
0
0
9
11
0
0
60
0
83
0
10
0
0
0
26
0
0
16
16
17
65
8
32
12
8
25
20
0
0
0
8
17
0
7
0
7
0
0
10
0
0
0
0
0
0
0
10
0
39
9
0
0
0
7
0
0
10
0
6
2
11
8
0
5
0
0
0
0
0
0
18
0
6
0
0
12
11
0
0
0
15
8
0
11
17
0
5
0
19
0
8
153
102
19
30
0
0
0
2
0
32
0
23
0
0
46
0
17
3
0
36
1
30
0
0
0
0
49
0
0
1
29
0
0
19
0
2
0
0
20
12
0
0
15
9
22
0
57
0
5
0
0
0
35
0
9
11
4
6
0
9
0
4
16
0
2
0
0
0
6
0
19
20
0
32
0
0
25
33
0
0
0
45
18
0
0
5
0
0
0
0
0
48
0
0
30
12
3
0
0
17
0
14
0
0
3
0
35
0
0
8
0
0
25
0
6
19
13
18
0
0
177
89
46
30
0
0
56
76
0
0
69
63
30
0
0
54
38
0
0
88
23
0
0
46
160
27
0
0
0
9
0
0
0
23
0
30
39
0
10
62
0
10
0
0
57
43
5
0
24
40
35
0
0
15
0
0
14
0
0
65
62
0
0
28
22
35
0
42
0
0
15
9
12
0
61
15
0
23
0
0
15
1
0
15
19
0
0
0
0
46
66
0
0
15
6
0
35
66
3
0
0
0
0
0
0
0
26
0
17
0
0
0
35
79
31
0
0
54
28
0
74
13
0
133
117
21
0
0
15
29
74
87
54
0
0
0
12
0
0
0
0
0
0
0
101
188
79
0
0
0
152
0
13
0
0
2
0
15
35
0
0
13
8
0
0
28
0
0
0
0
0
0
0
138
151
95
14
0
0
0
0
0
55
45
13
0
14
0
0
18
0
0
0
32
0
5
0
1
8
0
10
8
8
3
15
3
0
0
0
21
0
13
0
3
22
1
1
0
0
8
5
0
0
0
9
7
0
22
0
0
0
15
14
0
0
16
0
38
6
27
0
13
28
0
17
2
0
43
30
94
145
35
0
0
6
0
0
0
0
0
0
0
0
11
16
4
8
22
0
1
0
0
0
13
38
37
66
0
0
9
39
87
254
43
0
0
0
34
0
0
8
23
0
0
1
0
0
0
0
0
23
0
0
54
81
33
0
0
0
39
0
0
5
3
0
4
0
0
39
7
20
5
0
0
0
0
0
0
0
10
3
20
42
7
0
0
0
8
11
0
14
0
5
0
7
0
11
0
11
0
0
0
7
34
0
0
24
5
0
0
0
0
11
0
0
11
0
10
14
0
22
10
1
14
18
1
0
7
0
12
0
4
0
0
7
11
13
0
0
5
0
13
152
99
0
0
0
0
55
8
10
0
6
0
0
0
0
0
0
34
0
0
0
9
12
2
46
0
15
0
0
0
29
10
0
17
0
0
0
0
12
2
17
0
0
0
0
0
0
0
0
8
20
0
2
0
19
0
34
1
0
40
13
21
0
20
8
0
6
27
53
0
13
0
5
14
0
0
34
22
0
0
7
0
0
21
0
20
0
0
79
35
0
7
0
0
36
4
55
0
0
0
2
12
3
0
0
11
9
0
12
0
0
31
14
3
19
0
0
0
0
0
84
172
26
0
0
78
48
0
0
45
154
14
0
50
7
7
0
69
46
87
0
0
0
107
13
0
0
1
0
0
5
26
0
7
13
0
5
15
0
91
0
0
0
0
49
3
0
0
98
6
27
11
0
18
0
0
3
19
0
78
0
0
39
0
46
0
0
7
0
0
39
10
28
0
15
7
0
0
0
42
72
0
11
28
0
25
12
29
12
0
0
0
37
52
30
0
0
0
49
36
21
0
0
28
13
15
65
0
0
0
31
13
9
61
10
53
55
167
40
29
192
102
0
0
0
0
0
43
99
60
0
0
0
0
18
38
0
0
0
0
0
0
66
199
198
97
0
0
0
0
160
0
1
0
0
2
0
0
26
0
0
0
0
7
0
0
0
0
0
0
0
72
87
198
44
0
5
0
0
0
26
61
23
18
7
20
10
9
0
0
0
6
2
25
0
16
0
5
16
0
18
0
14
11
0
0
0
16
5
9
0
25
10
0
25
0
12
0
22
8
14
0
17
4
0
0
6
6
28
0
6
30
0
0
0
34
10
0
0
3
0
2
0
3
4
39
95
123
149
115
29
0
0
0
0
0
0
0
9
37
0
41
0
26
3
0
0
1
0
3
0
0
0
17
0
17
10
0
4
5
52
191
176
0
0
255
0
39
0
40
0
16
56
0
43
0
43
0
16
24
3
87
0
0
0
0
31
19
25
0
10
0
28
0
0
0
0
18
65
21
26
59
5
13
0
0
2
0
0
2
0
0
0
0
9
43
0
9
10
0
45
0
15
0
10
0
0
5
0
3
14
18
10
0
11
1
21
0
3
0
0
5
1
0
2
0
0
26
0
0
0
0
0
0
0
0
21
14
0
0
0
0
0
6
4
0
0
32
0
11
30
0
153
99
9
1
33
0
23
0
7
0
18
0
14
0
34
67
0
0
43
0
0
14
17
0
23
0
0
0
6
0
67
0
0
1
0
18
19
0
13
1
0
0
23
10
3
18
0
13
1
0
0
0
46
1
2
7
0
0
0
29
0
0
0
14
0
0
0
0
0
0
0
13
4
8
0
1
0
0
22
62
0
0
15
44
12
27
25
0
0
0
0
39
35
0
0
0
0
0
0
31
0
32
18
29
0
8
0
0
13
65
0
0
0
13
10
0
26
18
0
0
45
253
0
0
66
45
0
0
44
88
31
0
0
126
0
0
0
87
0
40
0
86
122
56
0
33
0
7
24
30
0
1
0
0
0
0
0
56
36
0
0
0
23
0
0
0
0
2
25
0
0
59
0
16
0
39
0
22
33
96
0
0
25
18
26
0
24
0
63
0
0
0
9
43
5
0
28
0
0
28
0
10
0
7
0
1
23
69
99
0
0
0
15
55
51
27
60
0
3
0
0
0
6
46
107
117
46
58
0
30
61
140
18
27
97
88
0
0
0
0
0
15
0
0
0
0
105
129
17
0
0
0
0
211
10
0
65
0
0
0
113
150
255
34
0
0
0
0
0
0
119
68
42
0
0
33
0
0
0
0
0
0
202
213
0
0
0
173
0
0
55
194
145
77
0
0
0
0
0
36
55
4
16
0
5
12
5
3
0
5
4
0
0
0
15
0
0
10
1
0
0
0
0
0
3
0
22
21
0
0
0
15
7
0
0
0
7
0
0
1
0
5
15
0
0
15
14
0
0
2
27
0
0
0
2
38
0
0
0
0
0
13
17
42
80
148
152
0
0
0
0
0
0
0
0
0
22
20
11
0
0
34
0
0
6
0
17
0
6
0
0
30
25
92
5
0
4
0
21
100
229
253
0
0
0
5
0
58
0
0
0
6
0
17
28
0
61
3
21
0
0
0
0
0
0
0
41
0
0
0
0
0
112
0
5
0
10
0
31
17
9
0
7
0
14
12
2
0
16
0
16
31
0
52
1
0
0
0
0
5
41
0
22
0
0
0
0
31
0
10
0
9
4
0
6
0
1
18
17
0
27
27
1
2
0
0
0
7
0
0
0
0
11
0
9
0
0
5
6
14
1
26
0
21
0
7
0
31
17
1
9
0
155
95
0
22
0
0
0
7
0
31
0
0
1
0
0
0
4
16
27
0
0
0
10
19
6
0
13
0
0
0
1
0
4
6
7
3
0
33
8
0
0
30
7
0
0
5
0
2
34
0
9
8
14
0
0
2
15
13
24
5
13
13
13
49
0
0
0
0
0
6
0
10
0
5
18
0
25
0
0
0
31
0
0
0
0
0
0
0
7
0
11
0
0
0
28
6
61
0
7
31
0
0
0
14
0
39
21
32
1
0
8
6
7
0
41
0
8
0
0
0
0
181
13
35
37
0
0
16
108
15
0
28
101
42
0
23
55
0
0
0
0
17
0
0
0
60
0
0
0
32
0
0
46
0
5
0
0
62
74
0
0
42
66
0
0
0
29
9
16
10
0
0
15
12
0
9
0
68
0
0
0
11
32
0
8
0
0
0
38
0
2
0
0
0
45
0
0
0
52
41
0
48
10
0
17
0
10
9
0
0
32
8
0
0
29
25
4
4
24
0
0
11
70
101
43
0
0
0
0
42
93
127
0
74
116
0
0
56
30
0
108
61
0
0
0
23
56
0
0
0
0
0
40
81
0
0
18
0
0
126
255
102
0
0
0
0
46
57
104
0
0
86
0
7
0
0
0
75
5
0
0
0
0
0
0
0
0
182
0
49
134
149
1
30
0
0
19
0
44
96
42
7
44
22
25
4
2
3
0
6
7
6
0
0
5
14
0
11
0
16
1
0
10
0
16
5
10
17
0
21
8
2
0
0
20
25
14
3
0
4
10
0
0
0
18
0
0
0
0
0
17
0
5
0
21
12
6
0
0
0
17
46
137
169
139
27
0
0
0
0
0
11
0
0
21
0
0
0
77
0
5
12
22
12
0
15
0
0
0
0
0
23
0
64
0
4
46
60
153
255
168
0
0
0
4
11
0
0
0
45
4
46
0
43
4
0
0
0
7
27
86
33
0
0
28
0
50
0
40
6
24
0
0
0
0
0
1
0
58
1
22
0
0
0
0
0
0
0
0
0
8
18
0
15
0
0
0
0
0
7
0
0
13
10
9
30
0
12
0
26
0
0
0
0
37
0
0
7
0
0
3
0
0
4
6
16
0
2
3
0
31
0
0
22
5
0
14
0
0
5
3
13
0
0
21
0
0
0
0
0
0
0
155
99
0
0
0
6
0
19
47
45
1
6
0
0
1
4
0
0
7
44
5
0
0
0
11
0
0
15
0
0
3
0
14
0
0
16
2
0
31
5
12
0
0
12
7
34
0
0
14
7
0
2
0
10
31
0
0
0
22
0
0
36
7
14
0
40
0
53
14
0
0
47
4
5
0
37
0
0
18
40
0
8
14
0
8
3
0
0
33
0
24
0
25
36
0
0
0
0
0
0
9
5
11
4
0
42
0
0
0
12
0
0
0
42
9
7
0
0
7
0
0
158
106
8
0
0
26
86
8
0
0
80
66
0
0
78
103
0
0
58
0
0
0
0
2
0
56
4
0
0
29
0
48
0
0
58
14
25
4
0
0
0
22
0
0
52
54
0
0
0
19
0
0
0
38
21
68
95
0
0
24
0
0
0
0
6
8
0
41
14
16
0
0
0
9
0
0
19
13
11
0
0
0
0
0
35
67
0
0
0
54
26
0
0
22
0
0
76
0
0
0
31
76
0
0
0
0
2
0
117
166
94
0
58
0
0
4
61
157
11
12
12
0
0
113
40
28
0
0
66
79
0
0
0
0
6
10
0
111
213
0
0
0
0
169
169
74
67
0
12
0
183
0
6
182
0
0
0
0
11
25
0
0
0
0
0
0
90
93
187
101
0
0
0
0
0
0
60
41
28
22
0
20
11
3
0
0
0
8
8
0
2
7
2
7
0
0
16
8
0
0
0
22
37
18
0
0
0
9
13
8
15
0
25
27
0
0
0
9
15
16
0
3
0
0
3
0
0
0
26
13
4
0
0
26
23
0
0
36
14
103
186
95
0
0
0
0
0
5
0
0
19
16
0
16
0
54
26
2
0
6
0
0
0
0
0
0
0
5
16
0
30
0
74
4
16
135
221
73
0
0
0
0
1
0
2
0
0
28
0
1
45
0
12
2
0
42
14
67
0
0
12
14
7
45
0
31
24
0
0
0
0
0
0
0
0
29
5
32
63
24
26
0
15
15
11
0
41
0
28
8
4
1
10
0
0
19
35
0
20
0
0
5
0
16
17
0
13
0
22
10
18
13
0
11
0
3
25
0
8
0
0
10
0
13
0
22
0
6
0
1
1
8
8
4
10
11
1
0
13
5
0
0
31
0
22
11
17
0
0
4
14
154
101
12
16
9
5
0
0
0
4
0
15
0
38
0
21
0
0
0
21
0
36
20
26
0
37
2
0
12
21
0
0
19
0
9
10
0
12
2
0
4
0
0
0
0
0
11
10
0
17
0
8
0
15
0
11
27
19
0
14
0
11
1
0
0
5
0
9
0
0
0
25
0
17
0
20
0
5
6
2
39
0
0
0
5
26
13
47
0
0
54
0
0
0
15
14
0
59
0
0
0
7
3
0
11
11
0
0
0
0
35
5
12
0
0
11
0
0
0
0
0
255
150
0
0
12
63
6
0
0
72
27
0
18
74
58
0
0
0
29
0
0
0
188
25
0
15
97
0
0
19
0
114
8
0
38
39
0
0
0
37
22
0
23
25
4
18
18
0
0
25
9
16
0
52
32
0
0
45
0
23
0
0
38
45
0
30
0
0
6
29
38
26
0
0
0
15
0
26
15
37
0
27
0
32
64
100
0
0
61
14
41
21
10
0
31
0
0
0
0
22
27
0
0
62
118
111
76
38
41
0
0
0
36
0
0
0
0
0
0
0
0
0
0
0
62
0
0
78
173
0
27
20
34
18
4
0
197
115
0
0
0
49
195
76
0
0
0
0
78
47
162
0
0
0
56
24
0
15
0
0
0
0
0
0
0
0
148
173
106
0
0
0
0
0
43
79
20
0
44
0
0
43
0
0
0
0
14
0
12
0
18
20
0
0
31
17
18
0
0
20
11
17
4
0
0
9
5
17
0
0
0
0
0
0
0
0
25
0
0
11
0
2
0
8
0
11
20
8
16
12
0
10
28
0
16
26
0
56
127
138
0
0
0
0
0
26
0
6
9
0
0
1
0
0
0
0
0
12
0
0
0
20
0
0
0
0
30
30
0
5
0
13
28
0
99
236
0
0
0
0
1
0
0
0
51
0
0
25
0
0
6
0
0
24
0
0
0
0
0
0
46
0
0
0
43
0
16
0
31
0
3
0
0
0
34
74
77
0
1
13
0
0
0
0
0
0
23
13
7
0
1
0
39
10
0
6
4
0
6
0
0
39
15
10
0
0
40
0
0
0
11
0
12
0
0
2
0
0
0
13
5
5
20
0
10
0
10
5
25
22
4
0
0
0
0
10
2
24
0
24
19
0
4
0
16
0
24
2
0
8
0
154
98
0
0
0
58
0
0
4
16
8
23
6
18
0
43
0
0
1
0
50
0
17
0
0
0
0
0
5
8
1
0
40
0
12
0
0
0
9
21
14
12
0
0
6
11
0
0
4
7
0
17
0
1
6
0
18
0
3
15
0
0
11
14
20
9
0
10
0
0
19
11
7
7
0
10
60
0
3
0
4
0
0
2
0
0
0
0
32
0
40
0
0
9
11
0
8
43
0
6
14
51
35
0
29
2
45
0
42
3
0
0
36
23
0
25
16
0
21
0
0
178
121
0
43
75
1
0
0
84
51
0
22
51
0
0
0
90
13
1
0
0
0
136
31
0
0
71
123
0
0
11
35
54
0
0
0
0
0
7
18
0
0
8
6
0
0
67
0
21
0
16
7
0
73
0
0
0
20
7
21
5
0
0
3
0
9
21
6
2
45
0
36
0
0
0
0
3
0
9
0
28
27
5
63
9
0
0
54
56
0
11
0
28
27
14
5
0
0
67
99
94
44
24
52
80
0
0
0
0
15
0
0
0
2
0
0
15
0
1
11
0
0
27
51
0
0
81
240
0
0
150
114
67
5
142
255
42
0
0
79
255
178
0
0
0
23
0
0
0
50
255
0
18
0
36
0
125
48
0
0
0
0
0
0
79
126
194
105
0
0
0
0
0
100
75
41
0
0
30
0
5
9
0
13
2
0
18
4
9
0
0
0
4
5
0
0
0
0
30
12
0
0
0
16
10
21
23
9
10
10
32
0
0
0
2
15
0
0
19
0
0
15
1
39
14
5
19
2
7
5
0
0
26
0
32
5
50
129
82
0
0
0
0
0
0
58
0
0
31
9
14
6
7
0
0
72
0
13
0
59
0
0
0
0
21
7
39
17
0
27
35
53
0
55
237
4
0
0
0
0
0
0
3
0
26
36
0
23
26
17
0
9
14
0
0
0
8
69
0
0
67
45
1
11
8
33
0
34
0
0
0
13
0
0
0
0
0
0
12
32
0
0
0
0
0
0
0
0
0
0
3
1
0
0
6
0
1
6
0
9
0
0
0
10
35
0
0
26
19
0
37
2
0
18
0
17
0
0
24
15
0
0
17
0
8
15
0
0
0
0
0
0
17
10
18
6
0
4
0
0
0
13
0
13
9
0
1
38
7
2
0
156
103
8
0
14
0
0
22
0
0
3
0
22
0
0
0
0
0
28
0
35
0
1
0
0
35
0
0
35
11
0
6
0
0
24
0
18
8
5
0
0
13
24
0
6
0
24
32
14
0
10
0
17
0
0
15
0
5
20
0
0
7
22
0
0
30
0
0
0
0
0
32
7
0
0
0
23
0
54
0
28
0
18
20
26
31
38
0
0
18
0
0
0
45
0
5
21
0
16
0
0
0
18
0
6
0
0
8
0
33
2
0
0
0
0
14
0
0
0
0
0
25
165
60
35
0
0
24
83
20
0
0
167
50
0
30
0
61
0
0
0
0
18
101
94
55
0
0
174
20
0
9
21
28
0
53
40
0
36
88
0
33
1
37
28
38
0
0
16
0
0
0
50
70
0
0
27
24
30
0
23
0
24
0
32
3
0
12
0
0
0
0
0
0
14
56
20
25
42
0
0
48
11
0
0
0
0
0
49
0
2
0
0
17
30
11
0
0
42
104
0
37
37
0
48
33
0
0
0
0
6
0
0
41
0
0
5
0
0
0
0
0
19
95
0
0
61
235
0
0
72
130
0
0
0
95
0
0
0
78
96
173
0
0
0
107
20
9
79
18
66
255
0
0
0
0
0
0
21
0
0
0
0
52
112
186
122
39
0
0
0
0
12
92
74
25
9
41
0
0
0
0
0
0
23
0
11
0
0
18
0
15
21
0
29
0
0
13
17
25
0
0
0
0
47
0
0
0
0
11
0
0
0
0
8
3
3
0
0
0
3
11
0
9
1
0
0
16
13
0
0
0
0
32
4
57
115
139
0
0
0
0
0
0
27
0
38
1
8
0
11
6
0
0
36
0
0
0
0
0
0
13
21
36
25
36
47
20
6
45
45
12
0
29
233
171
0
0
0
1
0
0
20
64
0
0
0
0
11
0
27
0
20
0
0
11
8
10
22
0
0
0
0
0
0
0
15
0
4
0
0
0
0
0
0
34
46
43
55
12
0
0
35
0
0
0
30
0
17
13
7
13
0
0
15
7
5
0
8
7
2
0
0
12
0
0
18
11
0
8
0
0
20
0
20
34
1
5
0
0
10
0
0
16
2
0
0
0
0
0
0
24
0
17
0
0
0
0
0
0
7
5
0
0
10
0
0
5
7
0
0
0
156
105
0
11
31
25
0
29
0
17
11
0
7
0
17
29
7
3
5
0
50
0
0
6
0
0
18
0
14
17
0
5
5
0
0
0
25
7
5
0
0
17
0
3
0
0
0
6
20
0
13
0
5
32
16
0
20
0
21
15
8
14
32
0
0
5
2
5
0
0
24
0
0
20
0
0
10
0
20
0
11
0
0
15
5
14
11
0
13
3
0
25
0
4
0
0
71
0
0
7
0
5
30
0
0
0
7
0
0
0
0
11
0
27
32
19
12
0
0
13
0
0
234
110
0
0
6
69
40
0
0
88
81
0
0
23
45
0
0
57
0
155
49
0
0
83
0
0
0
107
0
0
40
0
0
0
0
0
0
42
0
22
18
0
0
67
0
0
56
16
49
28
0
0
0
0
7
0
28
0
0
0
63
0
0
0
15
1
0
41
0
0
0
0
42
29
0
0
5
6
0
0
36
35
0
0
66
17
44
0
40
67
0
0
0
61
0
0
33
93
0
40
0
0
0
0
0
0
65
71
33
35
0
0
0
40
40
66
0
0
0
0
67
38
0
83
255
0
0
92
98
7
0
0
136
22
0
0
147
208
74
91
0
0
0
0
111
0
0
0
133
224
0
0
0
30
0
0
0
0
27
0
0
153
211
145
23
0
0
0
0
27
63
36
4
20
7
25
0
51
23
12
41
0
0
0
10
3
0
0
12
0
0
0
0
18
37
7
0
0
0
1
43
3
27
0
0
35
13
0
0
10
6
10
5
1
0
0
34
0
0
1
0
25
0
0
0
22
0
0
0
8
29
83
146
148
22
0
0
0
5
0
0
0
0
0
0
0
1
1
20
0
0
3
0
0
0
11
0
0
0
51
46
14
0
0
22
0
33
12
0
0
52
195
240
0
0
0
0
0
39
11
0
0
0
0
0
30
25
0
21
28
55
0
0
20
25
22
0
14
12
0
0
0
10
55
0
0
27
35
37
13
34
0
25
13
15
26
24
0
31
5
4
0
2
0
23
0
26
4
27
0
23
4
0
0
0
0
26
24
10
0
14
14
0
11
0
0
3
47
0
0
35
0
0
0
0
1
0
24
0
14
0
15
0
0
0
9
13
10
22
0
21
0
12
0
0
4
27
6
9
15
0
16
11
0
0
0
5
0
12
0
151
108
15
1
0
0
0
0
0
0
9
0
10
0
0
0
5
8
0
0
24
0
35
26
0
0
0
0
0
12
0
51
0
16
0
7
0
0
5
1
3
0
0
3
12
0
0
21
0
2
0
0
18
9
0
21
0
12
15
0
4
7
33
17
0
25
0
28
54
0
0
48
0
27
0
37
0
11
4
0
10
12
59
0
0
0
0
0
9
0
9
12
0
0
0
0
8
10
17
0
1
6
0
0
44
0
55
0
42
22
0
30
0
15
0
0
10
103
0
11
0
0
255
106
0
0
68
33
0
0
58
44
0
21
66
13
0
0
0
7
0
88
0
0
0
53
99
0
0
66
73
0
29
0
0
0
58
12
18
0
0
13
15
4
0
43
32
0
0
0
0
65
8
0
0
42
32
0
43
0
0
0
33
11
24
0
45
15
27
10
0
0
0
25
32
24
0
3
0
54
35
11
33
6
0
100
41
0
0
0
0
46
52
74
121
57
8
62
26
52
0
0
0
0
0
87
0
0
0
50
1
26
41
17
27
31
2
0
0
0
0
7
177
0
0
125
16
0
28
97
0
0
0
0
70
31
0
0
255
0
0
0
0
104
128
163
111
0
0
0
248
255
0
0
0
2
0
0
0
0
0
9
132
198
58
0
0
0
0
0
13
103
37
14
35
23
0
4
0
0
0
0
0
0
18
25
1
7
2
0
4
0
2
7
15
23
0
0
0
13
0
6
3
0
0
9
0
17
0
0
21
33
7
3
0
23
16
8
3
10
13
10
0
13
0
24
0
3
0
6
29
64
110
171
0
0
0
0
0
27
82
0
0
5
0
54
20
0
0
0
0
0
0
0
0
0
0
19
31
19
7
12
33
0
12
17
6
0
6
0
0
25
192
255
0
0
0
40
50
18
6
15
0
60
12
7
6
11
0
0
0
0
6
0
5
0
0
0
0
8
18
63
71
71
43
64
33
149
0
0
0
0
0
0
36
0
14
0
5
11
3
0
31
0
0
8
11
48
0
9
10
0
11
0
31
24
5
0
0
0
8
0
46
18
20
0
23
0
0
17
0
0
11
0
7
37
0
0
0
0
0
0
0
2
0
4
0
0
30
0
2
1
13
21
0
15
21
0
0
0
0
19
7
0
8
0
35
4
0
37
29
0
151
107
11
0
20
9
62
0
0
0
15
0
0
37
0
23
0
6
5
5
16
0
18
0
7
0
0
40
7
0
0
30
0
2
0
0
20
17
0
20
0
42
0
0
27
0
0
0
1
10
33
1
0
17
12
0
0
0
0
1
0
0
0
0
0
0
26
0
0
0
0
0
33
0
0
106
0
0
0
21
10
15
0
0
33
12
0
17
11
0
0
19
0
19
46
10
4
0
0
5
0
0
42
1
50
0
0
0
0
0
24
27
0
32
4
7
11
27
0
0
0
0
148
120
21
65
3
0
0
72
70
0
0
107
52
0
0
77
39
29
0
22
0
59
21
0
125
0
0
0
78
35
33
0
0
0
19
36
0
0
25
99
0
0
20
0
8
55
0
39
4
73
0
0
22
14
0
5
0
3
0
0
0
0
71
0
0
0
13
15
0
35
44
30
5
0
0
25
0
0
4
0
39
16
0
147
98
0
15
37
8
0
59
44
0
0
0
0
85
0
0
0
0
0
102
82
4
72
158
22
0
0
0
0
0
30
0
0
0
0
16
213
31
0
49
104
0
132
25
0
0
0
61
0
0
0
61
139
0
0
0
0
24
165
0
0
0
0
41
0
243
172
0
0
9
0
0
0
0
0
49
108
214
78
23
0
0
0
0
29
92
0
20
0
23
0
4
10
0
2
0
0
0
7
0
7
0
0
7
0
0
7
6
0
8
0
8
0
0
11
25
17
0
0
24
1
3
0
0
6
14
0
0
0
1
0
0
0
2
0
0
0
7
3
11
4
0
17
23
72
95
166
74
0
0
0
25
64
15
0
29
28
0
0
4
13
3
0
0
0
0
0
0
0
0
7
45
20
46
0
21
26
32
0
0
18
20
0
0
0
35
213
164
0
0
0
0
0
3
0
40
0
0
0
0
14
0
0
8
0
51
0
5
21
0
0
46
0
0
0
0
0
0
0
0
0
0
0
96
201
0
0
0
0
39
10
60
38
6
11
30
0
4
0
0
27
0
17
0
5
0
0
11
30
0
0
0
0
23
0
4
0
0
0
12
0
0
0
0
2
5
0
10
9
0
9
0
9
44
4
3
12
17
5
13
0
1
0
19
0
21
0
0
15
0
0
0
0
8
0
9
13
0
0
6
12
0
0
0
0
0
0
153
103
0
0
3
0
40
0
13
0
42
0
0
3
0
9
8
25
1
0
18
0
0
23
0
0
0
12
11
6
2
0
13
29
0
18
3
20
0
27
0
26
16
0
7
11
0
19
0
3
0
18
0
0
6
22
17
32
18
14
15
0
10
3
0
6
5
42
0
0
33
0
0
55
0
16
7
3
30
3
0
33
0
0
30
0
0
2
7
0
40
0
16
1
10
3
0
31
0
43
12
0
0
0
14
0
11
6
20
0
0
0
0
0
15
0
0
0
12
0
0
0
0
212
97
0
0
0
90
54
0
0
122
42
0
23
6
85
1
0
0
23
0
0
96
0
97
97
115
0
0
64
38
0
48
65
0
0
0
0
12
2
13
0
46
0
0
24
53
0
28
24
0
0
31
0
28
0
0
39
0
11
45
0
26
1
0
0
0
0
0
18
51
31
28
0
0
0
43
0
0
21
69
0
0
71
16
30
18
32
89
21
0
0
41
30
55
0
0
0
0
0
73
131
143
87
0
0
0
0
0
0
12
13
6
12
0
0
0
0
94
110
0
0
147
0
56
24
0
0
0
16
0
0
30
96
192
0
0
0
0
100
47
76
0
0
113
0
0
0
255
0
0
0
0
0
0
0
0
73
176
165
0
0
0
0
0
0
82
110
31
0
26
0
38
0
0
0
0
32
0
0
19
30
0
8
21
0
4
0
0
0
21
0
34
0
0
25
12
21
0
0
0
0
0
0
0
0
49
21
1
0
37
0
0
0
8
3
3
8
3
0
0
0
0
11
43
41
80
167
100
0
0
0
0
0
5
28
49
0
0
25
0
0
0
0
0
0
0
0
0
35
47
12
2
48
67
20
18
0
10
30
10
3
21
0
0
0
17
52
206
231
0
0
0
0
0
0
40
0
29
0
75
0
8
43
64
49
2
0
23
64
0
0
10
0
16
29
8
0
0
21
53
68
96
10
0
33
0
0
31
0
32
21
81
6
31
0
14
0
6
40
0
14
0
0
3
3
9
18
21
0
0
4
0
16
1
17
0
1
0
15
3
0
0
16
14
5
2
6
0
3
0
0
0
0
5
0
0
11
0
0
0
0
7
2
0
9
0
0
15
0
0
0
0
0
19
9
1
0
0
4
0
0
18
0
10
0
18
0
38
0
151
106
0
16
0
9
14
0
0
8
0
12
0
33
0
34
0
45
0
18
0
9
0
20
0
14
0
0
0
0
56
0
0
0
0
0
0
7
0
0
3
0
1
0
0
0
0
19
0
0
0
0
0
31
0
0
0
0
0
19
0
9
14
0
38
0
3
0
13
17
0
10
44
0
0
0
26
0
16
0
16
23
0
0
13
0
22
0
24
53
0
0
32
0
5
16
0
63
0
0
0
49
8
0
0
57
0
0
0
0
0
7
0
8
0
10
9
0
22
0
0
0
0
214
141
0
2
58
52
0
0
75
121
0
0
138
66
0
0
12
0
0
21
61
74
0
0
46
149
28
0
0
0
0
28
34
15
0
0
58
2
0
34
0
0
12
6
0
59
0
0
0
5
0
29
1
33
0
31
0
10
0
16
0
0
49
3
0
0
0
22
16
5
0
29
3
1
0
27
0
5
10
53
17
0
175
0
4
64
23
0
0
0
0
69
0
0
0
0
0
34
132
186
72
0
0
35
0
0
0
43
0
0
32
40
2
0
0
78
102
173
0
0
172
91
67
17
0
0
0
0
26
0
0
166
225
0
0
0
0
69
205
58
0
0
0
21
0
0
0
255
0
173
0
0
0
0
21
76
162
207
26
0
0
0
0
0
25
110
44
0
0
28
3
20
0
0
0
0
6
0
35
11
2
4
0
29
7
0
0
20
0
26
0
32
0
24
19
13
0
0
0
20
1
0
6
22
0
0
0
0
0
7
10
1
5
22
0
0
23
20
8
13
4
9
15
101
114
128
0
0
0
0
29
56
0
39
0
26
48
0
0
30
0
0
0
23
0
0
30
38
43
65
19
50
46
8
0
0
0
0
0
0
0
3
0
0
4
79
212
170
0
0
0
0
0
21
7
0
0
0
0
0
17
0
10
0
0
0
15
5
52
0
12
43
5
0
0
0
11
8
0
0
0
38
137
0
12
0
9
0
0
0
2
19
12
30
12
0
0
27
0
8
0
16
23
9
28
0
18
0
4
26
8
0
9
11
6
0
2
0
11
5
10
5
0
2
13
13
0
11
0
0
0
37
3
22
0
0
0
8
5
26
0
0
21
0
0
15
4
17
32
3
0
12
27
0
0
5
3
21
0
6
0
26
0
39
0
47
3
0
7
149
110
20
0
0
15
25
10
9
0
0
0
13
27
18
41
0
19
0
37
0
0
16
0
0
16
0
3
5
0
0
51
4
9
12
0
9
18
0
8
20
0
0
0
39
0
2
23
0
44
11
11
0
0
7
10
8
0
6
0
6
15
19
20
16
0
13
0
0
18
0
0
0
0
18
0
28
0
51
0
0
0
0
0
13
0
13
36
0
0
20
0
57
0
32
0
0
0
17
35
0
9
10
0
24
23
13
22
0
42
20
18
0
29
0
11
0
0
14
13
0
0
0
75
163
0
50
0
0
0
54
60
0
0
101
85
0
0
123
132
0
0
0
96
41
84
0
0
0
141
0
0
23
0
0
21
0
12
24
63
31
0
0
47
0
1
55
9
40
36
3
0
40
27
0
0
36
0
0
0
0
0
26
24
46
0
0
19
0
0
40
5
0
0
0
0
39
0
8
0
23
22
32
25
0
73
86
14
33
0
11
51
21
0
0
0
0
0
0
178
180
84
0
0
0
0
0
15
0
0
37
0
0
18
60
0
0
0
119
0
21
0
76
0
12
43
0
0
88
0
0
0
0
114
255
0
0
0
98
54
57
38
38
0
10
0
0
0
0
114
251
0
255
0
0
0
45
62
138
122
0
0
0
0
0
33
21
49
76
4
0
8
25
0
0
0
24
11
0
10
0
28
5
3
21
0
17
0
37
0
18
0
0
0
13
0
0
0
6
0
2
0
0
8
6
4
18
0
0
13
17
0
0
1
0
0
0
0
0
0
0
9
2
28
57
161
242
25
0
0
0
0
65
41
14
0
17
34
40
35
0
0
29
49
0
10
46
14
43
46
36
11
50
0
8
11
0
28
53
8
0
0
0
0
7
0
0
38
166
203
0
0
0
0
19
51
0
0
44
0
4
3
0
93
3
0
13
17
0
17
19
0
0
0
41
0
21
0
0
0
0
0
69
8
0
0
0
0
33
0
0
0
46
53
0
26
0
7
0
0
37
0
0
0
11
3
0
0
5
16
0
1
0
3
0
12
0
25
0
0
21
0
26
0
31
6
15
8
0
3
12
26
0
0
0
0
0
0
0
70
0
0
15
0
18
5
0
16
0
0
19
0
0
19
0
8
0
0
0
3
0
5
26
0
28
0
9
0
0
16
2
3
152
110
13
1
0
0
3
0
0
38
22
14
2
7
0
8
0
16
16
11
0
9
41
0
0
7
1
7
35
0
41
0
0
0
11
0
6
16
0
1
0
1
0
0
27
0
0
9
1
0
0
0
7
12
0
0
46
0
24
0
46
0
0
0
0
0
0
0
0
7
0
0
0
7
5
0
0
0
12
0
25
28
38
4
17
0
0
58
0
0
44
20
0
0
0
0
0
0
0
17
0
8
0
0
0
0
0
0
10
0
0
0
0
1
22
8
13
0
16
0
30
0
0
0
192
87
0
0
0
70
80
0
0
86
76
0
0
71
5
0
93
0
0
0
0
134
0
0
13
131
22
0
32
0
24
2
0
32
26
0
20
0
0
23
0
20
21
62
0
0
0
31
0
43
0
17
56
1
0
46
38
0
0
0
71
14
0
20
57
120
58
20
61
8
0
0
5
0
0
10
27
80
0
46
0
32
104
65
40
0
35
0
0
0
0
0
0
153
172
208
0
0
0
0
0
0
0
0
30
56
41
0
10
0
30
0
0
51
74
92
0
122
22
0
11
0
0
0
43
0
0
0
90
193
2
0
0
0
1
0
71
69
0
0
0
51
59
0
0
201
112
0
255
0
0
54
131
145
150
11
0
0
0
0
0
47
43
48
16
0
2
27
0
0
20
0
31
0
0
0
0
0
0
0
0
0
0
0
30
4
0
18
6
24
0
0
0
6
0
18
26
0
0
20
1
11
0
23
0
15
0
0
19
11
0
6
4
0
12
4
2
32
51
143
184
106
0
0
89
20
0
0
0
79
12
16
0
1
46
10
9
0
29
70
37
53
50
11
53
32
31
0
13
3
25
0
0
35
26
0
0
0
0
4
0
2
56
192
198
0
0
0
0
0
18
0
2
6
24
0
0
42
0
0
82
0
1
67
5
0
0
0
0
13
27
0
15
60
0
35
12
12
37
0
0
0
0
0
19
4
0
53
11
0
9
50
0
27
0
31
14
0
0
0
0
42
0
0
0
12
0
10
6
19
19
0
0
19
0
29
0
0
0
0
4
0
0
3
0
10
0
0
17
0
22
0
51
0
0
28
0
18
0
2
9
0
0
19
0
24
0
0
0
0
5
0
13
4
10
10
8
0
6
0
0
0
27
0
0
1
7
0
148
109
1
10
0
0
72
0
0
30
0
0
0
0
0
32
0
0
3
0
5
0
0
0
0
25
0
0
1
0
0
36
8
16
22
0
21
7
26
0
20
16
7
14
13
0
26
0
25
0
0
0
0
17
16
0
2
4
3
6
0
10
47
7
32
0
24
13
0
3
15
0
27
0
5
9
28
18
23
0
0
0
0
0
12
5
0
12
1
61
0
0
34
0
4
21
0
39
7
0
23
13
10
0
34
0
0
0
0
0
25
1
12
0
29
0
6
16
0
0
0
0
0
0
230
129
0
0
88
22
0
0
82
70
0
0
37
119
0
0
75
119
0
0
0
127
39
0
22
16
0
0
22
21
0
0
0
26
17
0
1
5
24
0
5
48
0
0
0
52
0
90
0
33
0
0
28
13
0
0
9
15
0
0
8
6
14
0
0
29
62
34
93
85
103
22
22
0
15
4
11
20
15
67
0
0
199
81
0
0
0
0
8
0
0
0
131
186
0
0
0
0
6
23
0
25
0
2
69
0
0
0
3
0
0
0
0
0
89
144
0
19
63
123
0
8
20
30
0
0
0
35
255
52
0
0
0
0
95
119
26
0
0
0
0
27
12
0
0
255
0
0
0
0
46
81
167
147
0
0
0
0
0
50
77
46
24
0
3
29
0
0
0
32
19
0
0
0
0
0
16
2
48
0
0
12
35
22
0
0
0
35
8
20
0
6
0
29
40
0
0
0
1
10
0
0
0
15
0
16
14
0
10
0
0
5
10
22
0
22
56
169
197
131
0
0
0
0
6
16
2
0
0
0
21
0
0
0
55
0
33
11
12
25
29
0
15
0
0
0
4
0
1
0
0
0
0
0
19
0
0
5
0
0
6
59
160
249
0
0
0
0
11
0
32
29
20
16
0
27
26
0
51
0
0
0
0
0
0
0
24
0
0
1
62
0
6
23
0
30
0
0
38
22
0
0
0
0
0
0
0
49
21
30
32
17
0
0
0
19
0
0
6
1
17
9
9
35
3
0
0
0
8
6
0
25
25
17
0
0
0
0
7
0
3
3
20
0
8
6
9
12
0
0
0
38
0
8
11
10
0
0
0
9
0
45
0
5
0
12
0
24
31
0
4
0
10
1
0
15
0
0
16
33
5
19
2
0
4
2
0
25
150
111
24
0
18
0
0
0
0
13
0
32
25
16
0
0
0
9
47
0
68
15
0
15
0
0
0
0
12
0
0
1
0
5
0
0
34
0
0
16
0
0
0
0
8
0
39
0
0
0
14
0
5
17
0
0
1
0
0
0
0
17
0
0
0
0
0
0
0
0
32
0
45
18
9
0
0
12
7
26
36
14
0
12
0
9
20
3
12
0
6
0
0
0
20
2
0
23
1
0
25
0
2
0
2
0
24
36
0
0
0
0
33
0
32
0
48
12
0
0
0
0
0
0
164
115
0
31
24
0
0
61
102
0
0
26
77
86
0
0
0
103
92
0
0
102
129
0
0
0
0
0
0
17
5
0
0
8
13
0
0
8
73
10
0
13
0
0
0
40
0
19
18
0
21
0
3
0
32
31
15
0
23
4
0
0
0
53
0
0
0
0
0
0
0
81
86
100
11
16
78
4
69
13
0
0
127
29
0
0
0
0
0
0
46
156
133
2
0
0
0
0
0
0
0
12
0
82
0
0
0
0
27
55
0
0
103
33
255
5
0
11
53
0
0
0
0
0
0
0
67
151
125
0
0
0
0
0
162
0
0
0
0
0
164
0
0
16
0
255
0
0
15
10
82
148
112
0
0
0
0
0
2
98
44
11
10
14
15
0
0
2
0
28
0
0
0
6
27
0
2
0
0
0
14
0
0
0
0
8
6
0
0
0
0
35
0
0
0
0
24
0
0
2
3
19
0
0
0
0
15
3
24
0
12
3
9
18
30
99
210
167
0
0
0
0
0
0
95
94
24
62
0
0
113
0
0
0
106
0
0
5
37
0
28
0
19
19
0
9
9
1
15
0
0
29
0
11
5
17
0
37
22
20
54
161
220
0
0
0
0
27
40
0
1
0
0
0
21
0
0
14
0
4
43
2
0
0
15
51
20
0
0
18
0
0
18
42
0
0
0
0
0
0
4
0
0
107
0
0
12
5
24
15
35
19
6
0
0
31
0
0
4
28
0
12
8
0
0
3
18
0
5
8
0
0
0
0
4
8
0
0
11
0
16
12
10
0
26
0
0
33
0
33
0
0
2
0
0
28
0
9
0
0
17
15
0
5
0
38
0
0
0
0
13
0
16
0
12
0
10
5
0
0
0
14
5
24
0
0
3
13
148
107
0
0
34
0
0
0
0
17
0
28
0
10
55
0
20
0
0
0
7
0
0
16
25
0
37
0
30
3
0
11
10
0
11
5
9
19
1
10
38
0
22
10
0
0
9
0
1
0
26
8
0
0
22
30
25
0
1
7
13
23
15
0
56
0
40
49
0
0
18
0
0
23
3
0
0
25
0
0
12
0
17
43
0
0
0
0
16
16
14
0
28
10
35
1
0
28
0
26
7
11
49
0
41
8
0
8
0
42
10
3
0
0
7
0
2
0
0
45
0
3
0
0
139
196
84
6
0
0
57
98
0
0
78
91
82
0
0
33
0
0
142
0
0
0
156
73
0
0
9
0
29
14
55
10
18
50
0
6
0
0
15
56
58
0
0
0
17
24
27
0
0
0
40
68
0
0
0
0
11
8
2
0
12
0
7
60
57
13
0
0
11
0
0
0
0
78
67
83
31
29
8
0
0
0
53
0
0
33
111
0
0
46
148
18
0
0
0
68
81
0
0
0
0
0
37
99
0
16
0
16
26
35
0
0
155
84
146
0
0
80
65
0
0
3
0
0
0
92
255
40
10
0
0
41
21
255
102
0
0
0
0
208
142
0
0
0
0
255
0
0
106
65
202
22
0
0
0
0
0
49
105
0
0
14
11
26
0
14
0
19
24
0
0
0
18
9
0
45
13
13
2
0
0
4
0
31
0
36
0
0
3
14
41
0
0
23
0
0
8
0
0
28
24
3
36
31
0
0
9
0
0
0
33
5
0
18
134
228
0
0
0
0
145
0
0
0
7
197
0
7
0
0
20
71
0
0
55
104
0
0
45
13
34
0
7
0
0
7
0
19
0
0
14
0
0
0
0
21
3
3
2
22
136
205
0
0
0
0
0
0
0
0
11
15
31
25
41
0
9
6
0
20
5
52
15
27
45
0
35
0
0
3
0
2
0
0
0
7
53
20
32
90
33
21
0
48
0
0
8
9
24
50
46
0
0
21
0
28
0
0
0
15
0
16
4
0
35
0
6
0
0
0
0
0
17
2
0
24
1
0
23
0
5
0
0
11
12
5
0
0
0
0
0
5
0
0
0
0
0
14
6
15
0
3
0
16
0
0
0
3
7
8
7
8
10
0
0
15
0
17
2
4
0
2
0
0
3
9
4
0
150
106
0
0
0
28
0
13
0
0
27
24
0
20
0
0
35
0
44
1
33
0
0
0
7
0
2
26
28
9
8
0
14
12
4
0
10
0
9
0
11
11
0
8
0
1
12
0
4
0
0
21
0
11
21
0
0
4
0
0
0
0
0
0
8
0
44
0
0
0
56
0
9
27
0
0
17
0
0
7
20
0
25
0
0
51
0
40
0
0
38
0
0
0
14
0
0
37
0
0
24
0
0
9
17
0
0
24
0
17
0
4
0
0
0
0
54
7
0
0
32
0
0
0
0
148
149
0
0
52
62
0
0
24
96
17
0
0
0
69
67
0
75
112
0
0
89
199
0
0
0
26
62
0
0
11
30
40
0
7
12
0
25
27
13
0
19
39
0
0
0
4
17
14
0
26
0
2
0
14
40
0
15
0
0
0
43
28
38
0
67
110
73
32
14
0
0
0
0
92
31
124
74
97
0
65
0
0
0
0
51
88
72
30
0
0
0
3
54
0
0
37
0
0
0
100
117
0
0
0
0
0
0
0
0
125
43
104
23
0
0
12
0
0
0
2
0
0
52
151
97
0
0
0
114
75
68
46
0
0
0
0
91
255
43
0
0
0
0
255
0
30
185
127
15
0
0
0
0
0
36
56
53
0
20
20
6
25
0
10
0
11
0
0
0
7
13
53
0
21
0
34
38
0
0
16
0
11
1
0
5
17
4
0
0
24
0
27
26
0
0
17
26
0
6
0
0
0
6
19
7
3
1
0
0
1
41
180
186
0
0
0
0
27
85
44
0
0
0
138
77
9
10
0
40
43
61
0
1
56
0
0
58
0
34
0
0
5
11
2
0
11
6
0
0
26
0
36
0
0
5
0
64
127
241
25
0
0
0
0
0
8
0
5
20
0
0
0
0
0
24
33
0
0
17
5
0
0
0
0
0
1
0
2
13
0
10
19
7
0
17
0
0
0
0
6
0
0
0
0
31
8
17
15
13
0
0
0
0
4
0
0
0
22
10
33
0
0
15
0
28
0
4
3
0
0
29
4
0
0
0
0
11
10
0
0
38
10
0
27
21
0
0
8
3
0
2
27
4
3
26
25
1
0
10
0
0
7
0
18
4
3
0
0
0
0
1
4
0
12
0
25
0
2
9
22
31
0
21
7
3
0
152
108
22
1
26
0
0
16
0
0
0
0
2
0
0
0
29
0
36
0
41
15
0
0
0
13
0
0
0
2
9
3
9
0
0
18
12
0
0
12
6
0
0
0
49
0
28
3
17
0
16
0
0
0
0
16
0
8
4
26
18
2
53
26
13
0
27
4
0
18
0
0
0
38
11
6
30
30
0
17
21
0
31
0
48
15
0
12
28
0
12
7
5
8
0
33
0
0
0
0
0
0
32
0
0
32
25
0
0
0
16
0
15
28
28
2
7
0
37
0
0
4
0
0
0
56
172
2
62
29
0
0
0
109
17
0
0
0
0
4
78
0
0
39
85
0
12
69
0
0
0
0
65
0
0
0
0
8
21
32
25
0
40
54
0
0
33
58
26
10
0
50
0
1
57
0
0
8
3
0
36
5
0
0
0
59
27
0
0
0
13
7
0
48
140
152
57
98
0
0
0
0
68
105
0
0
0
12
0
0
0
0
22
0
0
75
0
0
0
23
40
0
0
0
53
68
0
0
0
35
0
0
18
0
142
82
0
133
0
0
0
27
0
120
18
0
0
118
180
33
0
0
9
125
143
102
106
0
0
0
0
4
249
246
0
0
0
0
117
159
0
178
190
0
0
0
0
0
0
0
63
70
25
0
19
0
25
13
2
0
3
14
0
30
18
0
0
0
0
50
0
0
11
0
37
18
28
0
12
0
12
27
13
0
0
0
20
0
12
0
15
15
0
0
13
0
0
0
7
20
0
10
1
20
4
97
193
137
0
0
0
0
33
62
106
100
43
0
0
88
149
72
0
0
0
3
76
0
0
3
0
40
18
0
35
0
38
21
0
14
22
0
0
20
18
0
0
44
0
11
0
48
201
253
67
0
0
0
11
133
0
14
17
37
0
4
26
0
30
12
5
0
50
0
5
0
0
0
13
0
5
48
0
0
0
0
77
0
24
0
20
53
0
3
72
8
70
0
0
27
0
95
0
29
0
21
19
0
0
8
0
11
8
0
34
0
6
4
0
0
4
0
3
0
12
0
18
26
6
0
6
0
0
0
0
0
0
21
0
0
0
27
3
19
6
0
11
10
0
0
0
0
0
0
0
0
0
0
0
26
0
36
7
11
13
9
13
0
19
0
11
0
1
7
0
0
25
0
0
0
1
9
149
103
0
0
0
0
15
0
16
0
7
3
9
22
0
0
0
14
0
1
3
0
0
48
0
0
2
0
0
7
0
19
0
0
7
11
0
11
14
0
0
18
21
0
0
0
0
0
0
0
0
0
19
11
0
34
0
4
32
0
0
23
3
0
0
0
0
0
0
41
0
35
11
0
0
36
0
0
0
16
0
0
0
0
0
13
0
0
0
0
0
0
0
17
35
40
0
0
0
24
0
0
0
23
0
0
0
0
29
35
19
21
15
15
14
0
0
14
9
0
2
44
0
10
0
0
74
139
30
0
0
16
109
29
0
0
0
0
17
0
68
98
0
0
146
0
0
0
0
0
25
9
47
6
0
0
0
0
52
2
26
0
20
0
0
60
0
24
0
8
0
80
30
0
0
11
0
0
26
12
0
0
33
0
24
46
0
49
0
0
0
0
23
0
0
70
15
183
144
29
0
0
0
0
0
0
16
19
0
0
0
0
94
49
58
70
0
24
64
15
0
0
0
66
141
47
0
0
0
0
0
0
41
0
177
0
53
255
0
0
43
70
1
31
53
0
6
255
7
0
0
20
144
132
0
0
0
0
0
0
0
131
212
4
0
0
0
0
157
44
142
149
0
0
0
0
0
0
54
60
56
19
2
2
22
0
13
0
5
25
0
0
0
0
0
15
6
0
29
0
0
0
35
0
4
0
0
0
18
0
24
0
0
0
11
0
28
0
27
42
0
0
16
29
25
9
0
40
0
0
8
41
9
62
95
111
0
0
0
0
0
0
0
82
49
57
41
0
0
0
101
110
45
0
0
35
103
0
0
61
32
19
25
0
0
0
48
0
27
0
0
22
0
0
9
13
0
0
1
39
150
202
109
0
0
0
0
0
0
0
0
0
14
0
5
0
4
3
0
0
0
0
0
5
0
0
39
0
76
14
0
0
0
1
1
0
45
0
38
10
0
0
1
0
0
0
3
0
0
31
0
28
0
32
2
0
0
0
0
9
0
13
15
0
30
0
17
4
11
12
0
36
0
11
1
0
0
0
17
2
20
0
31
12
4
0
7
0
0
0
0
0
4
1
0
7
0
0
11
0
26
17
18
3
7
0
20
2
25
0
1
0
9
0
3
1
0
0
0
0
26
0
19
0
19
0
44
0
12
25
21
0
153
106
0
9
2
5
0
0
0
29
0
2
0
0
0
2
0
44
0
4
0
0
49
0
39
13
0
0
16
23
0
1
29
1
0
22
4
11
6
1
0
5
0
4
0
23
34
0
5
8
19
4
0
15
14
18
8
0
17
0
27
32
0
6
28
0
18
28
4
0
0
0
0
0
0
2
31
5
0
20
0
4
20
41
2
0
0
35
17
21
53
0
12
0
7
0
0
36
0
0
0
28
11
35
0
16
0
0
0
0
0
0
0
30
0
0
32
0
8
0
23
0
0
18
0
0
70
204
67
0
26
84
5
0
23
50
0
0
0
35
17
26
61
0
121
101
0
0
0
0
51
84
0
9
32
43
0
0
1
53
0
0
0
0
0
53
52
0
31
30
0
0
32
0
0
19
12
0
0
0
44
0
0
2
28
0
0
0
5
67
2
66
128
28
0
0
0
0
81
111
0
0
0
0
96
79
87
0
0
0
108
143
0
0
0
17
0
59
0
0
0
0
59
231
141
0
0
0
0
0
0
0
77
0
255
0
135
91
0
0
0
0
0
0
0
0
0
58
0
5
0
75
0
0
15
42
32
0
0
0
159
146
188
0
0
0
0
37
209
35
77
21
0
0
0
0
0
43
82
13
0
12
10
11
0
0
0
2
0
0
0
9
0
26
0
5
0
0
19
0
3
20
0
5
22
0
0
0
0
0
7
0
10
44
0
0
0
0
1
0
0
0
4
10
0
8
0
0
0
0
42
39
0
48
0
0
0
0
0
39
0
0
0
0
96
22
73
100
0
0
0
113
104
28
0
0
131
0
0
0
0
29
45
0
18
0
58
12
5
15
0
27
0
10
28
0
0
0
51
146
223
24
0
0
0
0
119
0
0
0
0
0
0
0
0
12
17
27
8
0
0
0
0
23
7
1
42
0
6
0
0
31
37
13
0
0
0
1
3
0
0
27
0
0
11
37
3
0
36
0
19
19
39
4
1
5
62
30
0
18
0
0
1
0
35
0
10
14
6
0
0
10
12
0
0
0
0
0
0
28
0
0
22
0
16
0
0
8
20
22
2
3
5
0
22
5
0
0
36
10
0
0
0
0
14
0
5
0
14
0
1
0
8
0
0
25
9
2
18
5
5
0
3
15
0
12
10
4
0
0
3
0
151
107
0
14
0
0
5
53
4
29
0
4
0
7
0
9
0
52
0
1
2
27
0
2
0
0
34
2
0
29
0
17
0
14
2
0
17
0
15
16
12
3
15
0
14
0
0
0
0
0
0
0
9
7
0
0
0
13
6
0
0
0
7
18
0
0
0
0
0
0
33
0
73
11
16
0
0
0
0
0
0
6
0
0
0
1
15
15
0
0
8
0
0
0
19
8
0
0
5
43
0
0
0
0
7
0
0
0
8
6
38
15
0
0
35
12
29
0
48
8
16
0
4
0
0
0
0
182
86
8
62
10
0
0
87
0
0
0
0
67
7
0
97
3
17
153
0
0
0
0
70
77
0
0
58
13
0
0
1
35
21
16
0
10
10
46
15
0
0
45
0
8
0
10
4
0
0
28
4
5
34
0
19
56
13
27
65
60
76
121
104
4
0
0
0
0
0
0
0
0
0
48
53
51
49
0
0
0
53
28
113
42
0
0
0
49
52
0
0
0
0
29
113
70
0
0
5
3
4
31
0
0
100
0
242
0
178
0
0
0
0
0
0
0
2
0
141
147
64
57
0
0
0
64
162
0
0
0
0
9
255
136
144
0
0
0
0
198
247
36
0
0
0
0
0
0
60
56
20
13
11
17
0
3
4
3
27
0
0
12
7
23
0
16
0
44
7
9
0
0
0
0
4
7
0
2
37
17
0
0
0
28
0
58
0
12
0
2
16
9
18
18
0
12
2
15
21
11
15
0
9
0
0
0
0
0
0
0
0
37
124
81
0
0
0
64
62
102
40
24
0
21
115
84
0
0
35
52
77
0
0
60
72
5
9
0
25
6
0
0
0
8
0
0
0
0
14
110
215
187
0
0
0
0
15
0
0
0
0
5
39
0
0
0
16
0
9
3
5
12
74
28
0
0
74
56
0
0
111
18
0
0
34
20
0
31
12
18
37
0
22
52
10
5
0
0
20
0
0
19
16
22
36
0
10
0
13
0
0
6
17
17
26
20
0
0
0
0
0
0
0
34
5
8
28
0
11
0
8
0
0
13
0
0
0
10
34
1
0
0
0
0
36
0
0
35
0
15
1
0
0
24
0
9
3
15
13
0
0
0
5
24
6
8
0
0
0
0
5
16
0
0
0
1
0
0
13
0
29
7
18
4
155
117
73
0
19
0
16
14
0
20
0
6
1
42
5
0
0
0
0
0
0
0
0
18
13
0
20
5
0
44
0
15
0
0
0
2
33
0
15
1
7
0
0
0
0
5
8
17
33
9
0
0
0
30
2
3
0
21
8
5
1
16
14
29
0
5
0
10
20
0
2
0
0
27
1
0
35
34
24
60
15
16
6
0
73
0
0
0
20
0
12
0
0
0
0
0
0
15
0
58
10
0
16
0
7
49
0
0
22
0
34
0
5
0
0
18
0
3
0
0
32
10
0
0
0
0
0
8
131
128
5
0
0
52
52
12
14
0
0
0
28
0
32
87
0
0
0
0
0
4
79
21
0
0
0
45
2
6
3
0
2
0
0
0
12
0
0
19
0
7
3
17
0
0
0
0
0
0
24
34
0
0
10
59
31
2
0
0
0
0
0
0
0
29
0
21
21
2
0
0
0
100
0
11
2
0
0
112
32
0
0
0
0
19
44
0
0
0
0
0
0
0
147
171
0
0
0
0
39
0
0
0
72
27
134
0
255
0
0
15
0
0
44
177
116
0
0
7
0
0
0
0
24
90
93
0
0
0
0
126
205
179
0
0
0
0
7
180
64
0
0
0
0
0
0
67
95
35
0
0
23
0
0
0
0
0
7
0
25
26
0
12
0
13
29
7
0
0
6
0
17
8
28
0
0
21
12
0
0
0
23
2
0
13
0
28
0
25
4
0
28
0
19
0
7
0
0
15
12
0
0
0
0
40
35
45
25
0
0
0
64
133
52
0
0
0
78
0
27
45
45
0
77
130
20
0
0
73
22
0
0
21
33
8
7
0
20
16
0
0
9
0
0
0
0
54
133
210
74
0
0
0
0
0
0
32
105
8
0
12
0
0
23
24
0
0
0
0
0
0
16
0
47
0
0
94
0
0
0
0
0
42
0
0
0
0
0
0
0
0
15
0
0
0
0
37
0
0
0
4
24
29
5
0
0
0
28
0
0
0
0
0
4
0
0
0
45
24
16
32
13
0
0
0
18
16
14
28
0
6
0
0
9
16
10
0
0
0
0
7
0
8
3
3
6
7
0
0
0
34
0
0
0
0
0
0
12
0
5
0
19
0
0
0
0
13
0
13
0
0
8
4
0
0
0
8
15
0
0
0
0
16
151
103
0
8
16
19
3
32
0
78
0
41
19
0
17
12
0
0
1
7
2
22
13
31
0
0
0
27
0
29
0
26
0
0
10
2
3
0
0
0
16
0
10
29
0
0
10
3
10
0
5
20
0
14
0
0
0
0
0
0
6
2
0
18
0
0
43
0
6
17
0
0
0
0
0
0
13
11
0
0
14
0
0
0
11
23
26
9
45
0
0
10
15
15
11
13
0
0
0
55
0
9
0
25
0
0
4
0
17
0
0
0
29
1
19
37
0
0
0
0
0
0
13
14
0
0
0
0
63
217
0
0
47
57
0
0
41
19
0
8
0
14
2
85
67
43
0
0
59
2
35
12
0
0
0
0
28
0
27
25
0
0
24
0
62
0
43
30
50
6
0
43
0
0
22
50
9
1
0
24
0
47
0
30
0
0
0
0
0
0
0
73
57
10
25
132
0
23
22
37
53
31
0
0
0
0
34
104
54
3
0
70
0
0
30
0
4
0
0
0
114
63
159
103
0
0
0
0
19
0
0
0
24
43
185
0
252
0
0
0
86
18
0
0
0
0
0
0
0
0
0
0
87
172
0
0
0
0
0
169
161
42
0
0
52
0
184
28
0
42
0
0
0
29
72
37
41
14
0
0
22
0
0
13
25
18
0
1
0
4
0
0
10
6
0
0
0
15
18
25
4
9
3
38
9
12
0
0
0
9
3
48
8
16
0
18
0
28
0
0
17
0
0
24
39
0
43
0
0
0
18
33
22
54
7
109
5
0
0
0
0
10
149
131
0
0
8
13
0
0
31
0
0
130
99
0
0
0
25
0
0
0
0
66
3
0
13
0
7
0
0
0
0
34
47
149
194
75
0
0
0
2
0
92
0
39
0
13
0
6
0
0
0
0
11
0
0
22
0
38
11
0
0
56
0
18
0
31
0
0
9
80
0
0
0
25
0
28
0
0
0
39
0
0
52
26
0
0
21
13
44
19
15
0
16
5
0
0
16
6
12
37
21
5
8
0
0
14
4
0
0
20
6
0
0
15
0
0
4
0
0
20
0
0
0
15
0
5
0
19
0
0
0
0
0
0
21
12
0
20
0
22
6
4
30
14
20
14
25
2
5
13
21
0
21
10
10
0
34
0
0
12
9
3
11
9
0
0
0
0
0
23
151
107
0
0
0
0
4
9
33
0
0
0
0
26
0
18
3
7
0
0
0
0
0
0
10
0
0
0
4
30
0
10
9
14
12
0
0
27
0
20
20
14
0
2
0
0
0
3
0
16
32
0
0
20
4
0
19
23
22
7
42
12
0
18
0
0
0
0
2
0
4
17
36
13
43
0
0
0
1
0
4
5
5
6
0
0
6
0
0
10
8
38
0
0
0
0
5
35
0
7
11
8
0
0
0
13
0
4
11
0
40
13
0
0
5
0
0
30
49
18
5
21
18
40
0
13
0
0
0
162
12
83
36
2
0
0
0
61
9
0
0
16
25
76
78
134
0
0
193
0
0
0
27
45
7
17
4
0
0
0
0
0
36
0
1
0
12
0
14
0
0
0
0
17
0
0
42
28
0
0
83
67
0
28
0
0
0
63
8
59
26
16
0
37
0
16
54
63
0
68
62
0
0
0
0
0
20
2
0
0
0
0
0
0
0
0
0
0
102
0
0
0
165
130
0
12
26
0
0
32
0
0
98
84
127
0
255
0
0
0
30
24
6
0
0
51
37
18
42
30
4
0
130
193
0
0
0
0
0
94
118
0
0
113
97
0
207
0
0
64
0
0
98
121
78
0
19
16
12
0
0
0
0
13
0
0
0
13
0
9
5
14
30
0
0
0
0
17
0
11
0
32
6
0
0
0
0
0
0
0
6
2
0
0
0
54
0
2
26
0
13
0
3
23
0
0
0
0
0
42
9
34
17
32
0
59
24
0
0
0
0
0
0
169
159
16
0
0
40
6
0
48
0
0
114
0
0
0
68
0
0
33
0
18
0
0
0
0
40
0
0
22
19
95
116
204
34
0
0
0
0
4
0
11
0
0
34
0
0
21
0
18
6
13
32
0
20
0
0
37
0
0
14
58
0
23
0
13
0
0
0
0
7
21
16
0
0
46
39
1
65
0
0
0
58
2
0
0
70
0
33
4
0
0
28
16
0
0
18
14
3
16
0
8
12
0
0
15
0
0
29
0
0
0
2
18
0
0
16
0
0
0
0
0
0
0
5
0
8
0
14
0
14
1
14
0
0
35
0
26
0
0
33
19
0
14
0
0
0
0
0
0
18
0
0
0
9
0
0
3
0
0
0
0
12
0
7
0
32
0
0
0
150
110
11
9
0
9
0
0
25
0
0
24
0
17
0
0
2
0
10
3
17
0
32
0
20
0
0
8
0
0
38
1
0
0
0
5
0
19
0
0
0
24
3
11
0
2
40
2
0
0
0
0
0
19
0
41
0
0
7
0
10
3
2
27
17
0
2
0
0
3
0
0
0
12
12
19
0
22
4
0
8
0
0
45
13
12
0
14
0
0
0
17
0
7
0
13
3
4
0
0
0
0
0
8
16
31
0
12
17
0
4
0
0
0
14
0
0
0
0
0
0
2
0
0
7
3
0
0
0
0
154
101
0
0
8
0
9
38
72
0
0
25
17
57
3
0
0
49
181
17
0
0
0
24
21
17
8
39
74
0
17
0
18
0
2
0
28
0
0
13
51
0
0
0
0
0
0
0
0
0
1
84
21
62
17
0
24
13
0
81
55
82
161
171
0
8
46
71
37
0
0
0
31
0
42
59
0
40
69
0
47
0
7
0
0
17
0
0
100
0
80
0
198
0
0
0
65
0
20
0
0
0
132
0
159
0
189
0
0
0
0
0
1
0
0
0
25
0
0
0
0
0
148
150
0
0
0
0
124
166
54
0
0
147
46
75
122
0
0
3
0
0
111
94
0
0
13
3
0
0
8
0
17
8
19
0
0
0
0
0
0
0
0
0
0
14
7
0
0
47
0
43
0
0
0
3
2
0
0
18
11
7
27
0
46
0
5
0
10
0
16
0
29
0
0
0
15
28
0
33
0
10
0
1
5
19
47
0
0
0
45
0
0
0
93
173
13
0
23
18
0
0
140
0
75
89
0
0
28
25
0
0
4
12
8
0
0
20
7
0
42
89
133
175
99
0
0
0
0
18
0
0
21
0
2
30
0
0
31
33
0
16
10
0
38
35
2
10
0
0
59
0
0
0
0
46
0
5
26
13
20
0
65
0
0
0
15
0
10
21
0
52
0
0
27
0
0
9
13
5
64
34
0
0
0
0
0
0
21
0
29
11
0
0
0
0
11
3
0
0
15
0
22
1
0
0
30
17
0
4
0
8
20
14
39
1
13
0
0
0
2
0
9
0
0
0
0
0
0
21
0
0
18
0
0
13
0
13
8
27
0
8
21
14
0
24
10
0
18
4
16
11
0
0
27
0
13
0
0
5
11
17
151
110
8
14
6
11
9
9
24
0
0
0
0
0
7
9
0
34
10
0
38
0
28
0
20
0
0
0
0
0
0
12
0
26
8
1
0
24
0
0
0
29
0
0
0
0
0
8
21
0
32
0
0
5
0
1
21
0
21
0
0
12
19
9
12
0
0
0
24
0
5
0
5
0
0
13
0
0
16
3
30
0
0
19
0
9
0
31
15
17
15
0
12
1
9
17
0
8
8
36
21
0
0
4
0
45
0
2
26
12
1
12
7
26
7
0
0
0
35
1
10
14
4
0
6
30
19
0
0
0
163
182
0
32
43
0
0
0
45
47
0
42
39
62
0
0
0
85
54
11
0
0
0
0
2
31
0
0
0
0
0
9
0
0
10
1
35
0
0
20
98
57
80
5
84
117
68
68
14
51
0
8
0
27
93
41
19
0
29
40
0
0
0
0
0
0
0
0
0
0
0
0
32
0
109
0
78
118
0
0
0
9
2
0
7
0
0
0
0
0
60
64
206
0
0
0
0
0
15
0
27
15
80
0
0
0
114
0
0
0
88
88
0
0
0
0
0
0
0
0
0
0
149
0
8
0
0
0
193
70
0
16
123
185
2
94
2
0
11
0
33
0
103
45
0
15
19
0
22
0
15
16
0
2
0
13
0
17
0
16
21
0
0
0
25
0
0
16
0
48
0
15
0
0
0
33
0
0
22
5
0
0
33
0
0
0
0
14
50
0
13
0
0
0
17
6
0
7
12
0
0
0
25
41
10
32
20
0
8
0
0
73
67
0
0
72
193
17
15
0
64
0
78
0
41
144
35
0
0
42
0
0
64
2
14
0
0
26
9
54
96
186
147
0
0
0
0
0
0
36
18
0
0
0
24
19
0
0
0
0
0
18
12
0
0
0
0
3
0
0
30
0
43
10
0
15
52
0
0
0
14
4
5
0
0
11
44
1
18
29
0
0
0
0
0
0
12
19
0
11
14
1
8
13
1
0
3
0
33
0
24
0
13
0
17
0
32
0
15
18
0
0
2
0
7
0
3
9
5
11
0
0
0
0
0
7
0
2
21
0
0
0
33
0
0
26
0
6
0
0
16
0
0
0
4
18
0
22
1
5
11
0
0
0
0
13
0
2
0
0
31
0
0
9
20
0
3
13
0
28
10
36
152
108
0
0
0
15
0
0
15
7
0
10
20
14
4
4
0
0
0
0
13
0
0
0
22
0
31
22
4
0
0
23
0
0
0
28
0
7
0
37
0
3
4
15
27
0
16
0
0
3
0
22
24
0
2
18
0
28
0
0
11
0
0
0
24
0
0
0
0
0
15
1
44
19
0
64
0
0
0
0
0
0
7
16
0
28
0
0
0
0
0
1
0
2
0
14
31
0
0
19
2
0
40
29
21
1
0
0
0
0
0
13
0
2
2
0
0
22
6
0
29
30
0
21
35
0
0
0
0
0
23
179
47
0
0
0
0
17
0
0
0
65
69
13
0
0
116
101
40
0
0
0
0
44
26
0
42
46
0
0
26
20
31
0
5
12
13
0
0
0
33
13
0
0
0
38
0
0
0
63
0
0
0
0
0
44
108
99
40
37
45
23
0
0
0
111
69
0
0
14
60
0
79
0
12
0
101
0
3
0
0
0
0
25
0
5
0
0
0
0
175
0
169
0
0
0
0
0
0
181
242
0
35
0
24
0
0
0
3
32
0
36
72
111
42
68
24
101
57
0
0
37
198
0
0
39
0
75
133
57
0
75
217
0
67
29
0
0
0
60
138
0
69
0
18
7
0
13
0
0
0
31
11
0
0
19
0
23
0
28
0
0
1
50
0
0
0
33
9
6
0
0
0
9
10
19
0
0
3
0
42
0
35
0
27
0
0
21
0
0
0
11
17
17
1
40
0
4
20
13
0
0
0
0
0
0
11
0
4
0
0
0
5
90
0
0
172
169
0
0
59
24
0
0
0
126
128
0
8
73
6
0
6
14
10
0
46
52
81
127
102
39
0
0
0
4
0
49
12
0
4
15
0
0
0
0
0
0
49
0
59
0
9
13
6
0
31
0
0
11
0
0
0
24
8
0
0
0
36
0
0
3
27
0
0
0
0
0
4
18
0
5
1
0
0
0
1
29
44
28
38
17
0
24
0
0
0
0
28
0
38
0
14
33
0
0
12
15
0
2
1
5
2
9
0
0
0
0
0
0
33
10
23
0
19
28
0
0
0
11
4
16
0
3
0
0
0
4
8
14
18
6
16
1
4
0
0
14
0
13
0
0
0
50
5
18
0
0
0
7
0
24
0
0
0
0
19
0
0
22
0
0
153
108
6
0
4
0
7
0
29
0
11
12
0
0
0
0
0
0
0
40
4
0
22
0
3
0
25
0
0
0
38
17
0
0
0
14
0
21
23
0
13
0
0
0
12
0
3
0
0
3
9
0
0
13
0
15
0
0
0
34
0
0
12
41
0
0
52
0
24
2
0
0
10
0
7
0
0
46
0
28
47
0
0
57
0
12
9
14
49
0
27
0
25
26
0
0
0
0
0
6
0
1
13
0
0
6
11
0
13
13
0
0
0
0
9
0
27
13
9
13
0
14
0
0
2
0
0
0
13
0
0
51
164
0
0
0
21
0
23
0
0
26
97
0
0
0
244
0
16
0
0
23
0
0
23
0
0
0
0
18
92
7
0
14
0
23
22
44
0
21
10
0
0
0
0
0
0
0
0
1
0
0
1
0
0
0
0
0
0
0
76
38
10
0
0
8
0
0
28
70
41
0
0
30
5
44
36
0
21
0
0
26
27
24
0
0
41
0
0
52
146
0
198
0
0
28
0
115
0
60
148
0
0
0
0
0
0
1
69
17
0
71
135
59
143
115
129
172
139
120
48
58
245
5
37
62
42
0
187
81
0
0
0
0
8
2
0
0
86
178
53
0
94
0
0
29
0
26
0
4
8
0
3
0
0
0
27
15
0
6
9
0
16
6
0
4
3
0
8
0
0
27
0
2
0
31
0
0
23
20
28
0
38
0
23
4
0
0
0
0
35
38
0
7
0
23
0
0
12
19
13
34
5
25
0
33
43
10
0
8
0
0
0
29
5
0
0
148
191
0
0
34
0
16
0
0
119
0
0
0
4
0
0
0
0
30
34
94
32
16
0
0
0
0
7
0
0
0
0
0
20
5
0
43
2
0
0
0
22
0
21
0
0
81
1
18
8
0
79
11
11
0
17
6
0
11
90
1
0
0
0
0
39
0
0
42
0
69
0
0
0
0
58
60
0
0
49
15
27
0
0
0
0
13
0
11
14
11
8
0
33
0
0
0
24
5
33
0
19
0
0
0
0
6
0
14
1
22
8
0
2
0
0
0
12
0
0
26
6
1
0
0
11
11
0
3
11
0
1
0
1
0
7
0
19
14
0
6
0
0
10
0
0
0
0
1
0
0
27
17
0
21
0
0
3
16
0
13
12
0
0
0
151
107
0
0
0
0
28
7
0
0
13
0
0
35
7
28
2
0
23
6
0
0
0
0
11
0
0
0
0
18
0
0
22
6
18
24
0
0
0
0
19
0
0
0
0
54
0
6
0
0
0
14
5
18
0
34
0
2
9
8
0
34
38
0
0
0
0
0
0
0
0
5
14
0
19
0
53
0
0
0
6
8
3
0
3
0
8
0
0
7
10
0
6
6
27
0
30
11
4
0
0
4
11
0
0
0
0
36
0
28
0
26
0
0
72
0
0
22
0
0
0
17
0
39
0
31
6
0
10
0
0
0
190
41
36
0
11
0
2
0
0
80
110
0
0
0
206
0
0
12
4
0
0
2
18
8
0
0
0
0
0
0
0
9
0
50
35
0
0
40
2
0
0
0
5
0
10
39
57
74
55
97
61
89
22
0
0
62
0
0
0
0
0
75
102
46
0
0
59
92
0
0
51
88
0
101
0
0
39
0
55
0
98
13
16
0
0
1
0
13
0
0
141
0
0
0
0
0
0
255
32
0
0
23
28
38
21
0
0
0
66
0
0
0
12
0
0
0
42
0
0
11
172
0
3
29
0
0
134
59
0
0
0
110
99
0
0
81
194
44
0
0
78
14
8
24
0
7
0
1
0
8
13
0
31
5
19
0
0
0
10
11
0
0
25
10
0
5
8
43
0
31
0
0
35
0
9
0
0
0
13
0
17
4
0
0
0
0
12
9
0
5
4
42
12
0
8
16
0
0
14
16
18
15
26
26
35
0
13
64
0
0
0
0
53
30
0
0
36
215
0
0
19
37
0
0
178
85
0
2
0
49
0
0
15
0
21
0
0
0
0
0
0
0
0
13
26
0
0
10
0
0
16
31
22
38
23
0
0
0
25
15
0
7
0
0
0
0
1
0
36
4
12
30
20
0
0
0
0
0
17
13
0
10
0
14
0
0
25
0
0
0
0
0
0
0
0
33
0
17
6
18
0
2
16
0
0
0
18
14
0
0
14
30
0
0
18
0
34
0
30
15
0
26
0
21
0
0
0
42
24
1
0
11
0
0
7
0
0
0
0
6
2
1
15
16
15
10
13
11
30
0
0
0
0
0
7
8
0
8
0
23
0
5
24
6
0
17
0
7
0
23
10
0
0
10
7
0
0
0
8
0
151
109
10
10
16
30
0
16
23
0
0
0
5
0
17
0
24
5
14
0
16
17
19
0
0
0
0
15
19
25
8
0
34
0
3
9
15
0
39
13
24
10
12
10
0
0
0
0
47
5
0
6
0
1
0
12
0
0
0
31
4
4
0
0
4
35
0
11
0
5
35
0
30
43
27
0
0
11
31
0
0
0
0
33
0
0
0
37
13
0
13
0
1
0
0
0
8
17
2
4
18
0
0
17
0
18
0
3
3
0
0
33
0
0
0
0
9
24
7
8
23
6
9
43
14
27
0
0
0
0
0
0
181
46
55
16
0
0
12
0
0
40
83
0
19
0
56
0
0
0
0
0
0
21
13
37
0
0
36
7
4
0
35
5
0
0
0
0
0
0
9
0
0
40
76
53
49
0
0
39
0
0
27
65
16
17
0
14
0
0
0
0
0
38
0
0
0
13
48
30
0
0
46
45
0
57
0
0
64
0
13
1
1
0
30
0
0
21
1
0
87
0
129
18
0
7
43
55
28
84
0
0
2
0
0
0
11
3
25
0
43
0
0
0
0
10
78
0
0
0
0
0
186
0
68
13
0
0
157
83
0
40
105
121
89
0
0
169
105
0
0
9
16
9
0
5
0
0
0
31
0
22
25
0
13
0
0
0
3
16
0
0
0
33
19
0
0
0
2
0
0
35
1
0
8
27
7
0
29
0
16
0
0
0
0
8
6
31
24
0
20
0
0
0
0
30
0
10
0
15
3
19
16
0
0
5
53
17
0
9
0
0
0
0
6
60
7
0
0
255
200
0
0
0
100
0
0
91
83
0
0
35
0
17
19
15
88
0
0
0
64
41
0
0
5
0
0
0
14
68
3
0
16
0
0
0
0
25
0
0
0
4
0
20
37
33
0
0
42
36
0
0
0
1
29
23
9
19
0
0
54
8
0
14
0
52
0
0
41
0
23
29
0
1
0
0
34
64
4
32
24
0
1
11
2
0
2
27
26
22
13
27
0
0
2
4
14
0
3
2
0
0
6
16
16
0
4
0
0
0
0
12
0
4
1
0
1
3
0
17
2
6
8
0
0
4
0
0
4
0
0
10
11
16
1
0
5
0
0
17
0
18
0
0
0
1
12
0
0
0
3
1
17
0
0
0
0
23
0
0
0
44
152
108
0
0
0
0
2
0
8
0
15
23
0
0
0
0
22
0
0
0
1
9
0
0
11
0
15
17
0
0
13
22
0
10
12
0
0
0
4
0
1
0
0
0
12
0
11
0
3
1
0
7
12
17
0
0
39
0
14
0
16
0
12
10
20
0
3
23
0
0
7
0
0
0
0
0
0
0
19
5
0
34
25
0
0
26
0
19
0
9
0
0
34
0
0
0
15
0
8
0
37
23
0
1
5
2
0
21
0
6
0
34
8
0
25
0
0
35
0
6
0
0
0
8
0
0
18
7
43
0
0
0
175
18
19
72
0
0
59
0
14
3
64
0
158
0
0
0
0
26
24
44
0
44
0
0
0
19
0
11
27
0
34
39
21
48
0
0
0
0
0
10
26
31
26
0
30
0
0
52
0
0
35
79
1
75
0
27
0
39
43
0
125
10
0
0
0
0
34
42
0
0
40
0
65
57
0
21
22
0
0
0
0
0
0
0
19
10
8
0
10
0
79
87
0
99
6
0
0
0
0
0
66
0
17
0
0
0
0
0
0
0
33
0
0
0
0
0
0
0
0
0
153
0
0
0
73
0
47
67
0
0
134
0
0
0
0
0
0
0
0
0
32
8
0
23
0
0
18
27
0
4
0
0
0
0
0
29
0
2
0
11
44
32
0
0
23
24
11
0
20
14
0
18
0
0
0
14
31
0
0
0
0
0
26
0
10
31
0
0
7
0
5
1
0
10
3
6
0
0
0
0
0
1
0
19
27
13
53
9
27
0
0
3
0
0
96
2
0
0
235
212
0
88
33
0
0
134
78
0
0
26
49
0
16
0
0
0
0
17
28
59
0
0
0
22
10
17
2
11
0
12
0
19
0
19
18
0
15
6
3
36
2
0
3
0
0
0
0
0
0
51
0
31
0
0
0
30
0
0
0
3
0
47
31
2
38
0
0
0
1
34
0
0
39
0
59
0
20
0
0
0
0
0
20
0
0
10
0
23
0
0
17
0
12
9
0
0
2
14
0
8
0
0
0
0
0
19
2
26
0
7
7
0
0
15
13
0
15
0
26
0
30
7
0
9
10
0
16
0
35
0
4
19
16
8
10
7
15
0
15
0
0
36
0
25
0
0
7
5
16
0
3
5
0
17
0
0
0
0
0
13
150
105
0
46
33
31
0
15
0
0
4
23
4
0
18
0
11
25
23
0
33
3
0
0
43
0
0
0
18
8
28
0
0
19
6
0
0
24
13
20
0
0
40
2
43
1
2
0
0
0
17
14
0
4
0
7
26
0
18
0
0
32
11
1
9
19
0
0
0
0
8
0
37
0
70
44
0
27
0
0
0
0
0
33
0
0
20
1
0
0
0
0
0
29
0
0
0
0
15
0
0
0
0
9
0
2
0
0
0
11
0
3
7
0
0
26
0
29
17
93
0
100
0
50
12
14
0
3
0
0
0
0
205
0
0
14
40
0
0
0
14
57
12
0
188
10
0
0
0
15
0
0
34
0
0
0
0
23
0
2
57
0
27
0
0
8
0
60
0
0
8
22
54
18
0
4
61
0
13
6
0
0
72
50
57
41
58
110
1
0
0
0
0
44
64
14
0
0
0
0
0
0
49
75
0
31
31
0
0
0
60
0
0
20
13
0
36
0
84
10
0
0
79
51
0
0
100
59
0
44
72
0
0
0
1
3
4
0
8
44
0
31
0
0
22
0
33
56
0
12
0
0
61
0
0
94
125
0
0
91
0
0
0
0
0
0
0
0
0
0
4
0
34
34
0
0
0
8
0
5
0
26
5
4
0
0
54
3
2
0
0
55
8
0
0
8
0
0
36
0
35
20
0
38
0
17
12
22
15
0
0
0
31
33
50
26
18
14
4
0
9
0
11
0
0
0
0
0
0
0
17
0
0
10
18
14
10
9
10
1
0
0
0
29
59
0
30
77
5
0
0
196
0
16
0
53
0
3
121
13
0
0
36
0
44
17
0
0
0
0
31
25
0
18
0
0
0
16
12
0
0
9
0
17
0
8
0
26
0
10
0
11
0
2
8
7
38
0
0
0
4
0
0
0
0
47
0
24
2
0
0
16
0
0
32
0
1
5
0
0
40
24
0
0
0
23
27
41
27
0
46
0
0
0
2
19
6
12
17
24
0
4
1
0
0
7
14
0
5
4
0
0
9
16
70
0
0
0
0
3
0
0
4
4
32
6
0
0
0
0
18
0
6
0
13
0
2
4
0
0
26
0
12
0
0
0
0
0
5
0
25
12
5
20
0
2
5
9
0
0
0
0
0
29
0
14
38
0
7
0
0
26
151
106
0
0
0
0
0
8
0
27
0
0
21
21
0
0
18
0
16
0
22
5
0
0
1
0
23
6
0
0
0
0
4
17
0
0
0
0
32
0
0
0
0
0
0
0
0
5
0
4
11
0
0
0
19
0
6
0
0
23
0
0
17
0
24
0
0
14
0
3
23
15
51
0
0
0
0
32
41
27
40
0
25
0
28
6
30
0
4
42
34
40
0
29
0
0
0
0
0
0
17
7
0
13
0
35
0
3
2
14
14
0
0
10
0
31
25
0
0
0
0
24
0
28
0
5
1
17
0
0
0
0
231
54
0
0
29
35
0
20
0
49
39
77
11
0
0
17
54
14
0
28
59
45
0
0
0
39
12
0
28
0
0
26
0
0
0
78
0
0
51
14
59
0
0
0
0
43
55
65
5
0
92
0
4
0
0
45
18
0
69
0
0
0
0
0
2
87
0
0
0
0
79
159
0
66
0
0
32
42
99
0
0
42
0
0
0
4
124
0
0
0
139
28
64
5
0
11
0
0
0
0
0
31
0
26
0
29
0
0
0
9
71
13
0
4
20
0
23
4
0
0
132
0
12
134
34
0
0
109
0
0
111
79
0
0
73
0
29
0
20
16
0
15
0
0
14
12
0
26
0
35
6
0
0
16
46
0
0
0
6
10
0
0
11
35
0
14
38
1
33
0
0
23
6
29
11
5
0
0
0
37
27
0
0
0
3
8
34
0
37
0
7
11
0
19
10
14
25
14
0
0
28
19
9
0
12
28
34
0
4
0
0
0
103
25
0
0
48
0
0
0
159
0
36
0
0
0
37
66
0
0
0
44
0
58
21
41
0
13
65
0
0
23
43
3
0
0
0
0
0
29
20
0
19
31
40
38
0
6
0
0
0
17
4
51
0
0
27
0
82
68
18
28
0
53
0
64
0
0
35
0
0
0
33
0
6
0
0
30
0
0
0
8
32
54
10
26
0
0
32
0
0
12
0
0
0
0
5
0
14
5
21
0
25
0
16
0
0
5
12
0
0
3
0
0
36
15
2
0
16
0
6
0
25
0
21
16
29
5
22
0
0
11
0
3
13
0
7
0
0
0
0
15
22
19
6
0
0
0
5
0
0
16
0
7
0
0
0
27
0
7
0
0
0
20
0
0
8
41
6
0
149
108
2
0
0
37
0
0
9
13
0
0
21
0
0
17
0
0
24
5
0
19
0
3
0
0
30
0
0
54
0
41
0
0
8
15
7
0
0
2
0
16
0
0
0
20
0
0
9
20
0
0
25
5
12
10
17
0
13
12
16
0
31
0
0
0
0
22
0
0
0
0
14
0
0
0
0
0
4
0
0
0
0
18
19
0
0
0
10
22
0
0
0
8
26
0
45
33
0
25
10
16
0
18
0
0
28
0
9
8
11
0
0
12
30
0
15
2
22
2
0
0
0
15
25
41
0
2
0
14
0
0
231
38
24
0
0
51
0
26
0
0
50
22
0
0
0
0
0
15
0
16
0
0
0
32
0
22
39
0
27
4
0
22
0
0
0
7
0
55
59
0
3
0
3
0
0
10
4
37
0
0
179
26
35
0
0
26
0
0
24
10
77
0
52
46
0
0
0
0
42
0
5
0
0
28
0
0
0
0
53
33
10
3
51
0
0
49
84
0
0
0
255
0
97
84
0
102
0
0
12
0
0
80
0
0
0
0
0
61
10
0
62
0
0
0
17
0
0
0
0
0
9
0
187
34
0
0
0
62
0
0
239
121
0
22
123
12
16
0
11
42
0
0
0
0
0
9
12
28
0
0
0
17
39
0
0
0
25
11
21
0
30
23
0
0
14
13
2
0
1
0
44
50
0
15
0
0
0
0
39
0
2
17
15
0
0
11
8
0
3
8
21
0
0
21
0
0
0
1
0
4
13
0
20
35
0
0
28
0
0
42
0
0
65
0
72
0
0
0
0
0
90
121
57
0
27
0
0
147
0
51
0
86
0
39
0
66
0
15
18
0
0
0
10
0
28
0
0
0
2
0
0
0
0
0
24
0
0
0
8
0
0
0
10
0
0
113
0
36
0
0
0
0
0
5
0
12
0
14
0
0
7
0
43
0
12
0
34
26
0
43
0
4
16
0
3
0
21
0
0
24
0
0
22
12
12
29
0
4
20
0
1
27
0
6
0
9
4
0
26
10
35
2
0
23
0
1
0
20
0
7
7
0
0
16
0
23
0
0
3
0
3
3
0
0
29
0
0
1
14
5
1
0
18
5
0
0
7
31
3
6
0
12
0
18
3
37
0
14
0
29
8
10
31
0
0
41
3
0
8
7
151
110
26
37
0
25
10
0
18
0
0
16
0
0
27
0
0
15
0
0
27
12
0
0
20
0
28
1
0
38
0
1
0
0
4
17
0
0
29
19
0
39
18
0
0
21
0
12
0
3
7
8
23
1
6
21
0
7
0
14
0
20
24
2
0
11
0
0
0
0
48
0
11
0
42
0
2
13
37
0
0
23
0
0
0
0
17
1
0
26
0
0
21
0
0
0
2
0
0
19
0
0
0
0
10
3
21
1
0
2
39
0
0
0
9
0
20
0
1
6
0
40
8
0
0
0
11
0
23
0
0
0
231
14
26
2
0
59
0
25
28
32
152
0
0
0
0
4
0
50
0
37
0
0
26
35
49
0
20
4
17
0
0
0
3
0
0
40
13
0
18
0
4
30
54
12
2
0
0
12
0
0
95
20
58
13
16
0
0
46
58
15
0
0
0
0
0
0
16
0
0
0
0
7
56
45
0
145
0
0
13
105
0
0
35
0
0
47
75
42
0
0
165
0
94
82
0
48
0
0
16
12
22
0
0
7
11
44
13
0
0
14
34
0
53
0
1
40
0
17
0
0
62
201
65
0
0
0
0
27
0
0
243
1
0
48
105
14
47
0
8
24
8
8
5
7
22
33
14
7
5
45
0
25
0
0
0
29
0
0
33
14
12
16
0
46
0
0
41
34
0
0
27
19
0
0
0
0
12
19
28
32
17
10
0
0
6
9
4
0
0
0
6
0
0
16
2
7
0
5
1
0
0
0
11
33
0
11
0
30
37
19
0
0
0
0
22
40
2
0
0
0
0
199
55
4
0
59
0
178
0
43
0
11
0
17
0
15
11
91
39
0
4
0
62
0
15
0
0
0
13
0
38
0
20
0
0
56
4
0
0
23
19
19
0
18
0
0
47
0
0
5
0
13
13
172
0
24
0
23
0
0
5
0
43
0
11
0
0
0
0
21
0
28
29
28
40
48
9
0
0
0
25
0
3
22
18
35
0
0
1
0
12
0
0
0
0
2
7
0
0
0
11
0
0
0
10
2
0
22
0
7
31
0
21
0
0
0
10
0
32
12
0
0
21
0
18
0
12
0
13
13
11
0
0
0
0
2
2
6
0
11
3
60
0
1
1
0
0
4
0
0
16
0
8
11
0
0
0
0
0
0
151
106
0
0
9
0
0
0
15
10
0
31
0
28
0
0
0
12
0
9
0
0
0
0
0
0
0
17
17
0
2
0
43
3
0
4
0
0
0
24
1
0
3
10
0
4
0
28
0
22
0
0
0
0
26
19
0
0
12
5
0
23
2
8
25
4
0
15
0
0
0
33
0
0
22
0
21
6
0
0
0
28
7
0
20
17
2
0
0
20
0
0
48
0
40
0
13
0
1
16
9
1
0
16
0
0
0
0
8
0
7
0
32
53
0
1
0
0
0
40
0
0
0
0
19
0
9
0
0
0
0
0
214
38
0
25
0
16
13
35
22
33
69
0
0
0
0
20
16
39
23
0
0
28
0
0
6
0
47
0
26
0
0
0
0
69
9
25
24
0
0
0
40
0
14
49
1
13
0
0
45
0
0
57
0
0
0
0
0
162
58
15
56
0
22
33
0
0
28
0
0
0
0
0
130
0
0
0
0
104
11
34
79
30
0
0
0
19
74
0
0
0
0
2
75
102
46
81
0
0
0
0
18
0
19
72
0
0
0
0
0
0
18
0
34
0
0
0
0
0
44
34
0
75
26
0
0
0
0
104
21
0
234
0
0
113
21
0
25
0
18
0
0
27
0
4
10
0
0
0
6
0
0
6
0
4
5
6
9
0
0
0
0
0
13
21
0
0
19
0
0
0
10
0
0
0
0
39
36
0
3
7
0
20
0
0
13
27
19
0
11
0
0
0
0
0
2
0
11
46
15
0
0
13
0
0
0
4
0
9
48
0
34
0
32
0
0
0
0
0
17
0
0
45
92
16
0
67
0
37
75
0
0
0
11
21
0
59
25
38
0
0
7
0
2
0
0
10
0
0
12
4
0
11
0
13
0
0
34
0
0
95
0
0
0
0
0
0
0
0
12
50
0
0
0
0
0
25
0
0
10
8
29
34
0
43
0
0
10
0
0
38
0
19
47
5
7
0
0
34
32
0
0
12
0
0
15
0
4
32
10
0
7
0
1
0
14
1
0
2
0
0
0
0
12
15
6
0
0
0
0
0
0
0
11
10
19
7
0
0
23
9
3
0
0
0
0
7
16
8
0
2
4
0
11
5
0
28
2
1
0
6
0
0
4
11
1
0
1
0
18
0
0
15
0
0
5
0
0
0
0
2
150
107
8
18
0
2
0
33
11
31
0
11
51
0
7
7
8
39
0
25
24
17
0
42
8
0
0
0
0
56
7
0
9
0
15
0
33
0
15
0
0
0
0
0
14
0
0
16
11
9
0
0
16
5
8
25
0
36
3
18
14
14
0
1
12
0
0
16
0
7
19
0
0
59
21
0
40
18
0
8
0
32
5
13
20
0
3
38
10
18
45
0
3
0
1
0
46
0
28
0
4
63
0
12
0
21
7
21
0
3
0
17
0
1
0
22
9
28
23
0
0
18
0
26
0
0
69
0
1
0
0
0
193
46
0
32
0
0
19
61
17
4
0
0
0
0
30
23
11
24
0
0
25
14
8
5
18
0
48
0
0
0
24
0
24
49
0
0
22
53
0
0
63
0
0
0
0
70
70
24
0
0
0
2
0
0
0
0
24
119
0
0
0
0
0
34
25
0
24
0
24
15
6
22
134
38
0
0
5
0
0
0
124
0
0
9
0
31
114
23
0
0
0
0
161
0
24
98
3
0
0
0
0
0
0
0
10
59
0
45
19
49
0
0
0
0
0
0
0
34
79
88
0
94
0
0
0
0
47
151
8
0
246
0
0
120
0
0
16
0
29
0
2
0
4
0
4
0
0
1
20
0
0
16
0
0
0
0
9
0
0
9
0
6
38
2
0
10
22
0
0
17
0
0
5
33
36
12
16
0
13
9
0
32
1
20
0
20
8
0
29
4
21
3
0
0
18
1
0
18
0
10
0
34
0
0
34
11
27
0
34
0
0
0
0
0
64
16
0
0
36
18
0
0
23
13
0
0
0
0
161
59
0
0
83
0
0
95
12
0
0
0
54
13
0
0
60
15
35
0
45
7
0
0
0
4
0
0
0
30
29
35
0
24
0
79
17
26
13
29
29
0
9
0
0
10
0
56
45
0
17
0
42
0
0
21
0
0
16
8
0
47
18
3
10
47
33
0
0
0
0
0
1
2
19
27
15
0
25
32
0
13
31
0
11
24
0
17
0
12
25
0
16
0
20
0
25
0
0
18
2
16
6
0
17
28
12
0
3
12
4
0
0
26
3
35
0
0
7
0
0
0
0
2
0
5
0
12
0
0
7
0
0
0
0
6
5
0
0
0
22
19
0
4
0
2
13
19
15
12
27
22
148
105
0
41
19
0
0
3
0
0
0
0
0
5
0
61
0
0
24
6
0
19
0
0
7
0
0
0
0
0
31
0
46
0
0
2
0
0
1
21
19
0
0
0
5
4
0
0
0
0
26
6
12
0
19
11
0
0
0
0
0
8
0
0
26
0
0
0
0
3
20
0
0
0
16
0
58
0
25
0
0
40
0
1
1
0
0
0
0
0
32
0
0
0
22
0
47
0
10
16
0
0
0
0
21
26
0
0
5
26
0
0
1
17
16
18
7
0
3
27
0
15
0
38
0
0
33
0
8
0
0
0
126
108
0
0
19
0
0
72
132
66
0
0
0
0
0
0
18
17
0
0
0
13
2
34
11
41
11
0
0
0
13
18
49
0
63
23
0
4
0
4
55
0
23
3
0
63
67
0
0
0
0
0
59
10
0
0
77
24
0
2
0
0
0
0
4
0
49
0
0
0
0
0
72
81
63
0
0
0
75
10
122
53
0
0
0
0
90
108
0
16
0
0
81
8
50
131
177
0
0
0
0
0
0
0
35
0
0
0
7
0
0
0
4
18
0
0
20
65
172
22
0
50
0
0
0
23
169
144
0
0
190
0
0
95
0
0
0
0
0
0
1
0
26
0
10
22
10
8
22
0
0
13
0
0
7
6
0
2
10
0
0
9
9
0
26
0
0
0
0
1
35
19
47
9
0
16
0
0
4
18
0
12
0
0
0
0
0
0
5
0
0
27
0
10
0
8
0
0
19
22
4
27
0
11
14
9
7
14
24
0
0
6
0
0
58
0
0
0
5
0
0
0
20
89
23
58
0
0
112
112
0
0
137
0
7
61
91
0
0
0
35
73
32
59
0
0
0
9
0
0
30
6
0
52
26
28
0
1
0
0
20
0
0
9
42
0
0
52
0
1
14
0
52
26
0
0
0
8
59
0
19
0
0
0
0
11
9
0
0
0
0
19
26
0
23
0
53
0
0
0
0
9
15
0
15
1
0
0
5
13
0
28
0
0
0
18
0
0
0
9
19
0
0
0
0
0
19
1
0
3
0
0
0
3
0
5
22
0
4
18
0
0
0
2
4
4
0
0
13
17
0
1
0
24
9
15
0
20
0
6
7
4
4
0
0
6
29
15
0
0
2
0
9
0
0
0
3
3
0
0
148
103
0
0
6
0
0
0
34
0
67
20
0
63
0
3
0
0
0
0
21
5
0
14
0
0
0
0
56
11
0
0
16
0
32
0
21
0
0
0
31
0
6
0
35
0
0
0
0
0
4
0
0
0
0
0
12
31
9
17
0
25
31
18
41
1
0
0
25
0
23
29
0
11
23
2
7
0
36
0
10
0
0
25
0
16
29
41
19
0
35
32
0
6
0
0
0
0
32
0
0
48
17
0
0
0
0
23
43
0
24
0
15
0
0
0
25
0
0
0
1
13
0
24
0
0
14
0
9
0
0
0
105
142
6
0
33
2
0
101
128
0
0
0
19
0
0
20
44
4
12
0
5
0
0
32
0
7
13
0
0
0
29
0
0
0
21
30
0
34
77
19
0
0
64
32
0
0
17
21
0
0
0
0
0
68
0
0
104
0
54
0
1
17
0
0
37
0
19
12
72
0
0
0
0
88
0
71
0
0
28
0
56
0
0
0
0
0
170
103
0
0
0
10
0
0
21
61
91
1
140
99
117
120
0
0
0
0
0
32
0
0
23
5
0
0
0
0
80
135
125
3
0
0
0
0
32
146
111
45
0
0
37
0
27
47
35
15
0
6
32
0
0
12
21
8
26
25
8
31
0
19
2
27
10
17
3
25
0
7
23
0
8
18
17
15
21
14
19
0
12
19
11
0
0
17
0
0
0
0
0
17
0
0
0
0
7
20
18
0
13
0
4
1
0
22
0
20
3
1
18
0
0
11
0
27
1
7
0
0
7
11
10
0
0
0
17
18
0
0
0
31
0
0
0
124
0
12
0
0
94
78
15
0
68
0
34
76
62
0
0
0
6
0
0
0
19
0
32
1
6
11
0
6
0
0
13
0
52
0
81
5
0
0
21
0
0
8
0
28
44
0
29
0
0
0
0
1
3
0
0
39
3
0
0
0
0
0
0
0
0
32
9
27
38
0
12
0
0
0
0
25
8
0
10
0
11
0
0
8
0
1
0
0
20
45
0
4
25
5
0
0
14
0
7
2
8
0
0
10
0
0
20
26
1
8
0
7
0
0
0
19
4
10
10
7
0
14
5
8
10
0
14
6
9
18
0
0
0
0
2
0
0
0
11
18
0
0
0
0
0
24
0
0
22
0
39
0
11
0
36
0
149
107
22
14
0
5
38
0
45
0
22
0
0
0
0
20
8
10
12
5
2
3
23
8
0
0
24
19
0
7
5
24
0
0
6
0
0
0
28
0
0
0
2
0
0
23
17
0
16
4
0
0
10
20
21
0
0
0
8
6
0
43
0
0
0
23
0
34
4
0
17
0
0
0
0
0
0
18
61
0
0
34
30
0
8
0
1
0
0
0
10
0
17
17
8
17
0
0
15
0
0
0
0
49
18
61
0
0
22
0
3
4
22
3
0
0
0
0
0
11
0
0
5
0
0
8
29
2
9
0
0
0
60
184
30
0
23
34
0
68
46
0
0
0
0
19
0
0
0
5
19
0
20
12
0
18
0
0
0
0
15
27
32
32
0
0
14
0
0
61
44
11
0
0
0
24
56
102
67
73
133
0
15
0
0
0
0
98
148
0
0
0
0
0
75
0
0
0
0
0
0
6
0
13
34
33
45
17
46
0
0
0
78
83
23
6
0
0
191
78
0
0
0
58
0
0
0
186
95
0
4
0
125
223
170
225
8
0
0
44
0
16
0
0
0
0
0
117
150
166
0
0
0
0
0
65
146
6
0
44
0
0
0
0
87
78
17
0
0
11
0
35
24
0
0
20
24
0
0
0
0
0
8
0
0
0
7
0
0
0
0
13
35
7
11
48
0
0
0
0
0
24
4
0
0
38
13
6
0
16
0
36
0
0
11
0
0
0
22
0
6
0
6
0
21
6
0
7
4
0
0
2
0
3
0
3
0
26
2
1
25
3
27
0
15
3
74
13
0
0
0
45
41
0
0
98
46
9
0
0
29
138
41
0
21
3
53
75
0
0
0
0
0
0
9
60
0
0
0
0
40
0
30
0
0
0
0
0
1
12
0
0
0
57
7
0
0
0
0
0
20
0
0
77
0
21
0
0
18
0
6
0
32
0
55
1
70
13
0
0
0
43
23
0
41
31
0
22
0
2
0
29
0
0
4
20
0
31
0
0
0
0
28
0
0
0
0
26
0
18
34
35
0
0
7
0
27
0
26
8
0
10
0
0
0
6
0
20
0
1
0
14
0
11
2
0
43
0
0
0
0
12
2
0
0
4
0
15
0
18
0
30
0
9
0
0
0
0
9
3
2
9
0
0
21
0
24
0
6
4
35
0
150
100
0
35
12
12
44
0
8
0
0
0
17
18
0
0
1
10
8
1
9
0
33
0
6
0
11
6
20
28
0
1
0
0
28
25
0
17
17
0
36
36
6
23
0
0
0
17
22
0
0
7
13
9
1
1
2
0
0
6
0
13
0
22
0
23
0
0
0
14
0
60
30
15
4
9
27
4
0
0
0
8
0
0
0
43
0
26
33
7
0
4
0
27
40
1
0
0
30
0
2
0
0
0
0
2
0
2
0
15
0
6
13
0
5
44
0
21
15
15
21
0
8
0
16
0
0
12
0
44
5
0
0
149
75
6
0
16
33
106
0
0
0
0
0
0
0
0
0
0
0
37
20
0
34
45
22
0
0
11
16
0
21
22
33
0
91
0
0
86
44
0
0
8
3
79
2
22
114
112
0
0
0
0
0
0
60
73
88
0
0
0
41
0
0
0
51
37
0
0
7
0
0
0
0
0
20
70
21
0
0
0
0
18
2
39
0
0
138
115
0
0
66
50
0
0
0
169
76
0
0
0
0
27
0
22
0
8
4
1
4
20
0
0
0
0
87
112
130
10
0
0
0
0
52
127
74
0
25
18
37
0
0
8
0
89
36
0
48
0
22
0
39
0
3
22
0
10
0
3
53
0
10
3
0
5
0
0
0
31
15
1
64
6
60
0
0
0
1
8
0
0
2
0
0
20
0
0
0
0
0
1
0
0
0
12
11
11
0
0
10
1
17
0
7
0
0
0
0
29
0
3
11
0
10
16
11
33
6
11
17
49
0
0
4
0
22
0
15
0
0
0
10
6
0
29
0
92
31
0
0
115
38
0
0
80
0
64
72
0
0
0
0
29
17
0
0
11
20
0
26
0
18
0
33
0
0
0
0
34
0
79
0
19
0
19
0
49
103
23
13
0
0
0
0
38
17
57
2
0
0
86
0
0
0
0
0
0
0
0
0
13
6
44
0
0
0
4
0
0
0
19
4
19
0
16
0
0
15
1
6
26
0
0
6
2
15
0
0
13
0
0
20
30
14
0
18
0
38
0
29
1
10
38
0
0
0
0
0
4
13
0
0
6
0
0
25
0
4
3
0
28
16
0
17
4
0
2
20
0
0
0
0
24
7
12
0
1
17
0
30
24
0
7
9
0
15
0
0
15
2
0
151
102
0
0
0
0
13
0
0
2
17
19
0
0
0
34
0
0
20
0
32
11
1
0
0
0
0
0
0
0
33
0
12
2
0
0
2
0
11
0
0
16
0
0
20
0
0
0
19
0
10
0
0
0
0
0
24
0
11
65
5
0
0
27
7
87
0
37
9
0
0
23
0
0
27
0
0
0
40
0
38
0
47
30
11
0
0
31
0
0
8
24
0
13
0
0
29
0
0
11
17
0
15
0
0
29
0
20
0
0
0
11
10
0
0
0
0
5
30
9
37
0
5
0
0
4
0
3
12
0
0
0
0
84
94
28
0
13
73
155
0
0
0
34
11
27
0
47
0
0
7
20
0
0
0
45
0
0
63
43
22
0
7
3
4
0
63
59
0
1
70
49
64
91
105
75
0
3
0
51
0
0
0
32
0
81
51
72
40
0
0
0
0
0
5
0
29
4
0
0
62
0
7
32
0
0
0
89
62
0
30
20
0
18
0
32
0
0
132
109
0
0
44
44
5
0
0
220
168
5
0
0
0
0
0
0
0
0
55
0
0
0
0
0
0
118
181
82
26
0
0
0
0
47
130
105
0
0
8
9
95
0
0
0
0
47
38
50
17
0
0
49
23
0
24
0
48
8
0
0
0
0
35
0
20
0
26
0
37
0
0
63
67
0
0
0
0
17
0
32
0
0
33
18
0
43
0
17
25
3
14
0
10
21
0
0
2
36
7
0
33
0
0
0
6
0
15
16
0
19
21
22
18
0
7
10
8
0
0
0
21
0
39
0
1
0
62
31
0
0
0
0
5
8
0
0
0
27
7
0
0
108
77
15
0
52
7
25
0
0
0
0
21
0
0
0
0
0
18
0
0
0
0
0
0
15
23
79
0
43
0
0
0
0
0
31
25
0
0
0
5
0
0
15
0
0
0
0
0
0
24
0
0
0
19
0
40
0
0
0
58
24
32
6
26
7
24
19
0
0
25
0
17
21
0
8
11
4
0
0
0
0
44
0
0
0
13
30
0
6
0
37
0
11
1
0
0
0
0
0
0
2
1
0
0
11
0
12
0
0
0
22
0
17
4
0
22
0
0
29
0
0
3
0
1
7
0
0
0
0
18
4
20
0
0
0
13
0
1
0
4
0
0
6
0
19
0
11
17
0
4
0
150
104
20
22
0
13
2
28
0
41
0
11
19
11
0
22
22
0
0
11
25
0
47
23
0
1
29
34
8
0
4
0
13
0
3
17
0
19
0
0
2
7
17
0
0
3
37
0
0
0
24
0
14
15
0
0
4
5
0
32
7
28
12
0
0
0
0
13
0
0
0
14
10
10
0
21
27
0
13
0
0
0
0
0
0
40
0
0
0
0
0
0
0
8
43
0
4
0
32
0
0
9
0
8
0
0
11
4
3
22
0
2
0
0
18
33
0
0
3
0
0
0
13
0
28
7
20
32
12
5
0
0
0
23
171
28
0
13
67
75
0
0
0
0
0
9
0
0
27
0
0
44
37
0
22
0
0
2
75
63
0
0
0
4
68
76
127
82
0
18
89
0
22
0
0
0
0
0
0
0
0
0
4
0
0
68
44
114
0
0
0
0
33
0
0
0
32
0
0
16
57
0
0
0
45
0
0
0
86
24
39
0
0
49
0
19
84
0
60
64
0
0
116
0
0
0
17
168
128
2
0
0
0
0
50
5
0
0
0
0
0
0
0
0
16
193
197
0
0
0
0
0
19
81
101
0
0
0
12
10
70
0
0
0
16
10
0
21
36
0
0
44
24
0
0
0
88
0
0
32
15
8
35
0
32
0
29
0
15
0
54
89
0
0
0
5
37
0
4
52
0
0
2
42
0
0
3
13
22
0
0
53
10
5
7
5
0
0
0
9
8
0
10
0
16
0
0
8
0
8
0
0
0
8
22
23
6
9
23
24
30
0
11
0
0
0
0
0
25
0
0
0
0
32
15
0
20
0
39
0
0
68
89
7
0
96
70
45
61
0
0
0
0
0
40
0
0
0
122
131
25
22
71
4
0
13
5
0
0
0
0
19
17
39
37
0
0
39
19
15
0
35
0
21
9
0
23
20
6
0
44
19
0
0
2
0
13
0
22
8
31
0
32
42
17
0
27
0
0
18
9
20
0
33
0
17
0
0
27
15
4
16
0
2
0
0
9
21
0
0
0
0
0
29
0
0
18
29
0
0
9
0
0
20
0
7
7
1
4
0
0
16
0
54
0
16
19
14
18
0
0
18
17
0
1
16
5
0
14
0
0
0
25
0
31
0
10
0
8
0
0
0
0
18
0
20
0
0
0
0
12
21
150
99
0
0
35
0
0
40
0
25
0
12
0
8
1
0
0
0
0
0
0
0
0
0
0
0
0
0
0
0
51
0
5
9
0
0
0
11
0
7
0
7
0
0
28
0
0
0
35
12
0
0
0
10
15
19
14
0
0
0
0
0
38
8
49
0
1
8
20
5
48
33
0
2
0
0
0
38
35
4
21
22
0
27
23
24
0
60
6
0
24
46
14
0
12
0
0
9
1
23
0
17
0
40
0
7
26
0
0
0
0
0
0
20
255
0
0
12
23
0
33
0
0
42
10
0
13
1
0
0
0
0
0
0
157
69
0
12
86
93
0
0
37
0
5
1
42
15
9
16
8
0
35
0
0
0
4
31
38
0
0
21
0
0
0
0
29
0
0
0
0
0
27
0
60
38
95
70
152
121
170
51
54
0
0
21
94
75
0
0
0
0
23
0
0
50
62
0
0
76
21
0
0
0
37
0
0
0
0
0
89
0
0
45
0
0
18
18
49
27
0
0
255
0
0
0
0
42
199
118
0
24
4
0
0
1
0
1
2
0
0
0
0
51
126
177
10
0
0
0
0
43
71
116
2
0
0
0
0
6
26
0
0
0
71
20
0
0
0
0
8
47
0
0
0
25
25
0
18
23
0
0
29
0
14
0
19
0
51
51
54
0
0
0
11
0
11
0
0
0
2
0
0
10
15
0
4
11
0
0
0
8
9
0
0
26
2
0
7
8
0
3
2
0
0
19
0
13
0
0
9
1
0
0
0
4
5
17
8
13
5
0
27
0
25
0
15
41
5
0
18
0
0
0
0
0
22
51
35
85
0
0
142
58
0
13
49
28
87
0
0
24
37
0
46
0
91
0
0
0
0
0
77
0
0
0
0
39
0
30
7
0
0
8
22
0
6
0
0
0
0
0
9
23
14
14
0
16
15
1
0
0
66
0
0
0
0
0
10
26
0
24
36
15
2
0
4
0
0
14
2
0
17
36
0
16
0
0
37
0
0
23
6
13
0
34
0
0
0
35
0
0
15
0
5
15
0
17
30
0
30
0
0
10
7
0
14
0
0
19
0
20
0
0
15
0
0
16
5
13
0
0
0
5
1
1
0
38
13
0
12
0
28
0
0
0
15
0
11
1
0
38
0
21
0
0
22
0
0
17
2
0
147
100
0
0
45
34
9
0
0
65
0
22
46
0
7
20
0
17
0
10
2
32
0
42
0
20
8
0
2
0
0
5
42
4
6
7
16
0
0
9
9
0
33
15
0
12
0
0
0
0
30
2
0
0
14
22
0
0
16
12
0
5
21
0
0
16
0
33
0
0
0
0
13
0
18
2
0
6
0
0
0
15
2
0
17
29
0
0
24
0
0
23
23
0
25
33
0
0
0
39
0
0
2
0
0
14
0
0
8
17
0
0
0
255
103
0
0
0
4
18
0
34
0
0
1
0
4
0
0
38
0
0
0
0
20
160
14
17
109
0
0
14
13
0
23
0
61
0
0
3
32
0
0
0
0
70
95
10
10
19
0
17
49
24
0
0
0
0
0
54
0
0
93
63
55
0
0
0
64
68
43
0
0
0
0
138
129
0
0
0
0
0
5
0
0
64
62
3
28
32
19
0
0
0
0
0
55
0
0
0
56
0
44
0
0
0
11
76
37
105
0
0
239
0
0
0
0
0
252
197
0
0
42
30
15
2
0
3
0
0
0
0
38
197
108
9
0
0
0
0
3
111
41
0
0
0
0
6
4
12
34
0
0
0
55
50
24
0
0
33
26
41
0
22
0
24
7
0
0
0
0
0
9
9
6
8
18
25
24
18
0
0
0
60
0
0
27
6
18
11
11
0
5
0
11
4
0
36
23
0
3
0
31
8
0
3
16
0
0
0
2
0
6
8
0
8
0
22
0
0
0
0
28
0
0
1
15
0
0
0
35
10
50
0
0
0
14
20
25
0
0
0
25
16
0
2
0
0
18
110
0
0
175
42
0
8
26
80
18
43
0
0
75
55
5
0
0
23
74
28
0
0
41
0
0
1
1
0
0
0
0
0
12
34
0
35
51
29
0
41
28
0
0
0
0
5
24
0
17
0
75
3
0
0
24
0
0
0
0
50
24
58
24
2
0
0
0
0
0
2
18
12
0
18
0
3
18
0
31
0
30
0
0
12
0
0
16
12
0
0
0
8
0
13
0
0
5
0
0
0
24
39
23
8
8
3
0
17
23
3
0
24
0
5
5
0
0
0
0
13
13
20
0
0
0
15
0
0
0
12
1
0
6
17
0
3
0
0
2
18
2
9
0
0
11
22
4
0
7
7
0
0
152
104
2
19
0
0
0
0
2
0
0
0
0
5
0
12
0
46
0
0
19
0
0
11
0
0
0
24
0
0
0
0
0
0
0
27
18
0
5
12
23
0
1
0
0
14
0
0
31
10
0
0
0
0
12
0
21
0
2
23
5
7
0
0
15
0
0
0
0
0
59
0
0
0
27
0
9
22
0
10
0
0
7
0
6
14
10
0
24
0
0
0
10
0
15
38
0
31
0
0
9
39
0
0
1
14
0
0
8
0
0
61
239
155
0
0
0
14
0
38
0
14
0
0
27
0
20
0
7
9
0
31
0
0
0
195
77
0
117
0
0
0
36
0
0
0
3
0
54
0
0
0
0
42
0
44
33
24
0
0
0
10
49
51
0
0
157
32
42
53
0
0
0
48
16
0
0
0
41
0
0
0
0
0
0
129
128
14
0
41
1
0
0
0
0
46
14
0
0
29
2
8
43
0
26
0
111
0
0
0
18
0
27
0
0
0
0
7
46
109
58
0
255
0
0
0
0
0
180
240
0
0
0
25
0
12
0
50
0
0
0
0
121
155
37
0
0
0
0
74
106
95
0
1
0
0
17
0
11
8
77
2
0
0
50
70
26
0
0
0
12
0
2
72
0
28
1
0
11
17
0
0
13
0
7
34
0
76
0
0
0
0
5
23
16
0
11
0
21
0
16
0
23
13
22
0
0
0
16
0
0
0
0
0
0
0
14
0
0
2
0
0
0
21
0
23
0
4
0
0
0
0
5
0
8
21
13
17
19
0
26
9
0
17
0
0
0
0
39
0
54
16
8
0
2
0
0
0
0
57
21
0
95
91
0
0
65
99
0
46
0
0
0
0
26
0
0
0
0
0
16
0
0
0
27
2
24
30
0
0
75
0
0
18
10
0
0
0
0
0
0
0
23
24
0
23
0
0
26
0
0
10
15
0
0
0
0
0
28
26
0
0
21
4
0
6
0
17
0
0
15
35
0
13
0
0
0
13
0
0
2
15
0
0
0
0
0
0
0
0
0
17
0
0
0
0
0
0
12
0
0
0
0
0
3
46
0
2
0
26
0
17
0
0
3
3
14
11
0
0
0
0
13
0
0
11
3
0
5
17
19
0
1
0
7
3
14
0
0
0
0
33
0
0
27
0
35
0
26
0
19
11
149
106
8
0
8
0
25
9
33
0
19
5
7
31
0
19
0
0
0
15
0
0
12
0
0
0
20
0
37
4
11
14
13
7
0
0
0
0
0
0
0
0
14
0
0
13
25
4
4
0
0
11
15
0
1
22
34
0
5
12
0
23
30
5
15
24
0
17
0
21
31
0
27
0
18
14
0
30
0
32
0
3
33
0
0
6
0
2
21
15
0
12
11
0
2
12
0
24
4
0
0
8
1
15
10
0
0
0
0
0
33
245
5
0
0
6
0
49
48
0
0
3
14
0
0
23
16
8
33
8
7
42
0
0
0
54
147
15
83
3
0
0
32
0
0
8
40
0
27
35
38
0
0
77
0
24
0
45
3
0
0
3
54
51
51
33
33
14
48
45
62
7
97
0
0
0
0
0
0
0
59
0
15
18
0
154
153
0
0
2
0
25
0
45
77
49
0
0
0
50
0
0
14
29
0
86
0
50
0
0
0
32
0
1
17
0
0
0
59
116
0
72
210
0
3
0
10
0
26
216
0
0
0
37
0
31
0
0
0
0
0
170
207
17
0
0
0
0
0
120
75
0
0
52
18
0
5
0
0
63
0
0
0
0
56
76
2
0
8
0
2
4
23
0
0
13
0
0
24
11
0
14
31
0
0
41
7
12
0
0
0
0
0
21
0
14
26
0
13
0
8
7
0
5
6
0
17
0
18
0
10
12
32
0
0
0
0
10
25
4
9
5
0
0
0
19
2
0
2
27
7
8
2
5
0
20
0
0
0
0
26
27
0
29
1
3
2
0
29
0
0
0
0
0
0
5
0
29
0
50
116
0
13
164
0
0
52
77
4
94
0
0
0
0
16
47
0
1
0
27
0
7
0
0
0
0
0
0
8
0
4
0
6
7
38
18
10
0
24
7
27
0
0
0
17
32
0
47
11
54
0
54
0
6
0
0
0
0
0
30
48
3
9
0
17
0
0
22
0
34
0
0
19
28
0
19
0
0
17
11
2
0
10
0
10
0
0
24
0
21
17
0
0
0
15
12
22
26
0
8
0
29
0
17
0
0
0
1
0
19
0
0
6
0
4
11
0
17
1
0
13
0
0
4
32
0
20
0
0
0
0
16
12
0
10
0
0
8
7
0
0
2
0
34
0
19
0
0
8
0
22
0
148
103
0
12
56
0
0
0
27
20
0
0
3
2
0
28
5
3
0
44
13
8
0
0
0
0
0
0
20
0
10
0
4
15
0
18
5
0
47
10
21
0
11
0
0
0
6
6
0
5
0
0
0
0
6
0
4
21
0
4
0
0
13
0
0
3
0
7
0
0
0
36
19
6
0
0
33
27
0
0
58
5
0
0
12
5
0
0
3
0
13
14
35
0
20
15
20
0
22
0
10
0
15
0
0
20
24
0
0
0
108
24
0
0
0
4
19
0
0
0
0
0
16
5
0
13
1
0
13
0
0
1
12
0
0
0
174
62
84
100
0
0
0
10
18
0
0
0
7
0
3
0
33
47
0
26
0
0
46
28
0
13
21
0
37
5
0
0
22
100
76
87
113
0
0
14
6
15
78
0
3
0
11
73
0
61
148
0
0
0
0
11
0
69
129
1
0
6
56
94
0
0
0
26
0
8
6
0
0
0
7
103
19
0
37
0
0
0
0
68
63
44
168
0
0
0
0
0
0
255
0
0
0
0
0
7
0
0
0
0
67
166
40
0
0
0
0
0
98
106
0
0
0
31
44
0
9
0
0
0
64
0
0
0
57
0
0
0
53
31
12
0
0
25
26
0
0
0
0
13
0
0
17
8
0
32
0
0
0
17
22
0
0
17
0
0
0
0
16
0
34
5
0
30
24
0
8
0
0
18
0
0
27
3
13
20
0
10
0
0
2
0
0
22
0
16
5
12
0
5
0
0
0
23
0
0
0
0
15
8
41
30
0
0
0
0
26
0
29
17
0
0
0
0
0
0
11
2
0
46
146
0
0
215
50
0
31
71
0
0
0
0
60
0
0
139
15
0
0
18
0
0
12
36
0
28
0
19
13
0
0
7
0
0
16
0
3
24
0
0
31
0
0
16
0
8
0
4
0
5
0
43
0
0
8
0
0
32
0
39
1
46
5
27
2
0
0
33
0
21
0
18
0
0
0
3
8
0
4
0
26
0
15
0
16
0
51
0
0
26
0
0
22
0
39
7
0
12
66
0
0
12
5
0
0
8
13
7
5
0
26
16
42
22
0
23
3
0
14
0
0
3
0
15
0
4
0
0
12
11
11
5
2
0
0
19
5
0
24
0
1
0
0
26
0
9
16
4
0
14
0
0
146
107
22
0
11
6
19
0
0
0
4
22
0
13
0
31
0
0
0
0
14
21
0
13
0
0
0
16
11
4
12
16
15
0
13
0
36
0
0
0
13
0
22
18
1
7
9
0
13
0
0
35
0
28
16
0
0
0
17
27
6
18
27
86
0
13
0
19
0
0
0
21
0
19
20
0
4
0
0
15
0
15
23
2
25
0
25
15
0
2
45
0
0
0
0
0
0
12
0
0
0
0
0
0
8
24
0
22
22
0
62
0
0
10
0
0
25
0
23
30
25
0
0
0
8
0
0
15
10
29
14
0
0
0
0
0
98
117
84
118
0
0
21
6
0
0
0
0
0
0
0
13
42
39
1
0
0
0
0
24
31
0
26
27
59
0
0
12
27
0
0
0
0
0
15
0
0
89
0
0
0
0
23
0
0
59
212
0
0
0
0
0
7
34
37
0
0
0
71
0
0
0
14
18
38
0
0
10
2
0
70
0
0
0
8
39
56
74
0
0
11
0
117
62
74
8
92
0
0
255
124
215
0
3
0
0
0
0
0
138
99
113
0
0
0
0
0
74
125
51
0
0
53
0
38
0
5
5
35
31
65
28
0
0
58
17
1
5
10
0
10
37
2
75
26
0
0
0
35
31
33
0
0
6
37
16
0
0
17
0
22
1
0
4
14
14
16
1
0
0
0
3
7
0
10
8
5
0
8
0
0
14
0
4
0
21
0
8
6
2
4
1
3
11
0
26
0
5
0
2
17
0
0
0
0
5
0
0
1
0
5
11
7
14
24
0
0
0
46
0
0
0
0
0
0
0
3
0
0
0
138
0
0
176
99
0
0
155
0
0
81
0
0
0
0
0
122
32
9
39
38
0
0
0
0
12
0
0
28
4
13
50
0
18
1
21
0
56
0
20
0
51
0
23
0
0
21
8
12
15
0
4
0
16
22
0
40
0
2
24
0
19
15
0
11
2
0
21
3
0
28
29
27
35
24
0
24
0
0
0
0
0
4
0
0
0
0
11
0
0
1
17
0
0
10
0
0
7
0
0
0
0
5
3
10
14
0
0
0
0
0
2
0
0
3
0
0
0
13
2
10
13
24
0
0
9
5
1
0
0
4
0
2
10
0
4
0
0
4
5
0
22
0
1
2
0
0
0
4
8
0
0
149
102
0
3
0
1
0
3
0
0
0
5
0
16
0
0
0
12
17
7
0
0
0
0
0
95
18
6
0
6
0
0
1
1
4
0
0
6
4
1
11
0
0
3
2
0
16
5
19
0
3
14
0
25
1
26
0
0
8
0
0
35
0
0
38
0
5
0
0
9
13
32
0
0
0
0
0
46
46
16
8
11
17
0
3
0
0
18
0
0
0
0
2
4
3
22
0
0
0
47
0
10
5
2
26
0
0
0
0
0
3
20
0
20
0
0
33
0
0
0
19
0
0
32
30
0
16
0
0
0
9
0
30
0
0
0
0
155
104
115
0
0
32
0
12
1
30
0
0
0
59
9
0
0
0
44
94
0
0
44
29
11
21
0
0
0
0
24
69
3
0
0
0
0
0
0
110
42
0
0
0
30
0
0
0
0
211
0
0
0
0
0
53
0
0
0
0
15
120
0
0
11
22
0
12
98
0
0
8
0
77
0
17
0
0
0
0
195
26
0
183
0
0
22
109
124
124
52
85
255
58
11
0
0
0
0
0
0
35
151
92
0
0
21
0
0
78
128
32
0
0
0
48
0
2
33
8
28
0
29
74
0
0
0
0
51
0
0
0
0
22
33
15
31
0
0
0
3
4
12
0
0
0
66
0
0
0
15
0
11
0
4
0
0
29
0
0
0
11
21
24
0
6
0
0
0
12
0
17
0
0
8
0
0
0
20
0
9
0
16
0
13
0
0
8
3
0
0
9
0
0
0
3
0
8
8
7
21
0
24
0
17
15
0
19
0
0
0
13
15
0
5
2
0
0
32
15
0
8
0
91
53
0
110
189
0
13
131
0
0
24
0
12
18
72
0
0
0
0
1
25
0
56
0
0
61
40
0
37
14
0
0
11
0
23
54
0
17
0
0
0
0
4
12
0
0
0
0
0
19
0
0
0
0
0
0
0
46
32
50
23
0
9
0
0
0
0
0
0
0
19
0
0
0
14
0
0
41
0
20
4
8
0
22
7
0
0
1
0
6
0
13
0
0
0
6
0
0
26
0
0
39
0
3
0
0
1
0
0
25
0
10
0
4
0
36
0
42
0
9
14
0
0
16
13
0
0
8
2
0
8
42
10
3
0
6
19
11
0
0
0
8
0
11
0
0
33
0
2
7
25
0
152
107
21
6
23
0
18
30
28
0
11
0
0
19
0
44
57
0
6
47
0
24
13
20
0
14
0
0
0
0
13
0
0
14
0
0
9
11
14
0
0
4
19
10
2
0
0
0
0
2
0
20
0
21
0
22
0
2
10
0
0
11
27
28
7
0
0
21
0
30
0
6
47
13
0
0
0
0
0
9
0
10
25
0
10
12
4
14
0
40
0
0
0
0
0
33
0
36
0
40
0
0
54
0
0
30
25
0
19
8
0
0
0
0
31
4
0
0
12
0
9
0
6
7
0
0
20
0
4
13
0
13
24
0
0
0
0
116
161
109
0
0
0
1
0
0
51
0
0
6
69
0
0
0
0
0
2
73
0
0
36
25
10
0
0
0
81
106
28
0
40
60
0
0
0
51
188
0
0
0
8
0
33
0
0
0
167
39
0
91
104
149
0
0
0
0
0
40
0
0
12
0
17
0
0
12
0
0
0
52
77
0
49
0
0
0
0
179
43
0
255
0
0
55
0
0
0
0
0
255
95
0
0
0
0
0
0
121
42
241
0
0
0
0
0
59
103
35
0
0
0
0
61
0
0
32
0
0
0
33
85
0
74
0
0
72
0
0
15
0
37
4
24
15
0
3
0
10
17
0
0
26
66
0
0
15
0
15
0
43
0
36
0
0
3
8
33
0
0
25
4
5
0
7
2
20
10
0
37
9
0
22
0
16
0
0
0
6
10
13
0
24
0
0
24
0
27
0
21
0
0
16
8
15
0
5
0
28
0
17
9
19
30
0
0
0
0
0
36
18
0
0
0
0
0
0
0
0
0
0
10
217
0
0
238
0
11
115
0
0
160
13
0
0
7
0
0
18
0
4
57
0
32
0
22
0
17
10
21
0
0
3
54
33
0
2
0
0
12
0
0
0
23
29
11
0
25
11
16
52
54
0
0
0
0
21
42
37
20
27
20
0
30
23
17
0
0
8
2
33
2
0
10
0
16
0
13
0
12
23
0
0
0
10
8
0
21
0
0
2
0
0
8
17
0
0
31
0
3
0
0
0
1
0
4
0
11
7
10
7
0
13
6
7
0
0
0
13
9
29
0
23
0
0
0
14
0
0
2
0
0
11
0
0
0
0
6
16
0
6
3
0
0
5
10
0
7
0
0
0
0
0
148
104
0
0
16
0
0
0
0
0
15
0
0
24
0
13
0
0
2
0
0
0
0
15
0
0
0
21
11
0
31
0
23
0
0
18
0
0
5
0
0
11
0
0
4
22
7
6
10
6
0
0
0
4
17
0
52
0
0
22
6
28
0
0
0
4
0
0
0
0
0
0
0
0
35
51
0
13
29
0
0
0
0
0
0
12
0
18
0
0
34
5
37
0
0
19
0
8
0
28
0
30
0
2
17
16
0
0
35
0
8
102
23
0
0
0
0
0
26
37
36
0
1
5
0
12
0
0
6
12
3
0
0
0
0
0
0
0
172
180
13
0
0
62
39
17
10
0
0
28
27
28
0
0
14
22
3
37
0
0
0
66
31
0
0
78
76
0
0
0
0
0
0
61
62
72
59
0
24
1
19
11
0
0
0
0
71
182
0
0
0
29
0
0
82
16
26
90
0
0
0
0
7
136
0
5
0
0
0
123
0
0
41
0
0
0
0
207
160
0
66
54
18
46
0
0
0
0
0
60
234
44
0
0
0
0
34
74
165
0
0
2
0
0
0
190
0
0
0
9
2
0
0
38
42
1
6
33
0
50
74
0
80
0
0
93
0
0
0
0
24
54
24
0
0
3
0
3
0
0
68
8
0
0
0
0
24
9
0
2
0
11
4
1
18
0
10
0
12
0
0
54
15
0
13
1
18
0
12
0
22
21
0
9
10
0
0
12
0
0
0
0
0
0
10
0
0
0
0
12
0
0
11
0
0
0
0
1
0
9
7
0
41
20
18
5
34
31
0
0
26
0
0
0
15
3
15
41
20
0
0
148
0
0
229
20
0
83
38
0
201
32
0
0
38
0
0
5
0
0
0
0
34
0
0
0
0
0
33
14
0
15
0
0
107
2
24
106
0
1
28
0
15
0
11
0
4
17
0
0
0
0
8
30
0
11
34
4
28
29
12
0
0
0
0
0
0
32
0
7
22
0
0
9
0
7
6
0
2
7
14
13
31
0
0
0
0
2
15
6
0
18
15
0
23
0
2
33
1
36
0
24
0
0
23
5
0
0
0
0
6
6
0
1
0
4
0
17
0
0
0
7
0
9
5
38
0
35
27
0
14
0
4
0
0
6
0
0
0
35
0
7
1
1
42
22
9
20
0
3
47
0
151
104
2
3
9
0
0
34
6
0
0
0
7
22
0
18
0
0
0
6
36
7
14
25
8
0
0
0
0
0
0
0
16
1
25
0
0
23
14
40
4
12
39
2
0
13
0
4
19
1
2
8
28
9
7
0
11
0
14
0
0
1
13
4
12
20
6
0
0
9
25
0
0
13
12
0
0
0
21
21
0
57
0
27
0
0
0
0
0
6
4
0
0
0
30
24
24
0
0
13
0
0
3
0
0
0
12
0
0
0
0
91
103
0
14
17
0
0
0
17
0
5
10
0
31
31
0
27
26
0
0
0
0
35
17
9
0
0
113
226
61
0
2
20
0
0
0
0
76
22
0
64
60
0
0
14
3
0
70
0
0
77
16
93
0
1
0
0
0
91
11
0
138
246
0
166
0
0
0
0
0
10
0
3
0
0
0
188
95
0
0
0
0
0
0
46
159
35
0
0
0
14
0
37
0
0
0
0
48
131
0
0
35
0
8
0
0
92
161
0
0
41
53
20
0
21
1
0
0
0
255
126
0
0
0
69
85
164
48
0
0
28
0
4
129
31
0
17
0
27
27
0
0
14
50
0
0
16
0
36
48
0
133
0
0
152
0
0
8
12
37
31
0
5
7
11
4
0
0
64
16
0
17
14
26
0
78
0
0
29
5
0
0
13
11
0
3
0
34
0
0
31
1
0
0
28
16
0
2
0
12
15
10
0
1
12
0
35
7
18
0
0
18
3
0
20
2
12
0
8
0
0
0
15
8
8
13
5
17
0
8
24
2
0
0
9
0
0
0
39
33
0
0
5
27
0
0
0
0
31
0
135
0
0
205
75
0
102
159
0
197
0
0
0
5
22
53
23
5
40
0
0
4
0
36
0
0
0
0
20
0
0
9
39
0
0
0
0
24
2
0
0
0
0
0
40
15
3
24
5
0
31
0
0
0
0
46
34
53
7
0
13
9
5
0
4
7
27
0
11
8
24
16
24
0
4
6
0
0
1
0
1
6
0
20
0
4
0
2
12
0
30
0
0
0
0
9
0
0
0
0
0
11
0
1
16
0
2
9
10
0
0
0
4
0
0
19
0
0
0
0
2
5
0
19
0
0
23
0
15
25
1
28
0
3
4
0
7
4
0
3
0
9
0
6
0
0
0
2
2
0
0
147
100
0
47
0
2
0
31
0
0
54
0
22
24
0
75
0
0
9
0
0
0
24
0
0
0
0
0
0
52
0
2
0
0
12
4
9
4
0
0
0
0
0
0
5
0
17
0
14
0
3
0
0
12
0
19
4
4
27
0
25
2
52
0
0
0
5
0
0
0
9
0
0
0
39
0
6
0
0
0
0
0
0
0
0
0
58
5
8
0
11
0
3
0
0
1
0
33
3
52
0
3
37
0
21
11
0
39
20
0
0
0
29
0
0
22
67
5
0
27
0
15
0
0
7
1
0
0
6
0
12
6
0
0
0
2
0
0
0
171
0
0
43
12
0
0
0
55
62
0
0
0
0
4
0
0
20
4
57
74
89
0
0
80
0
0
0
0
64
29
0
0
30
0
64
189
0
0
0
0
43
59
0
0
0
0
0
0
202
10
0
0
33
0
0
89
26
0
3
0
93
20
0
76
0
37
0
0
154
53
0
0
152
0
6
58
0
0
78
0
0
47
57
0
0
0
0
0
0
0
147
214
0
0
0
76
147
49
0
0
0
0
0
188
14
0
0
17
0
9
1
21
0
3
16
0
0
8
4
37
42
0
120
0
0
121
0
14
28
26
11
17
0
22
0
0
0
6
35
59
0
0
13
0
23
0
0
6
0
10
0
27
12
0
10
0
35
0
20
0
0
0
0
0
0
0
16
2
13
0
0
0
0
0
27
0
0
34
7
11
0
0
12
2
0
8
0
1
13
0
14
0
0
23
0
6
5
3
13
0
16
8
30
12
0
11
20
0
0
0
0
0
0
0
0
32
0
3
0
0
0
102
136
0
50
123
0
58
166
0
200
0
0
0
27
0
0
0
0
10
0
36
0
44
6
49
37
0
6
0
11
8
16
8
0
32
21
32
23
0
14
7
0
0
11
0
0
0
10
1
0
0
0
0
0
1
0
20
0
38
2
31
0
10
0
11
0
19
20
14
11
0
0
0
0
21
0
8
1
0
0
0
0
0
17
0
21
6
17
11
0
0
0
0
0
2
0
0
0
32
1
12
20
0
0
0
0
0
0
9
1
41
0
56
0
0
0
13
3
0
33
17
0
0
0
0
0
23
0
15
4
0
22
0
54
0
0
29
0
0
0
13
0
0
0
0
8
18
0
0
5
2
150
103
9
0
0
15
6
0
27
0
3
0
0
0
0
13
0
19
19
23
2
0
17
26
0
0
0
40
2
15
7
23
0
21
35
0
26
0
22
17
6
6
1
0
33
1
11
0
18
4
0
0
0
14
0
18
0
0
6
0
2
25
0
0
0
39
0
0
0
0
0
0
43
0
16
22
0
22
21
25
0
58
39
0
22
0
5
0
0
36
0
33
0
17
30
8
0
0
0
7
11
0
20
10
0
0
0
0
18
0
0
12
7
30
0
12
0
0
28
0
39
47
62
4
32
13
45
41
32
83
69
44
36
0
0
6
2
12
0
82
6
0
0
43
29
0
24
55
0
21
16
0
0
106
33
0
5
0
0
30
40
0
0
5
0
0
0
104
58
5
0
0
0
0
213
0
0
0
0
0
97
0
0
26
0
0
0
0
10
205
0
0
0
0
67
76
35
4
0
0
0
43
0
61
0
10
0
0
192
0
0
39
240
0
0
64
0
0
0
54
0
11
158
0
0
0
6
0
0
0
0
229
0
0
0
152
140
4
0
0
0
0
106
67
0
14
10
0
24
0
0
38
0
30
0
0
0
44
3
5
19
0
45
0
0
100
0
30
46
30
0
0
0
0
11
0
0
5
0
0
0
0
0
0
6
24
0
0
0
10
0
8
0
0
0
5
15
1
28
0
38
5
16
0
20
23
4
9
0
16
0
0
12
0
30
0
0
0
0
0
11
0
1
0
0
13
0
0
11
18
0
17
0
19
3
0
0
0
13
0
22
15
28
0
2
0
16
0
0
40
23
38
10
1
10
0
14
22
0
0
0
0
162
0
0
110
0
36
146
0
7
0
0
109
46
14
0
92
2
0
13
0
0
0
0
32
0
34
0
0
0
0
0
0
15
15
0
0
0
30
11
0
0
0
38
3
2
1
0
0
0
0
0
0
22
60
12
11
52
6
0
10
0
0
1
0
0
29
0
0
28
0
0
11
19
0
5
22
14
16
27
0
25
0
0
3
20
17
19
0
0
31
2
26
0
17
0
10
9
1
0
0
15
0
28
15
40
0
9
0
0
11
0
29
0
14
21
8
0
0
11
0
0
0
5
33
0
0
0
7
0
10
14
16
0
8
4
0
0
0
16
3
0
3
35
1
3
0
18
3
3
0
151
100
0
0
30
0
34
0
0
0
13
17
0
0
15
9
0
0
13
0
29
1
8
0
2
0
10
0
0
0
0
38
0
0
0
0
0
44
0
0
4
0
0
0
6
0
0
0
0
19
0
7
0
6
7
16
0
7
0
16
8
14
0
7
1
0
0
41
28
0
0
0
0
34
0
0
9
9
0
0
0
0
0
28
2
0
10
24
0
24
0
0
0
9
0
32
0
0
15
0
0
1
0
0
0
7
15
6
0
0
16
0
0
0
18
2
0
0
0
0
9
0
2
0
21
0
0
0
0
0
0
0
36
0
11
67
68
0
0
55
138
0
0
35
0
5
0
0
0
23
36
18
49
11
0
4
9
0
62
0
0
0
29
0
0
0
20
165
0
0
0
0
0
0
255
0
19
0
0
102
188
0
6
121
0
0
0
0
0
143
37
0
0
78
113
43
0
0
0
0
0
0
26
42
0
0
0
0
246
0
0
0
220
0
0
12
0
0
0
148
0
0
235
31
0
0
31
0
0
0
0
115
0
178
44
173
0
0
0
0
0
37
100
0
0
21
3
0
7
0
0
12
0
62
3
0
0
5
0
18
45
23
75
0
0
95
0
0
77
14
0
0
4
0
0
20
11
5
0
2
6
0
7
0
26
0
0
17
0
25
0
11
23
0
0
0
6
0
0
3
0
0
14
0
11
0
0
11
3
15
0
9
2
0
29
30
1
9
0
0
14
0
0
8
10
0
18
0
0
5
0
0
0
0
4
0
11
17
0
0
36
21
6
6
22
0
14
17
0
47
3
31
0
0
0
28
0
0
0
0
0
9
197
0
0
191
40
28
166
0
0
13
0
90
0
0
0
0
31
44
54
2
11
17
32
0
0
17
3
30
0
0
78
24
0
5
0
24
30
0
0
52
33
0
0
13
36
35
0
1
0
4
72
0
72
20
30
0
33
1
0
18
1
0
30
0
0
23
37
0
2
0
0
0
0
0
4
0
5
0
6
2
0
11
8
32
0
0
16
5
2
2
0
16
0
18
0
6
15
0
5
0
0
0
17
0
0
32
15
10
31
0
0
0
0
27
0
0
0
31
27
26
0
23
3
0
10
0
0
0
11
10
5
0
0
20
36
15
0
0
8
0
11
0
23
0
19
0
0
0
17
21
150
100
0
8
29
0
6
0
37
31
0
0
0
0
26
0
3
24
33
55
0
14
0
0
0
0
23
0
0
12
28
0
0
5
15
7
9
5
0
40
0
16
15
0
9
2
14
0
6
0
20
26
0
0
20
11
23
0
0
25
4
4
27
0
0
2
0
0
0
40
5
15
0
0
0
9
34
0
7
5
0
30
16
0
0
18
18
0
0
28
0
12
0
7
50
6
1
16
34
0
0
8
0
6
1
8
10
16
11
0
42
0
0
12
0
20
0
0
0
0
10
0
1
0
0
0
0
0
0
0
0
0
0
0
122
154
49
0
0
0
68
14
0
0
0
88
21
0
0
0
88
5
24
0
0
5
36
0
0
0
0
0
18
0
0
0
99
149
0
0
0
12
0
4
255
0
0
0
0
255
0
0
0
58
0
0
0
0
0
0
0
0
89
122
119
0
0
59
0
7
19
43
55
0
0
4
0
60
217
0
0
0
95
0
2
5
0
0
0
0
0
60
255
131
0
0
0
0
0
0
0
0
2
132
137
9
12
0
0
0
87
171
40
0
0
19
0
0
15
0
6
17
0
26
0
0
3
20
14
15
36
4
85
0
0
36
8
44
36
0
0
0
22
10
13
0
0
0
0
25
30
16
0
0
21
0
18
0
11
0
36
0
21
0
0
17
9
0
20
13
21
0
15
10
0
12
0
0
0
6
0
6
15
0
18
0
0
15
0
0
0
22
0
2
0
0
19
0
0
0
0
0
0
0
0
0
12
10
0
0
0
0
8
35
0
5
22
0
0
0
1
23
0
0
0
0
0
15
0
6
0
0
143
0
0
100
36
18
117
12
0
110
0
29
57
0
0
0
0
5
0
0
0
32
0
0
0
51
0
0
0
19
6
0
3
0
0
0
0
17
0
0
0
29
0
27
0
10
0
0
0
0
0
0
64
0
0
7
22
27
0
11
0
0
6
1
0
0
2
0
24
16
1
0
1
9
2
0
0
0
0
0
0
0
0
0
0
13
0
0
9
0
6
33
0
10
5
0
0
10
0
13
15
0
17
0
27
0
11
0
0
0
12
9
0
0
9
19
0
0
0
0
0
0
0
0
17
2
9
0
11
0
0
9
4
4
0
7
0
37
0
20
8
0
9
0
0
0
17
0
0
0
152
102
1
0
29
0
0
27
13
0
0
0
53
0
17
0
0
0
0
0
32
0
4
0
16
0
8
12
0
38
0
0
8
7
0
0
0
16
10
10
1
0
18
6
2
0
10
8
5
6
0
8
0
4
0
4
0
17
8
0
3
0
27
20
8
42
0
0
0
0
0
0
8
16
0
0
0
8
2
0
0
38
0
3
0
7
0
0
18
20
5
14
14
0
0
0
36
9
0
0
0
0
0
33
0
10
6
0
0
0
1
22
0
0
24
1
0
39
26
21
19
0
19
0
29
0
1
5
0
4
50
7
0
51
96
0
0
0
0
0
0
0
20
0
0
90
20
0
0
0
0
0
0
0
0
4
43
34
27
8
53
36
42
0
0
0
131
128
0
0
9
0
0
0
255
0
6
0
17
175
0
0
34
28
87
0
15
0
0
0
0
160
107
138
0
0
61
0
0
0
0
50
16
0
0
0
0
91
219
0
0
0
66
44
143
0
65
127
0
0
0
230
164
0
0
0
0
0
0
0
0
0
27
0
49
0
0
0
0
25
95
25
0
0
0
0
0
0
14
0
0
0
0
41
0
10
23
0
0
2
0
1
12
0
0
74
38
24
0
0
5
7
23
0
0
0
0
1
23
39
0
0
14
6
0
0
34
3
0
0
2
10
0
0
0
0
0
3
0
5
10
0
0
0
0
21
19
0
12
4
8
6
1
0
0
0
26
0
19
0
21
0
0
0
16
8
10
0
13
24
0
9
4
1
7
0
0
0
6
0
0
0
20
55
17
6
0
9
0
1
77
0
18
0
0
0
0
11
0
0
0
0
197
0
0
107
92
33
79
16
0
95
0
0
28
0
1
55
0
10
0
11
0
0
0
29
0
0
16
36
0
0
0
35
0
0
10
0
16
21
0
0
0
8
0
0
50
0
0
0
52
0
0
0
44
21
0
28
3
0
5
2
0
0
0
8
7
20
33
0
0
7
0
0
6
0
0
17
0
0
20
0
15
0
13
6
0
31
8
0
26
0
0
13
0
6
5
0
0
6
0
0
0
3
8
14
0
3
36
0
10
0
22
13
0
38
0
8
0
2
12
35
0
38
8
0
0
1
0
0
12
12
10
21
0
0
4
0
0
20
0
25
8
0
0
0
9
0
2
10
13
0
153
103
9
0
56
0
0
0
9
0
0
22
0
20
27
0
9
22
0
0
61
35
7
0
21
0
0
17
0
18
27
22
10
1
37
11
8
18
1
11
0
0
0
4
18
5
6
0
0
28
0
27
0
0
7
6
22
0
11
0
0
10
0
0
0
0
0
24
21
0
2
24
0
21
51
0
0
33
0
0
0
4
0
0
0
8
17
3
0
0
45
0
13
17
5
0
0
0
11
18
22
0
11
23
0
7
0
0
0
2
0
0
0
0
17
17
6
18
0
7
10
7
0
0
58
0
27
23
38
53
0
27
0
92
0
0
0
0
0
114
37
0
64
0
0
59
0
0
41
0
0
34
58
11
0
0
0
39
34
21
89
68
0
0
0
104
174
0
0
0
0
0
0
26
251
0
0
23
0
18
0
0
120
0
36
31
0
0
0
0
149
172
0
0
19
0
29
0
0
44
0
67
13
0
0
0
0
247
32
0
7
0
0
77
97
0
10
57
0
0
118
255
0
0
0
0
0
0
30
0
0
103
139
9
0
0
0
0
16
169
45
0
0
10
0
10
0
0
0
0
4
0
0
36
3
38
1
0
0
31
0
34
31
0
0
59
9
0
0
0
24
62
0
0
0
25
28
48
0
0
9
0
6
0
21
0
17
0
0
15
0
40
16
0
9
5
0
9
0
0
22
0
0
0
0
12
7
11
0
5
9
0
32
0
17
0
0
0
13
0
20
0
9
0
20
0
0
5
0
0
4
9
22
0
0
7
2
4
28
3
27
0
28
39
6
21
0
0
0
0
16
60
0
0
0
0
20
7
4
0
0
0
83
0
0
0
126
0
115
46
0
90
0
0
82
0
26
3
0
97
0
26
36
19
0
4
0
0
40
23
12
14
0
26
23
41
2
0
0
30
0
0
0
6
17
9
0
32
0
0
0
0
0
51
35
34
16
1
3
0
0
0
0
0
4
0
9
13
12
0
18
0
2
0
1
0
22
0
21
37
9
22
0
0
11
0
0
2
1
0
17
5
12
21
0
21
21
15
0
6
17
24
0
27
0
0
0
0
0
0
11
0
0
11
0
6
23
0
0
0
0
16
0
0
0
1
0
31
6
0
0
14
0
0
0
0
0
8
5
27
0
17
4
28
18
23
0
35
0
0
1
0
155
101
0
0
0
1
9
22
16
35
0
5
0
0
11
0
11
9
9
2
0
8
0
0
0
0
0
3
0
0
0
0
0
13
0
18
1
0
0
4
0
28
0
2
0
14
0
10
3
13
0
0
0
0
0
5
26
0
18
0
21
27
11
0
15
33
0
0
0
0
0
4
0
0
0
10
3
0
35
0
12
3
0
21
11
17
20
6
0
12
7
0
0
0
3
26
25
33
0
0
3
0
13
2
0
29
0
0
30
23
0
20
0
0
17
0
0
0
17
29
9
30
0
13
7
0
0
5
11
0
0
0
0
176
54
0
31
27
49
113
92
173
231
0
0
33
0
15
64
0
0
27
12
3
0
0
1
87
7
48
30
0
0
0
0
0
255
0
0
0
0
1
0
0
255
0
21
61
0
0
0
53
76
0
2
86
69
0
0
105
200
0
0
79
85
0
20
0
0
28
0
21
58
6
0
0
0
255
0
0
0
0
0
53
234
0
14
0
0
0
255
0
0
0
0
60
50
0
0
0
110
119
171
0
0
0
0
0
153
94
0
0
13
4
0
5
36
24
0
0
0
11
0
46
0
2
9
10
0
54
0
11
0
0
0
45
0
3
101
81
51
1
0
9
53
21
5
7
0
30
6
0
24
0
9
10
0
0
4
0
0
0
25
0
5
0
0
0
0
0
0
0
22
0
15
0
8
0
13
16
0
9
10
0
33
0
0
3
0
0
18
2
6
0
5
0
2
14
5
0
16
11
0
10
5
17
0
9
0
6
14
28
8
36
0
18
17
28
0
19
0
27
0
0
0
0
0
0
35
0
40
0
140
47
0
0
151
33
84
37
0
40
0
0
133
0
0
0
0
52
0
0
0
74
29
0
0
44
0
0
0
21
30
0
0
0
0
0
115
0
0
16
0
0
7
0
0
42
0
0
9
0
0
16
0
33
35
20
3
9
0
0
0
52
0
0
15
6
0
0
7
20
4
0
50
0
1
4
0
0
6
0
0
0
22
0
4
10
6
30
0
9
7
0
0
0
1
21
0
11
0
16
0
6
0
14
6
0
12
0
0
0
18
0
0
0
21
0
32
12
0
7
0
5
0
14
8
0
0
26
4
30
10
0
2
7
30
0
0
0
0
12
0
0
0
10
0
0
0
12
14
20
152
100
0
0
53
0
0
0
0
30
0
26
0
17
0
0
0
0
0
2
0
0
16
20
0
0
0
8
0
31
10
8
32
0
15
5
0
27
14
21
19
15
0
0
19
0
7
0
0
12
0
15
0
36
0
24
0
0
14
12
0
4
18
0
8
23
0
29
23
0
21
19
0
8
4
0
28
16
3
0
0
18
14
0
21
0
0
0
25
0
32
0
8
35
10
0
0
0
6
4
19
1
23
0
2
0
21
7
0
17
0
8
21
0
0
26
4
0
23
0
0
2
0
3
11
8
0
8
0
0
0
0
0
129
233
35
94
94
52
0
6
172
255
34
0
0
0
0
0
3
28
29
0
1
0
0
10
57
1
39
0
0
0
0
0
0
255
0
0
20
0
0
0
0
255
0
173
0
0
0
0
78
0
0
0
0
0
0
101
148
0
0
116
0
26
0
0
11
18
12
4
85
8
8
0
0
0
255
0
0
7
0
0
92
240
0
0
0
0
128
219
0
0
0
53
16
0
0
0
13
128
174
0
0
0
0
43
115
83
0
0
26
0
43
0
32
5
14
0
25
0
0
0
37
15
3
0
0
0
31
15
6
0
27
0
0
76
97
119
18
0
0
0
26
21
0
34
17
22
0
0
0
20
0
0
59
0
0
11
14
0
7
0
2
0
7
30
42
0
33
11
0
27
5
5
0
0
0
0
0
0
17
0
0
5
0
0
23
10
0
29
0
9
0
0
0
23
0
0
0
0
8
0
18
0
10
2
15
0
0
0
0
2
35
6
0
17
5
0
37
24
28
16
0
43
0
0
0
10
14
0
0
15
0
0
53
104
27
94
0
7
0
2
0
73
0
59
0
128
42
37
68
0
0
0
0
24
11
0
46
7
9
16
0
0
6
0
0
0
0
107
0
4
79
10
46
10
8
0
14
0
0
4
48
5
15
4
0
0
6
0
0
0
9
0
16
32
20
0
27
30
0
5
13
0
0
0
26
33
0
0
8
7
4
0
11
0
0
10
0
0
0
3
27
16
14
0
0
0
18
17
4
4
0
0
0
6
0
0
12
0
0
0
19
0
0
34
18
0
18
8
0
16
0
0
0
4
10
0
0
0
5
0
0
22
0
41
0
10
0
0
0
35
0
3
0
12
36
21
36
3
0
151
95
0
12
2
0
13
0
24
24
0
0
17
42
0
11
20
11
10
60
0
8
0
14
0
0
0
51
0
0
27
2
19
0
12
0
0
0
0
0
0
1
0
0
2
4
0
18
12
18
0
12
0
37
0
17
17
0
8
0
19
5
35
0
9
0
0
17
0
0
0
0
0
4
0
0
39
0
15
0
14
17
13
0
0
16
31
0
4
10
50
0
0
4
0
4
0
0
14
0
37
0
0
0
0
0
0
0
0
8
14
16
0
0
0
0
11
0
0
3
53
0
37
0
8
0
35
0
0
0
0
0
0
63
255
95
0
108
113
70
111
128
164
45
0
6
8
8
6
0
18
8
35
0
0
0
117
96
34
0
0
0
0
133
0
111
240
0
0
43
0
12
0
0
255
0
126
0
0
19
22
38
0
0
0
0
139
142
116
8
0
9
0
13
0
0
0
20
0
0
0
2
0
40
0
0
153
146
0
0
0
0
0
115
79
0
0
0
0
239
0
0
0
81
37
9
19
0
0
73
240
65
0
0
0
0
125
137
0
0
0
58
0
28
17
15
0
39
0
0
0
0
22
0
17
0
8
0
12
0
0
0
17
0
30
111
124
48
0
0
0
40
0
54
0
0
6
0
0
38
48
30
35
16
12
3
0
20
31
0
20
0
0
7
0
7
0
0
5
0
4
0
12
26
0
20
0
11
24
34
0
1
19
7
0
4
0
0
21
0
16
0
0
0
12
0
2
7
1
16
12
13
0
14
0
18
1
19
6
11
6
11
46
40
28
43
36
0
0
3
0
0
4
0
0
0
7
6
0
5
0
0
0
136
0
12
152
57
85
0
49
0
0
62
66
0
0
0
0
0
0
0
0
35
0
0
1
34
0
16
0
0
0
0
0
18
0
0
66
0
0
10
0
1
0
0
0
0
0
0
0
0
20
0
0
34
0
22
0
20
0
0
2
36
0
0
0
0
12
0
30
1
0
13
0
0
0
0
9
7
0
3
0
13
0
28
0
0
20
12
0
12
0
16
2
7
3
4
0
2
0
0
20
0
47
0
10
27
19
1
9
16
0
0
28
0
8
9
0
0
0
2
0
11
0
0
25
0
2
3
24
15
8
32
13
0
0
0
7
13
15
1
1
0
0
0
0
5
0
0
0
0
147
105
31
23
0
74
0
0
25
1
0
8
21
0
0
0
8
24
0
0
0
0
0
3
35
0
8
12
0
0
2
33
32
0
11
25
0
30
0
37
5
0
5
0
1
0
0
0
7
0
16
0
0
0
6
0
17
8
26
0
9
12
0
0
0
0
0
14
0
0
59
27
0
22
21
0
0
0
6
7
0
0
0
0
9
0
12
41
0
2
27
0
31
16
18
24
0
1
0
18
1
33
0
29
40
0
10
0
30
5
0
0
17
0
21
11
40
0
0
18
0
0
10
0
17
0
0
0
0
30
185
11
0
184
112
0
0
0
0
0
0
0
0
0
0
45
0
0
25
12
5
23
19
0
0
106
80
69
91
0
0
0
56
134
0
240
71
0
0
31
0
0
0
0
165
47
0
0
9
0
7
41
0
0
113
98
14
0
0
0
0
69
0
0
0
0
0
0
0
2
16
1
0
57
9
0
181
54
0
0
0
0
90
58
188
0
0
0
16
255
0
95
215
66
0
0
0
0
91
175
126
0
0
0
0
90
167
43
0
5
0
0
9
0
44
0
10
0
8
0
0
0
13
0
19
1
9
0
54
0
15
39
30
40
192
198
0
0
0
0
6
73
0
18
0
46
21
32
52
6
9
21
0
13
23
55
16
27
7
0
5
22
0
5
14
0
0
23
0
0
5
0
0
0
0
4
1
0
0
5
0
23
1
16
24
0
25
0
16
0
0
0
10
2
9
0
14
9
0
0
0
0
4
21
0
0
7
3
0
0
26
2
27
28
46
0
52
24
23
0
0
0
0
1
53
5
0
34
0
54
0
0
46
197
0
0
111
36
56
0
77
0
0
16
32
0
0
16
33
0
67
127
20
12
35
0
29
0
71
121
0
29
0
51
0
1
0
37
3
0
35
3
17
66
37
0
0
27
10
0
1
0
56
23
47
4
31
8
33
0
0
0
0
0
16
28
15
28
6
0
16
0
0
0
15
3
30
0
25
0
0
0
1
14
15
0
10
5
12
3
12
22
8
0
0
12
0
1
0
32
0
0
0
0
4
0
19
0
0
0
18
0
18
0
0
13
0
35
5
0
30
2
0
0
21
11
0
0
0
0
0
6
0
0
0
0
30
0
0
1
0
11
0
0
7
7
0
0
12
19
0
0
147
103
8
0
0
18
0
16
0
17
0
0
0
8
8
6
0
10
0
33
24
50
0
26
0
0
0
0
2
0
6
0
0
0
0
0
8
3
0
0
0
19
4
7
11
13
0
15
1
5
0
6
18
0
4
0
5
0
6
0
0
8
16
7
0
22
0
0
30
0
0
15
0
24
0
20
64
49
0
20
2
10
29
19
20
2
8
0
0
0
0
0
0
22
0
0
0
23
0
0
6
0
1
1
0
39
3
7
20
0
46
7
41
0
12
0
0
15
21
0
0
11
12
0
0
0
0
0
235
173
184
136
184
196
0
0
0
0
0
0
0
0
0
0
0
0
0
0
0
0
52
10
0
0
24
27
0
0
4
0
32
0
174
0
0
200
0
0
0
0
0
0
0
97
114
180
0
0
0
0
111
0
9
21
34
0
0
0
0
0
0
78
0
0
55
0
0
0
36
0
0
25
0
0
0
0
74
0
0
1
0
0
221
0
210
0
0
0
158
131
0
0
0
0
0
0
0
132
66
205
0
0
0
0
0
208
38
0
5
0
0
0
29
1
23
0
4
0
10
0
0
0
5
19
34
0
0
0
24
0
0
0
76
158
22
0
0
0
4
0
0
0
0
32
0
11
10
41
36
4
24
12
0
41
15
7
26
0
13
34
0
27
3
0
16
6
15
21
0
23
24
0
0
20
0
17
13
9
0
25
0
23
0
1
8
0
13
0
9
0
31
19
0
0
0
23
0
10
11
0
0
2
0
6
0
0
6
11
0
19
15
12
9
0
19
49
24
22
0
0
0
7
0
34
0
0
0
0
0
0
9
0
0
220
0
0
181
102
67
13
28
0
0
0
0
40
30
28
0
0
0
0
0
0
0
0
57
25
0
0
52
21
0
0
17
30
0
13
3
0
0
0
0
0
0
3
0
33
0
0
0
0
21
16
16
0
0
0
0
0
0
0
20
5
18
0
0
15
0
0
15
0
12
0
9
0
6
0
0
0
55
0
26
0
11
0
5
0
21
0
0
0
0
2
20
0
0
48
0
0
22
4
3
0
3
0
0
20
5
0
0
0
25
10
0
3
0
0
12
0
0
0
30
21
0
8
16
9
13
63
0
5
17
9
11
0
4
10
4
26
0
33
19
0
0
0
40
0
0
0
2
0
139
98
0
23
0
9
0
26
0
14
2
16
0
0
0
31
4
8
0
0
0
0
0
30
0
0
5
13
0
13
17
35
0
24
18
0
20
3
18
0
0
14
0
0
0
2
0
0
0
6
4
5
16
0
0
19
35
0
18
0
15
10
0
28
0
0
0
54
0
0
50
0
11
12
18
0
0
0
0
0
0
0
21
0
0
26
4
0
32
22
18
56
2
21
0
5
34
9
0
4
0
8
26
0
0
26
0
0
0
0
32
0
0
0
19
24
0
9
0
0
0
0
0
4
0
0
0
30
255
134
0
0
66
0
0
0
0
0
0
0
3
0
0
214
0
0
0
45
20
0
20
0
21
0
109
63
0
0
0
0
0
102
182
0
135
106
0
0
2
21
0
0
31
107
64
118
0
0
8
0
144
0
0
0
30
0
0
50
0
5
0
4
0
0
21
0
0
27
61
49
0
19
26
5
0
0
55
49
0
0
0
0
215
0
245
0
0
0
221
0
0
0
0
0
0
0
101
101
129
37
0
0
0
0
108
122
0
0
14
9
31
0
44
34
42
19
0
20
0
10
0
19
20
7
1
12
12
25
22
0
39
135
123
0
0
0
0
0
0
0
0
0
0
0
0
0
0
0
0
0
6
5
16
0
0
14
47
47
20
41
15
25
0
10
2
6
0
7
16
0
0
0
45
0
0
0
11
23
0
2
0
22
5
0
0
0
22
0
14
3
0
21
0
0
0
0
0
0
0
3
20
0
0
2
17
0
5
21
25
15
83
0
31
45
0
21
0
26
0
0
4
6
0
0
0
0
11
15
3
23
0
0
0
236
0
0
202
138
44
0
3
94
0
0
0
0
0
51
100
38
0
0
62
0
0
34
0
11
0
31
0
5
0
29
0
17
0
0
0
0
28
3
12
34
24
0
0
20
5
0
35
0
15
21
51
22
0
0
4
0
2
22
0
0
20
18
12
0
6
0
0
0
14
0
0
0
0
34
23
0
2
0
0
0
0
0
5
0
0
6
0
1
0
14
0
0
11
8
3
21
1
17
11
14
1
0
0
29
0
13
9
0
0
27
0
18
0
0
0
11
5
0
0
0
0
0
6
0
0
12
0
0
0
0
12
17
20
0
26
0
30
0
0
4
23
0
26
0
0
0
0
3
135
99
0
24
0
7
0
0
1
0
17
21
0
36
0
0
0
33
6
19
0
23
0
0
0
25
0
16
0
29
9
0
0
0
4
0
0
6
2
5
0
26
15
0
27
0
27
16
7
0
0
2
0
0
0
21
0
0
0
3
0
8
0
26
7
0
0
2
0
9
0
0
52
0
21
0
0
0
0
39
0
0
5
0
0
15
0
0
14
0
0
1
0
0
7
0
0
19
0
44
0
16
13
6
3
31
5
39
20
4
0
0
18
18
21
14
0
0
0
12
12
0
24
4
4
0
0
49
253
44
0
0
0
0
0
0
0
1
45
0
0
0
0
140
0
36
241
242
214
0
29
32
0
0
138
0
0
0
0
0
0
118
0
0
255
0
0
0
66
0
0
0
0
52
102
163
0
0
22
0
64
0
0
4
0
0
0
0
15
0
33
120
0
0
0
30
0
16
31
0
0
0
0
153
95
93
103
47
0
45
52
0
166
0
248
52
0
0
247
0
0
26
32
0
0
0
96
244
0
0
0
0
0
120
136
0
0
0
0
0
4
0
0
34
39
0
0
3
0
9
0
60
13
15
0
5
8
0
0
53
157
8
0
0
0
0
33
23
24
4
9
0
0
0
2
0
0
0
0
30
0
9
35
42
41
49
24
59
35
18
12
25
0
57
6
21
0
0
0
8
2
0
0
8
5
0
15
4
9
0
4
0
0
0
5
0
26
0
0
0
9
0
4
8
35
0
8
12
11
0
6
2
19
4
10
13
27
39
24
3
60
36
0
35
0
0
0
62
0
0
0
0
0
69
9
4
0
0
0
0
0
0
0
203
0
0
8
169
73
1
0
45
11
0
60
0
38
0
48
10
7
0
15
0
0
23
0
99
0
51
0
0
4
0
0
0
14
5
0
27
41
0
3
0
7
12
0
0
0
0
0
12
10
9
0
22
31
1
44
0
0
7
36
8
14
0
0
4
0
21
0
0
11
0
30
1
0
7
0
16
0
0
0
8
10
0
33
18
13
0
0
13
0
15
22
15
0
0
0
17
0
0
29
0
0
0
0
0
0
24
16
14
3
4
0
3
1
20
11
0
14
11
7
24
4
50
11
0
0
20
0
14
0
0
0
0
6
8
0
0
0
0
8
0
5
3
0
45
34
9
5
0
137
99
0
7
0
7
0
0
0
31
0
0
2
40
0
1
0
0
0
5
7
0
0
19
0
0
0
0
0
0
3
0
21
0
0
0
11
0
12
0
7
0
0
0
14
0
28
0
7
0
11
10
7
24
21
0
13
0
0
14
0
26
0
0
0
0
0
0
0
26
30
3
0
28
30
0
0
31
46
12
0
22
41
22
12
0
11
0
28
0
0
35
0
5
48
38
29
3
1
0
3
10
12
0
0
0
5
0
0
0
0
7
42
0
0
0
33
0
21
19
9
0
15
0
0
0
0
66
234
44
1
22
0
0
0
0
9
0
0
45
32
41
111
8
0
120
219
132
255
0
13
0
0
0
14
0
0
0
0
24
0
147
0
243
252
0
0
28
0
0
0
75
34
27
255
143
0
0
0
10
81
0
0
8
0
0
184
12
0
46
0
73
40
0
0
0
0
59
35
3
65
0
14
0
0
0
118
157
1
73
0
0
255
0
158
105
0
0
223
0
0
27
0
0
0
64
130
194
0
0
0
0
117
104
0
0
11
0
29
0
0
23
13
59
18
0
0
24
0
0
0
25
14
0
0
0
6
9
60
108
0
0
0
0
35
41
71
19
44
40
34
0
0
0
0
0
0
0
0
0
0
0
0
0
0
0
12
0
0
31
72
49
5
28
22
0
0
12
17
15
6
32
9
0
0
0
0
0
0
7
0
22
31
5
0
3
0
0
0
0
0
0
0
5
6
0
7
9
14
0
7
0
35
35
42
20
50
65
35
57
60
12
9
19
0
22
18
32
0
0
0
0
0
0
0
6
0
0
20
0
0
0
0
116
0
0
74
103
88
46
0
73
19
0
47
0
0
0
34
91
0
0
45
23
0
0
0
0
0
0
0
15
46
0
30
0
76
48
15
0
0
33
42
0
0
0
0
23
0
0
48
0
16
10
25
0
0
1
0
0
0
27
0
0
0
43
11
1
0
0
0
0
21
5
0
0
0
0
0
4
0
1
3
15
11
0
9
2
0
13
8
4
11
5
0
3
4
26
0
13
0
6
0
0
11
0
44
0
0
16
0
19
0
4
0
12
13
0
18
4
7
0
2
0
0
0
0
0
20
0
0
0
35
24
22
19
0
14
0
0
28
0
30
0
1
6
0
0
0
0
0
0
133
100
0
20
22
0
13
8
0
16
0
20
0
26
0
0
6
0
0
0
38
11
0
7
2
0
0
0
36
4
40
0
45
15
19
24
0
0
13
0
4
17
4
12
20
16
0
0
20
7
26
0
4
19
1
0
9
25
0
35
25
1
22
0
5
0
0
32
0
0
0
0
17
0
0
0
18
0
12
0
0
0
0
9
0
74
0
0
11
0
0
0
0
18
12
0
8
0
0
31
4
0
0
10
32
20
10
27
0
31
0
13
26
0
5
0
21
0
0
0
36
51
0
0
5
0
0
34
121
0
95
0
0
76
12
92
0
0
0
0
0
0
96
0
162
29
0
0
21
0
65
20
0
0
59
31
0
16
27
0
88
54
0
255
0
0
0
22
0
0
97
18
8
0
243
85
0
0
0
1
0
0
0
24
111
0
103
107
0
0
0
0
94
60
0
8
0
77
0
0
0
0
1
0
0
0
0
190
85
0
0
16
233
0
67
205
0
0
210
0
0
0
17
0
92
91
147
0
0
0
0
5
172
22
0
15
18
0
24
5
0
18
53
26
14
0
0
0
0
50
0
51
13
0
49
8
29
72
138
0
0
0
18
22
26
40
69
10
25
32
39
29
40
41
15
14
7
0
0
0
0
0
0
0
0
0
0
5
0
19
67
29
41
50
0
21
17
0
0
44
10
0
0
14
8
26
0
0
0
46
12
0
4
20
4
18
17
0
3
0
42
0
0
0
0
0
0
2
26
29
17
22
14
50
63
101
85
10
35
0
0
0
0
0
0
0
0
0
0
0
0
24
0
11
0
0
14
0
7
0
12
0
0
60
0
0
65
107
109
22
0
107
0
0
49
0
32
0
0
58
0
58
0
0
0
52
0
0
0
22
23
0
21
72
5
2
0
0
4
0
33
38
0
8
10
35
0
0
0
4
0
0
64
38
6
5
23
0
0
0
11
0
24
24
5
13
0
27
0
0
2
0
0
2
0
21
0
30
0
0
25
0
0
0
5
0
6
0
10
2
0
23
0
3
0
11
0
25
0
0
14
8
0
4
0
0
0
0
1
33
0
0
12
0
17
16
0
0
0
13
11
14
0
16
35
0
11
20
9
0
30
23
0
0
0
8
2
0
14
0
6
22
13
0
2
0
43
21
0
10
0
10
133
107
33
0
42
0
39
16
0
20
9
0
0
0
0
25
45
0
0
26
0
17
0
4
25
0
34
0
0
7
18
0
12
0
0
26
13
47
0
18
0
2
9
0
0
0
21
0
0
6
0
0
3
0
0
17
19
0
5
0
0
33
0
20
6
30
3
0
0
0
0
28
0
23
57
0
14
0
49
0
0
0
0
24
0
45
0
0
56
0
23
0
0
10
0
0
25
2
26
0
0
13
3
0
0
0
0
0
19
21
0
4
0
0
24
0
15
4
0
32
0
0
0
0
30
0
0
0
0
0
147
170
0
13
0
0
2
0
0
28
0
0
78
0
109
64
0
0
0
43
12
0
0
0
132
75
0
0
0
0
77
0
163
34
0
5
14
68
0
0
95
45
49
0
255
212
0
0
10
11
0
0
0
82
0
0
0
0
0
178
0
0
1
92
0
0
27
99
0
0
0
33
12
0
7
0
0
32
166
86
0
161
177
0
0
200
0
0
126
0
48
0
0
0
75
153
35
0
0
0
31
168
98
0
0
0
5
0
0
0
2
27
46
0
0
0
0
0
6
0
0
6
0
0
21
23
70
108
0
0
0
15
29
34
0
11
7
18
52
0
68
74
16
0
25
40
0
28
0
0
27
0
0
21
0
0
0
0
0
0
0
0
25
72
44
51
59
0
0
1
0
0
8
0
0
17
0
0
12
8
11
0
5
0
0
0
5
4
12
0
0
1
19
12
0
0
0
11
14
0
17
38
30
55
3
34
0
0
0
0
0
0
0
0
0
0
0
25
1
5
15
58
9
0
0
0
37
0
16
0
33
0
0
41
5
0
30
128
71
0
0
52
123
0
27
0
23
0
0
117
0
0
109
27
2
3
45
14
12
0
4
0
0
21
0
13
0
8
0
0
0
0
5
0
0
0
28
0
0
0
38
71
33
22
0
1
0
0
1
0
1
0
6
31
0
0
0
21
0
4
10
11
1
3
0
4
0
0
22
0
34
0
25
17
11
0
0
0
0
0
0
0
0
14
0
33
0
7
13
29
0
13
0
0
1
7
6
9
0
10
9
9
0
0
0
5
0
40
0
0
7
9
0
0
15
0
19
0
2
0
0
31
0
20
0
0
1
0
0
17
0
15
0
0
0
29
0
0
0
0
7
1
130
104
6
0
26
0
0
0
0
8
19
0
23
25
0
0
0
33
1
19
6
0
0
1
25
0
0
0
0
0
11
1
0
22
21
0
0
10
0
0
19
0
11
3
0
12
0
0
19
2
1
4
26
2
13
0
20
0
13
0
0
10
18
45
0
0
0
12
0
42
30
0
0
0
6
0
37
0
0
13
20
17
25
0
11
29
8
0
13
0
15
4
0
0
1
0
27
0
11
9
0
61
0
0
0
0
42
33
3
0
0
19
4
17
26
22
0
39
0
0
0
0
0
45
0
21
0
0
0
0
155
177
0
10
3
0
0
0
0
0
0
0
135
0
0
68
0
0
0
0
57
0
0
0
104
75
0
0
0
127
56
0
111
0
0
0
0
0
0
91
0
179
0
0
211
211
0
0
5
0
43
24
76
255
43
61
25
14
15
255
70
0
123
87
0
0
5
80
0
22
4
28
0
0
21
0
0
0
0
59
36
184
25
0
0
184
175
0
18
0
0
0
0
63
114
160
0
0
0
0
120
132
0
0
9
2
23
0
27
16
20
35
34
0
11
0
0
8
0
16
32
1
24
15
69
132
111
0
0
0
0
28
4
3
41
34
37
12
12
0
72
42
13
43
43
54
6
40
28
76
71
0
79
6
28
0
3
0
0
0
0
0
0
10
0
0
6
2
15
0
22
0
0
10
0
1
0
37
0
31
0
0
64
0
2
0
23
0
0
0
25
17
33
0
26
6
0
33
32
33
34
35
52
18
0
0
0
0
0
0
0
0
0
0
71
6
61
37
4
53
86
61
60
0
0
0
47
0
18
0
0
0
0
97
44
0
77
204
74
0
0
12
88
0
0
47
0
0
0
156
0
0
22
0
0
24
8
0
9
0
0
1
0
56
0
0
42
22
0
10
19
0
86
0
2
20
0
12
0
6
16
18
5
54
7
7
0
2
0
0
13
0
3
19
0
13
1
0
0
1
0
0
0
37
0
11
0
0
8
5
3
2
0
3
0
8
12
13
7
5
1
32
23
12
0
3
0
42
0
23
0
9
11
12
0
0
30
1
0
0
0
0
15
43
0
14
13
9
4
0
0
1
0
22
0
3
0
24
0
3
22
12
3
5
0
37
25
3
0
0
0
17
0
23
7
0
2
13
0
25
19
4
129
103
12
0
0
0
32
0
0
16
0
26
0
0
0
0
4
8
0
1
2
10
38
0
13
0
0
1
0
14
0
0
0
27
0
22
0
8
22
10
11
9
22
0
0
20
12
0
0
0
0
11
0
9
0
0
25
0
0
15
0
13
16
16
0
0
0
0
0
0
34
0
0
12
0
0
40
0
53
2
0
14
0
0
0
0
32
28
0
3
23
0
9
23
20
0
47
0
16
40
4
0
2
16
9
23
0
1
15
9
48
0
5
0
0
0
0
34
0
0
0
28
16
47
8
5
0
48
0
0
42
18
0
0
0
0
0
0
0
0
0
0
164
0
0
138
0
0
6
0
229
170
45
25
46
0
0
4
0
110
0
77
0
0
0
3
0
0
57
154
33
84
0
0
127
236
29
0
0
1
57
0
0
23
0
14
10
0
0
0
0
0
87
15
145
0
18
9
0
0
0
0
0
0
0
0
41
0
209
32
9
255
0
0
0
85
255
0
0
0
0
0
27
120
183
67
0
0
0
50
144
37
0
0
3
9
0
0
0
37
12
26
30
0
0
0
0
26
0
23
7
0
14
74
144
30
0
0
25
58
29
20
0
0
31
29
0
42
43
0
0
42
99
30
16
35
29
0
0
95
95
0
71
0
29
0
15
0
0
22
0
0
0
0
0
0
2
43
33
15
0
16
0
23
4
27
0
15
0
3
0
0
30
0
0
5
15
7
0
0
32
0
27
0
36
0
0
33
7
5
5
19
0
0
0
0
0
9
0
0
90
0
107
0
58
111
63
56
16
81
2
22
50
0
12
10
39
0
15
0
0
0
0
47
83
0
0
152
79
8
16
6
44
9
0
0
0
38
0
36
133
0
0
0
0
0
30
12
7
0
51
4
0
0
0
0
0
7
0
52
19
4
0
0
22
20
0
0
0
0
1
23
16
0
12
0
0
0
0
0
24
0
41
0
3
33
22
0
24
0
0
23
0
0
0
3
27
0
0
0
0
0
29
0
0
10
3
2
0
0
32
0
0
0
5
0
0
27
0
0
14
0
0
0
5
20
0
0
22
39
0
4
0
0
6
0
0
3
0
9
7
0
0
5
2
8
9
0
0
0
0
0
4
25
0
0
0
0
6
0
3
2
0
10
8
24
8
5
0
0
0
0
133
99
0
15
0
29
0
14
0
0
30
6
39
0
27
20
26
15
0
0
6
37
3
0
0
25
0
0
13
7
43
0
0
27
2
0
1
0
0
0
0
27
9
0
0
3
0
12
0
24
9
0
0
0
21
4
21
0
3
9
4
0
0
0
18
44
2
0
7
0
2
19
0
22
27
1
4
27
0
0
0
0
0
121
22
0
1
0
0
17
0
0
7
0
12
0
0
0
0
0
0
0
0
0
68
0
11
0
0
0
0
0
0
10
27
10
9
0
0
36
25
46
31
43
17
4
0
9
10
0
125
148
0
0
0
57
121
152
0
0
0
0
151
49
0
201
0
0
0
0
19
41
0
0
36
0
0
30
0
82
0
141
0
0
0
0
0
0
219
79
27
0
0
0
0
218
227
0
0
0
16
0
0
86
0
0
0
0
0
39
0
0
62
56
92
0
0
0
0
0
42
35
11
0
53
0
0
0
0
0
0
193
219
0
0
0
0
0
0
0
0
0
36
176
21
0
0
0
33
138
51
0
0
0
0
0
0
6
1
19
11
13
16
17
0
32
0
52
0
15
15
34
103
164
18
0
0
0
18
33
9
0
0
66
16
9
0
52
67
84
0
49
120
34
14
105
50
0
72
118
56
0
70
0
26
0
0
0
26
19
0
29
0
0
0
0
9
29
28
10
4
0
13
32
0
0
0
16
0
47
14
0
0
17
8
1
0
10
1
0
0
0
23
0
2
0
3
67
63
22
0
0
0
0
0
0
0
77
21
0
80
94
100
0
136
132
26
46
0
31
40
38
0
0
0
0
18
0
0
0
50
0
0
55
52
0
0
121
113
0
0
0
33
22
0
0
0
0
0
2
82
0
0
47
0
0
64
0
82
0
0
50
0
0
132
16
0
82
0
0
0
0
53
0
0
0
34
0
0
41
17
29
60
12
24
0
38
0
6
20
17
23
0
0
0
0
0
9
0
0
24
39
0
33
0
0
0
0
12
0
26
8
6
15
20
0
0
19
8
0
0
0
11
0
34
2
3
0
18
0
26
0
23
0
17
0
21
0
0
19
0
0
23
9
24
0
9
21
6
33
0
0
17
0
0
0
9
0
0
0
16
0
0
8
0
12
27
0
28
0
14
0
2
0
2
2
0
0
0
0
8
0
130
99
0
30
0
0
10
0
11
12
34
0
25
0
37
0
0
3
0
13
0
22
0
15
0
0
0
0
8
0
6
0
40
6
0
10
0
28
10
20
0
13
0
0
31
0
0
7
0
9
0
16
17
32
38
6
9
0
0
26
0
0
9
0
28
0
0
0
0
0
0
39
0
15
13
16
0
69
0
0
0
26
14
3
0
4
0
0
0
12
0
0
0
0
7
0
50
13
16
17
30
0
40
0
0
0
0
17
0
19
34
25
0
18
0
0
8
0
0
57
15
9
1
0
0
0
0
0
0
0
104
191
0
29
0
0
255
94
0
0
0
6
133
7
0
144
126
124
64
0
164
113
0
0
0
0
0
0
0
59
144
110
0
6
0
15
5
0
173
50
0
0
0
0
0
118
235
0
0
29
0
0
5
105
90
0
0
0
2
14
30
0
57
40
51
90
0
0
10
11
0
4
0
15
9
0
0
0
0
13
0
0
75
234
10
0
0
35
0
0
0
145
145
158
0
0
0
33
115
125
0
0
17
5
0
2
30
0
0
14
24
1
0
0
0
0
0
46
0
11
43
125
159
0
0
0
13
20
2
6
65
39
22
63
2
0
21
94
23
22
0
0
33
62
10
62
11
0
68
117
0
0
64
11
103
49
27
0
67
0
0
13
0
2
0
2
0
47
12
0
0
0
0
20
0
5
0
7
0
39
16
0
0
0
0
0
8
12
13
7
20
0
32
10
0
0
16
44
0
0
0
0
0
0
27
51
60
108
140
0
28
97
4
81
48
0
14
0
0
0
0
16
0
0
0
139
1
0
93
23
0
0
0
56
114
0
0
84
123
22
8
15
3
0
60
0
0
8
0
0
94
0
0
35
0
0
57
0
0
0
0
55
0
0
0
0
0
0
0
0
37
0
23
0
0
0
8
0
0
54
7
0
0
13
0
0
0
0
18
0
4
0
13
0
1
2
0
21
10
8
0
0
0
9
0
3
5
0
23
0
15
0
0
0
0
0
3
0
0
26
0
0
0
1
0
0
1
0
24
3
0
6
7
10
0
0
11
24
0
4
0
21
3
0
0
0
15
0
0
0
2
7
15
0
5
6
13
0
18
11
35
12
0
20
0
0
10
0
35
0
0
12
0
11
0
8
0
17
2
3
0
7
131
99
0
0
34
14
19
0
2
4
12
0
52
0
21
3
3
24
24
0
0
10
0
0
49
9
7
11
0
9
51
0
19
2
0
21
3
0
0
38
0
4
0
0
15
0
21
0
13
0
10
0
0
15
0
2
5
22
13
21
0
26
34
0
22
0
31
0
0
7
0
0
0
0
0
0
0
0
0
52
7
0
26
0
0
31
0
0
24
22
11
24
0
39
28
0
17
0
0
43
6
11
1
0
14
45
0
42
0
39
0
0
16
14
0
0
0
0
0
70
19
3
15
19
0
0
25
35
20
0
76
163
73
179
0
0
156
66
19
16
84
176
110
0
45
130
179
169
0
0
0
25
0
2
9
46
11
0
0
148
146
0
0
0
26
0
0
44
92
91
0
0
0
0
0
48
94
61
0
0
38
0
0
131
112
0
8
0
0
0
0
0
22
96
68
93
0
0
11
0
0
0
0
51
24
7
14
0
9
0
0
0
0
0
213
0
0
0
0
0
22
168
190
0
0
0
0
127
100
0
0
32
0
12
39
3
9
0
40
17
17
0
12
0
8
0
16
17
0
23
189
164
0
0
13
0
15
20
4
0
0
0
5
38
25
46
54
84
6
0
0
0
64
213
79
159
0
0
106
187
0
89
21
38
74
0
0
62
22
3
2
45
33
0
0
0
0
0
0
24
37
0
0
13
5
0
0
0
0
0
0
23
39
12
11
21
0
0
0
0
0
10
14
14
22
0
0
0
0
0
0
5
87
74
43
53
123
102
52
0
75
0
0
30
44
0
67
0
0
11
37
0
0
0
0
114
0
0
0
0
23
0
17
0
115
0
14
98
133
52
0
2
0
3
154
0
0
0
0
0
251
0
5
43
0
8
0
0
35
0
13
0
0
0
28
29
30
26
7
17
5
0
0
0
12
0
0
0
0
45
30
23
38
2
9
0
2
0
0
6
47
16
5
19
9
0
9
0
0
0
11
9
0
22
12
0
0
0
7
0
1
0
43
0
32
12
8
20
24
0
10
0
47
0
0
7
1
17
0
19
24
1
0
1
0
7
0
3
20
3
0
19
0
19
4
0
15
0
0
3
0
0
4
8
31
0
21
0
0
32
0
0
29
3
0
15
23
0
19
21
15
28
0
18
21
0
0
4
0
32
12
3
128
95
0
0
0
0
0
0
44
0
35
0
60
0
4
9
0
0
0
9
0
11
9
0
12
0
6
0
0
2
8
0
24
6
27
0
0
1
0
11
9
0
0
11
0
0
0
0
0
6
0
0
0
2
0
17
0
0
0
0
0
0
34
0
0
3
0
0
34
0
10
0
90
6
0
0
0
1
55
0
0
0
5
0
0
33
0
2
0
0
0
0
0
0
35
0
0
0
35
44
6
0
0
2
0
31
0
0
0
18
0
0
0
0
0
0
33
6
0
0
0
0
19
15
0
0
0
0
0
0
24
130
54
179
138
61
91
41
66
114
211
24
0
0
3
62
0
0
0
4
6
0
0
0
0
37
0
25
101
245
0
0
83
100
18
64
0
27
149
123
0
0
6
0
0
78
0
255
0
9
7
0
0
56
164
0
23
36
0
0
0
9
0
107
0
117
74
0
0
57
6
0
0
0
0
56
0
14
0
0
1
43
0
0
124
121
0
0
0
0
107
199
57
0
0
0
116
165
9
0
0
0
0
0
3
0
1
0
0
36
1
0
14
0
16
0
0
0
54
192
165
0
0
0
36
35
29
66
82
58
69
0
0
0
0
22
0
43
0
0
0
0
0
109
0
0
0
0
2
0
0
24
85
66
142
0
0
91
0
30
0
0
1
4
17
0
0
0
0
0
6
4
0
21
1
0
0
6
20
0
30
0
15
0
0
24
17
25
0
0
5
0
7
23
32
0
8
0
0
64
57
60
191
145
0
0
47
0
0
0
0
0
0
0
0
0
0
0
0
0
30
0
0
0
48
33
0
9
0
0
0
2
0
52
103
0
0
109
108
73
0
0
0
5
40
0
0
0
19
0
128
0
0
31
1
36
1
0
0
0
29
0
41
0
21
0
42
0
0
6
47
22
6
0
0
0
0
45
40
25
15
0
2
5
0
0
0
0
38
28
0
7
0
0
14
0
0
0
6
14
3
0
12
0
18
5
0
3
10
0
16
0
11
0
5
0
0
0
1
15
0
0
0
0
18
3
0
8
0
0
0
0
0
19
0
20
0
2
0
13
0
0
1
0
0
0
32
17
12
8
7
15
0
0
0
0
0
0
10
0
0
0
16
0
0
0
0
11
0
0
0
3
0
16
0
44
31
0
0
0
0
2
135
105
39
47
2
47
0
0
58
0
5
0
0
0
0
0
0
53
0
0
0
12
26
0
31
0
6
0
0
10
25
0
7
0
12
0
25
9
0
7
2
20
18
0
33
8
0
9
0
8
0
25
0
22
14
0
0
0
35
7
12
69
0
56
0
58
0
0
0
0
0
0
0
0
19
13
0
1
18
0
65
12
0
0
0
0
3
22
24
0
7
3
0
5
2
29
19
12
0
0
0
0
0
7
0
6
0
44
0
17
0
0
0
2
0
0
96
41
7
0
18
0
34
0
11
28
57
25
18
0
0
27
0
0
0
21
121
125
49
0
0
0
22
0
0
0
0
0
0
11
177
239
0
63
6
0
0
27
96
41
0
0
0
0
29
38
0
59
127
0
0
0
0
0
0
202
0
239
0
0
0
0
0
86
144
0
0
0
4
0
0
0
0
0
0
147
0
0
0
0
6
32
52
5
0
4
0
0
54
0
60
0
0
0
0
151
0
0
0
89
81
172
0
0
0
68
137
36
0
0
0
25
0
0
13
1
34
26
25
25
0
0
8
0
0
0
13
61
237
135
0
0
0
0
79
13
0
0
0
68
72
0
0
31
0
0
0
0
0
0
0
0
0
0
0
0
0
0
0
0
0
0
4
245
0
0
27
77
0
0
0
1
5
10
0
0
17
10
0
0
4
5
18
27
0
0
0
0
9
0
2
17
16
0
0
9
0
1
0
0
2
0
20
14
45
0
49
21
96
148
0
94
37
0
0
0
0
0
0
4
0
0
0
1
0
0
0
34
0
37
17
0
0
16
121
0
0
0
49
2
0
10
0
51
160
0
0
125
106
5
50
0
45
98
0
0
0
0
0
0
202
0
0
0
36
0
0
0
0
21
0
0
2
0
4
2
20
0
10
0
0
11
0
0
0
22
0
0
9
48
51
81
0
11
40
18
0
7
5
13
0
26
16
46
0
0
50
8
0
0
0
9
0
11
0
0
3
26
16
2
15
0
4
0
0
12
4
0
0
4
11
23
0
0
0
2
0
0
0
9
0
4
30
0
23
0
0
0
3
17
0
4
10
43
0
20
10
0
0
4
22
2
0
16
0
13
13
0
0
26
0
0
8
0
32
0
0
9
0
22
0
10
0
3
5
0
0
12
0
23
33
5
131
98
0
6
0
0
0
0
0
1
0
0
23
0
0
0
20
26
20
0
0
34
0
11
0
0
0
0
19
30
15
10
21
0
10
0
0
0
41
0
0
0
0
0
12
0
12
30
0
0
0
2
18
4
0
16
16
0
13
0
0
0
0
11
0
16
0
0
22
76
0
0
0
0
0
14
10
8
3
0
0
0
0
0
25
0
0
8
25
0
24
17
4
0
10
0
0
18
0
0
23
64
41
16
0
46
0
0
0
0
0
70
40
0
0
32
44
0
11
0
20
0
0
0
0
0
0
0
22
0
0
0
0
0
0
0
71
106
24
121
0
0
0
0
0
0
7
0
0
0
0
0
0
23
36
0
0
156
80
0
0
8
0
0
176
0
0
47
125
0
0
36
10
0
0
251
0
83
171
0
0
0
0
109
195
0
0
0
0
0
0
54
0
6
0
238
123
70
0
0
0
0
0
0
0
109
3
5
22
0
0
0
0
10
0
5
0
0
0
197
147
8
0
0
0
154
94
0
0
0
0
1
0
9
23
0
24
0
28
5
0
0
42
4
0
13
57
221
110
0
0
0
85
0
33
0
29
0
0
0
5
0
0
3
0
0
30
0
0
31
3
16
0
0
0
0
0
0
0
0
0
0
0
0
0
37
142
51
22
0
20
0
58
41
0
0
42
0
0
26
0
4
8
19
0
11
1
33
6
0
16
9
35
3
0
16
0
0
0
8
30
6
51
25
33
0
48
0
0
63
0
0
0
0
0
13
0
39
0
0
17
0
0
0
23
0
20
0
0
17
0
69
0
39
0
0
0
42
0
0
0
0
0
44
152
0
0
172
62
56
123
0
0
73
0
56
52
0
0
0
111
0
0
32
13
49
0
61
0
1
0
24
0
61
2
0
0
0
0
17
31
20
12
0
0
0
0
48
29
0
0
0
0
0
0
25
0
2
0
0
31
0
0
0
0
0
0
0
29
0
10
2
12
0
24
1
13
0
0
0
4
69
7
0
0
0
0
0
2
5
22
0
0
2
10
0
23
38
9
15
24
3
10
0
17
0
27
5
0
0
8
0
10
16
0
26
0
0
0
0
0
10
0
20
0
0
26
0
10
2
0
30
0
0
5
10
8
5
0
0
0
0
0
0
32
0
20
21
0
14
0
25
132
99
0
30
12
16
5
42
0
0
10
0
46
0
22
20
24
0
0
43
22
4
0
46
45
0
6
0
13
5
15
0
0
0
29
0
0
4
0
14
18
5
7
13
16
0
10
0
9
22
0
2
0
0
0
7
11
0
16
7
0
8
0
0
0
0
0
60
0
0
3
0
23
16
28
6
0
0
25
2
12
21
26
13
42
0
6
1
0
0
3
0
0
4
29
0
0
22
0
32
0
0
15
0
0
6
5
16
0
0
8
94
0
0
92
200
0
0
23
16
10
2
14
48
0
19
9
0
24
5
35
44
91
37
0
9
0
51
120
0
0
0
0
49
0
0
0
0
0
38
146
89
0
0
35
0
141
204
7
4
0
0
0
61
146
0
0
69
137
16
0
0
0
0
0
255
0
0
70
71
0
2
0
145
188
0
10
0
47
0
12
0
0
0
0
34
136
127
116
0
0
0
0
44
0
0
0
6
0
0
0
0
42
122
0
0
0
0
72
189
93
13
0
0
59
199
0
0
16
48
0
0
11
0
20
6
29
0
0
0
0
0
8
0
0
73
208
99
0
0
0
0
1
0
10
0
0
0
0
0
0
0
0
3
0
0
0
2
0
0
0
67
0
0
0
0
112
0
18
0
0
12
0
0
0
63
178
88
78
0
3
0
30
0
0
28
0
62
2
1
0
0
4
0
3
0
0
0
0
14
0
0
3
8
0
0
6
21
22
0
14
0
24
30
86
23
93
0
0
0
0
0
0
0
0
0
0
0
0
0
0
0
19
15
8
16
0
0
0
0
0
0
42
87
0
0
0
38
0
7
0
0
0
94
121
0
0
218
37
57
45
0
0
28
0
0
0
0
0
0
106
28
0
0
0
69
0
62
0
4
0
18
0
22
0
0
83
34
29
16
8
7
0
0
0
0
0
39
5
64
43
0
5
20
0
0
0
0
0
0
17
0
0
0
19
6
0
0
21
5
0
15
0
5
0
1
0
0
0
28
0
0
0
48
5
0
46
8
16
0
9
16
22
15
6
0
0
0
0
0
12
0
24
0
6
10
17
0
0
40
7
0
0
0
0
0
0
0
14
20
20
0
0
0
0
0
29
0
22
0
12
12
5
11
0
0
20
0
0
0
13
5
4
0
12
0
0
0
0
0
0
0
135
99
2
42
13
4
0
0
9
0
46
0
14
0
0
0
0
0
0
31
0
34
19
10
0
0
3
0
0
0
18
16
0
0
1
12
6
23
19
1
0
0
31
0
0
20
0
0
8
0
9
2
0
0
33
0
0
0
8
0
12
5
32
0
0
4
0
58
21
8
0
0
47
6
0
0
33
2
43
0
0
47
0
0
6
21
29
0
35
0
25
0
32
7
0
10
33
0
0
22
17
0
2
0
11
0
0
0
0
0
24
0
0
120
142
193
0
0
5
10
0
6
0
0
0
0
19
0
19
34
64
66
0
0
0
0
0
0
104
135
38
0
0
0
0
0
0
0
111
129
52
22
0
0
0
0
255
0
0
129
0
0
0
192
0
0
0
80
124
39
0
0
47
0
0
245
0
0
0
195
0
0
0
27
255
0
0
0
0
0
11
0
0
0
0
0
171
95
9
108
78
0
0
0
0
0
9
26
41
67
10
0
0
41
0
0
0
0
114
255
0
0
0
0
139
108
0
0
2
11
0
24
0
0
4
0
27
0
0
29
0
3
27
0
51
185
120
0
0
0
0
75
0
0
0
15
0
0
7
0
0
47
0
0
8
43
0
13
0
1
0
0
0
0
43
0
0
0
0
0
40
0
0
41
0
0
0
0
62
36
41
0
0
23
0
0
0
0
7
13
0
0
0
0
18
0
0
2
0
14
19
10
0
6
37
0
10
0
0
11
0
19
70
92
57
0
0
0
0
39
0
10
33
13
0
0
0
0
0
0
0
17
0
0
11
0
0
55
0
0
0
39
22
0
0
0
52
23
2
36
0
4
0
52
49
0
0
159
1
99
17
0
0
22
45
0
28
120
0
0
69
0
12
0
23
50
0
8
0
0
7
0
0
15
0
0
48
21
9
0
18
25
0
11
0
0
0
14
48
53
37
0
0
0
16
0
19
8
17
32
19
7
22
15
0
0
8
16
6
31
18
0
0
32
0
1
15
9
0
0
7
0
36
0
0
42
0
0
14
0
0
0
0
0
0
0
4
11
0
7
0
0
11
0
20
0
0
0
0
19
0
0
28
0
19
0
26
17
0
27
0
0
24
1
0
2
20
0
6
16
0
0
7
24
20
0
23
18
28
9
27
0
32
15
18
23
0
45
0
6
31
12
132
93
0
0
0
0
18
0
2
0
41
0
0
8
3
0
14
0
3
0
3
0
0
2
0
0
32
12
20
9
0
31
0
5
12
16
0
18
0
14
0
4
0
18
0
0
30
10
0
25
0
13
0
16
0
13
5
0
11
0
0
43
45
0
1
11
0
0
0
0
0
34
0
0
23
0
8
0
15
0
0
45
0
0
0
43
4
0
30
0
40
0
0
17
0
0
17
0
0
2
0
48
11
16
0
5
4
0
0
43
94
0
91
121
109
14
0
24
2
0
34
28
0
8
0
0
13
0
41
12
0
0
0
72
24
0
0
12
47
28
0
0
0
1
0
0
0
0
129
115
107
13
0
0
39
209
56
0
0
163
0
0
0
152
0
0
0
190
44
1
0
0
54
0
0
180
0
0
0
0
139
0
0
43
255
0
0
14
0
0
0
0
0
11
0
0
0
88
100
66
71
117
0
0
0
0
0
0
0
29
0
34
20
0
0
0
0
103
178
122
0
0
0
106
125
0
0
0
5
22
0
28
0
28
0
34
17
0
3
4
0
6
0
0
191
169
0
0
0
0
15
39
0
2
0
0
0
24
22
0
7
22
0
35
0
0
0
11
0
0
0
152
0
7
75
13
0
0
0
0
0
0
37
0
0
0
0
0
43
25
61
12
29
19
0
21
0
0
28
6
12
57
0
0
7
10
9
18
0
5
9
0
11
14
4
4
10
0
22
20
69
124
104
38
0
0
0
0
39
0
0
0
55
0
0
0
12
41
0
0
5
0
0
0
12
17
76
15
1
33
0
13
0
15
0
0
0
0
0
0
14
0
0
47
44
0
0
194
20
107
6
0
0
12
64
0
0
0
38
0
144
5
0
0
6
0
0
0
0
7
0
26
22
18
0
36
0
0
0
74
1
0
0
0
0
0
0
0
18
23
4
0
0
0
0
0
18
14
20
1
9
0
9
0
8
0
0
0
0
0
0
0
0
0
12
0
8
5
20
0
23
0
33
3
31
0
17
46
0
0
10
41
0
24
0
0
18
12
0
17
0
1
0
0
0
12
21
0
19
0
0
13
0
0
0
0
3
12
0
0
0
41
0
26
0
0
10
14
0
0
0
0
0
0
0
0
0
24
0
0
9
0
6
0
0
0
0
6
10
0
8
9
135
93
0
0
0
13
3
0
0
0
0
0
15
0
0
0
1
10
0
44
0
34
0
2
0
0
0
0
0
14
0
0
0
15
11
0
0
15
34
0
10
0
12
0
0
0
0
0
0
0
0
0
0
6
6
0
11
0
1
15
7
0
0
7
28
0
0
6
0
43
0
10
0
12
0
0
23
0
0
0
0
18
0
10
0
0
0
28
0
0
0
0
0
0
0
0
2
35
7
8
9
0
0
2
4
0
0
0
154
224
86
0
104
64
153
0
0
47
11
0
0
0
9
0
14
28
74
40
9
0
6
104
29
0
0
0
39
124
0
0
0
0
0
0
0
0
218
166
55
17
0
0
0
0
255
37
0
0
0
116
25
0
51
41
0
0
117
181
44
44
0
0
0
27
0
130
12
0
0
0
135
191
0
8
255
0
0
11
61
49
17
0
29
7
23
0
0
0
122
127
54
109
163
65
0
0
0
0
26
3
0
0
20
0
0
0
36
114
237
0
0
0
81
156
45
0
0
0
0
0
0
30
0
30
12
34
18
0
15
0
0
24
15
169
150
0
0
0
13
0
0
58
0
0
0
30
0
0
0
0
44
0
8
0
0
0
10
0
0
0
0
0
0
86
133
14
93
0
0
0
0
0
0
24
0
0
0
0
44
1
26
22
0
3
0
4
0
19
10
0
0
0
0
10
0
0
0
0
12
25
25
0
0
0
7
0
0
16
23
39
87
97
0
0
0
21
0
0
0
23
5
0
0
0
0
0
176
64
4
13
0
0
0
0
0
8
0
0
17
0
0
27
0
0
0
47
25
40
0
0
14
19
0
116
113
0
0
197
0
130
70
99
0
0
16
0
0
40
0
0
41
16
0
0
0
4
3
0
0
3
0
0
0
0
0
0
41
29
37
0
0
35
0
0
0
0
12
52
28
31
0
0
37
13
0
0
0
0
22
0
0
0
0
0
17
0
27
0
0
37
0
7
0
0
0
0
6
0
27
0
11
12
0
9
0
0
0
21
33
22
0
0
0
0
1
11
26
11
0
20
12
17
8
0
2
20
0
0
0
31
0
2
40
14
12
48
0
6
0
0
0
17
0
0
0
6
8
10
3
18
12
4
6
0
4
25
0
26
10
16
0
17
0
0
24
13
24
0
16
1
0
0
132
99
27
41
0
0
24
10
21
34
0
34
27
0
5
5
30
0
0
26
0
56
0
0
0
0
0
0
27
0
61
0
3
0
0
0
8
0
0
0
29
0
21
0
0
0
1
12
22
2
10
10
0
15
6
4
9
0
9
18
0
3
8
0
0
0
0
0
0
12
0
0
0
19
0
0
6
0
73
19
0
0
25
0
0
45
0
8
0
0
19
0
9
48
0
0
0
23
0
0
0
63
3
0
0
0
0
0
255
87
0
0
122
114
82
0
0
20
27
0
21
1
3
19
18
36
36
0
0
62
48
0
0
34
0
166
126
0
0
0
0
11
0
0
0
46
255
128
73
0
0
0
0
249
111
0
0
0
0
0
54
0
54
0
0
0
193
178
6
0
0
0
0
27
0
105
86
0
22
0
0
45
0
0
255
0
0
16
0
0
14
0
0
0
0
0
0
0
0
144
85
0
111
28
255
200
0
0
0
8
0
23
1
0
0
0
152
165
20
0
0
0
164
116
0
10
0
14
24
0
14
0
0
15
0
5
0
18
18
0
0
0
173
183
0
0
0
30
6
57
62
25
0
14
15
0
0
0
0
0
0
0
25
0
29
0
28
0
142
0
0
67
89
88
160
117
92
44
0
16
0
0
0
0
0
0
0
0
0
10
40
45
0
4
3
22
0
14
0
0
18
0
13
12
17
0
22
0
0
0
5
0
38
0
16
22
0
23
31
96
93
0
0
0
0
14
0
0
0
0
51
0
12
193
3
0
255
74
52
32
52
0
0
0
0
0
0
19
14
0
15
0
25
0
0
0
16
12
8
6
0
21
0
132
1
0
0
218
0
102
12
79
0
0
132
0
0
23
0
0
103
67
0
3
0
2
0
0
29
0
4
18
0
12
0
0
0
16
1
0
12
23
0
2
0
0
30
25
20
38
11
20
0
0
0
57
33
0
17
0
39
0
0
13
1
0
7
12
0
20
0
21
4
5
2
0
0
0
0
0
19
0
2
18
13
0
0
0
15
0
0
0
0
11
18
8
9
0
13
0
0
0
0
2
4
6
19
10
3
12
0
0
0
0
0
0
8
34
0
18
0
0
5
0
5
6
8
0
0
19
0
19
0
23
0
0
0
2
0
0
0
20
0
16
16
0
36
0
0
42
0
0
136
95
0
0
0
0
12
0
0
0
0
4
6
0
0
0
0
0
16
11
0
0
24
82
0
0
16
0
0
0
0
0
49
0
6
11
0
0
18
0
15
0
0
0
23
0
0
3
0
0
14
0
0
9
0
8
0
15
0
0
0
29
10
14
11
12
11
33
0
0
18
0
2
5
0
11
0
2
0
0
0
0
22
0
0
1
0
37
8
2
0
6
30
2
0
30
21
0
21
18
0
0
0
5
15
0
0
0
252
42
0
0
127
30
0
0
0
13
1
4
15
7
0
0
21
34
20
0
0
42
3
46
43
0
8
138
0
0
0
0
35
6
0
0
64
232
90
66
0
0
0
0
184
238
0
0
0
0
0
0
0
25
90
6
1
0
80
104
0
12
16
37
0
0
0
69
58
0
0
1
0
0
0
0
240
64
0
0
0
23
36
20
0
63
30
0
0
0
0
0
0
0
0
0
20
104
165
0
0
0
0
0
0
0
0
65
136
174
0
0
0
110
157
0
0
0
0
22
29
0
8
4
0
47
35
0
7
0
8
3
26
121
162
0
0
0
60
59
23
15
1
0
0
0
0
7
0
0
81
42
0
0
24
13
0
0
0
0
206
125
0
24
39
147
120
72
37
28
39
180
0
0
0
0
8
76
20
0
0
52
24
33
0
0
0
0
0
52
0
32
0
28
0
0
0
0
0
12
0
0
7
0
1
0
24
19
0
44
76
123
0
0
0
0
0
0
0
29
0
0
11
0
0
255
171
0
255
72
27
48
4
0
0
0
0
0
0
18
24
4
13
29
7
0
33
0
0
16
12
0
0
0
0
122
10
0
0
165
3
112
39
93
0
0
59
34
0
0
10
0
130
0
0
0
73
20
3
0
0
0
37
1
16
8
11
27
4
0
0
0
0
0
0
0
0
40
20
3
41
0
32
0
0
0
0
0
1
0
25
0
0
0
0
18
0
0
0
0
0
24
0
5
0
0
13
15
25
0
22
0
4
0
0
1
0
9
0
0
0
0
21
9
0
31
0
0
0
0
13
0
6
2
11
0
0
0
0
0
30
0
24
12
9
34
15
9
10
12
3
0
0
0
10
17
5
0
14
0
0
6
0
0
18
0
8
11
1
3
0
33
0
0
0
0
11
0
0
0
26
1
20
14
127
96
0
22
50
55
0
0
0
37
0
0
29
0
3
44
0
11
0
21
0
0
0
2
0
0
0
0
0
6
10
13
0
0
38
0
0
13
4
3
7
0
39
0
0
6
32
0
14
0
7
15
19
0
0
7
0
0
12
0
26
3
0
0
25
0
0
0
0
20
0
0
0
23
5
0
0
0
24
45
12
42
0
0
9
32
0
0
21
0
25
37
0
0
4
15
11
0
0
0
3
16
10
0
22
9
0
0
255
68
0
62
76
0
0
0
0
0
0
0
0
32
0
15
4
74
29
0
0
55
4
170
57
0
0
35
0
0
0
0
46
0
0
11
235
65
0
0
0
0
0
135
221
0
0
0
0
30
0
29
3
138
82
0
4
0
71
108
0
0
0
0
0
222
0
0
18
0
0
90
0
0
0
0
194
228
0
0
34
0
0
0
0
0
0
45
13
0
0
0
0
0
0
0
10
30
15
13
110
0
0
0
0
0
0
159
202
0
0
0
14
166
52
0
16
10
0
28
0
0
3
0
0
46
0
5
3
0
25
0
142
195
0
0
0
33
27
18
1
0
0
33
0
0
0
0
4
45
67
78
0
0
88
74
0
0
0
0
0
101
0
0
0
104
120
26
25
21
77
172
0
22
0
0
0
161
129
0
0
0
69
17
0
28
5
0
0
24
0
0
0
0
64
0
0
16
11
0
0
7
4
13
24
0
13
0
12
77
119
0
0
0
0
0
0
44
0
0
0
0
71
0
0
255
255
0
162
133
0
30
31
15
0
7
0
0
0
0
0
0
0
15
0
0
0
12
13
0
16
0
0
61
13
103
71
0
0
183
33
67
35
9
0
48
0
190
0
0
66
0
202
0
0
14
0
0
15
0
0
0
0
0
0
24
70
0
68
3
0
17
12
0
0
0
0
0
19
42
29
16
27
0
26
0
4
0
4
5
3
0
23
12
6
0
4
5
20
0
19
2
27
0
0
25
16
0
4
0
0
0
32
0
11
5
0
0
42
10
22
0
0
0
0
14
8
0
18
0
0
3
18
0
16
0
24
9
19
2
0
0
0
0
5
0
0
0
0
0
15
0
42
0
0
0
16
18
0
0
0
0
12
0
0
2
0
0
0
1
0
16
19
10
0
19
28
0
43
0
21
0
0
8
130
98
0
0
0
0
50
0
3
23
0
6
5
0
0
3
0
2
0
0
0
0
15
17
0
0
0
0
0
42
0
36
0
0
11
0
11
0
3
13
12
0
33
21
19
0
0
0
5
0
15
0
13
8
31
33
16
0
0
21
0
19
0
19
0
0
35
0
0
15
13
13
21
17
0
46
28
11
0
13
0
0
13
0
0
10
0
0
33
0
0
0
0
22
0
21
0
1
0
0
0
4
0
0
31
23
0
0
72
148
3
94
153
38
32
0
0
0
14
9
25
9
0
2
0
64
25
0
41
105
128
164
0
0
156
222
0
29
0
0
42
0
7
180
65
0
0
0
0
0
48
204
0
0
0
0
0
0
0
91
0
186
94
0
15
0
184
120
0
0
35
2
0
0
0
0
0
0
0
57
0
11
0
0
50
255
0
0
77
18
0
0
15
0
24
4
1
0
70
4
41
0
0
0
0
9
0
0
0
0
178
161
0
0
65
163
83
0
0
0
184
125
0
0
35
56
0
31
15
7
0
0
43
43
8
0
10
13
0
88
178
0
0
0
19
0
0
0
0
0
7
19
0
3
19
0
0
45
72
53
0
0
141
87
42
0
0
0
0
255
8
0
0
76
112
8
0
0
15
64
46
74
0
0
0
0
217
60
0
0
51
35
0
0
0
0
101
7
3
23
20
0
29
0
0
11
0
16
0
5
7
0
31
38
25
11
32
111
0
0
0
0
0
0
45
19
0
0
0
0
14
0
0
31
95
0
97
141
17
91
46
0
0
0
14
0
0
174
0
6
8
78
11
30
0
1
46
0
0
0
0
0
0
202
0
0
0
150
64
32
42
45
0
0
0
116
0
0
0
0
92
0
12
0
0
0
0
3
0
0
59
101
0
0
0
0
33
0
0
0
0
0
0
5
0
48
0
39
0
4
0
25
0
0
0
44
5
47
5
0
19
0
25
0
0
2
18
0
4
0
0
4
0
0
0
9
3
0
0
0
33
0
44
7
9
0
0
4
0
0
0
28
7
0
0
0
0
22
0
0
21
0
0
29
0
0
0
16
0
15
12
0
1
0
3
0
0
0
0
0
0
11
6
0
0
16
0
0
30
0
24
20
5
10
12
12
37
4
9
0
0
2
4
11
0
5
23
0
0
0
0
0
130
102
22
9
1
0
17
0
35
0
0
0
46
0
49
0
0
29
0
0
26
0
9
0
0
0
0
19
0
15
0
48
1
5
3
0
4
0
0
7
9
12
18
0
4
0
8
27
0
18
0
24
0
0
2
58
0
0
12
38
0
12
0
16
20
0
0
0
0
0
0
0
9
1
0
2
0
13
28
0
21
4
7
0
17
14
16
8
0
0
4
5
0
59
2
25
6
2
29
11
0
0
7
36
48
0
0
0
33
170
0
0
212
221
235
52
0
0
0
0
0
45
0
0
6
79
0
0
208
190
175
77
0
0
0
0
0
0
0
0
0
164
82
62
0
0
0
0
0
79
127
0
0
39
8
0
47
0
8
0
0
240
0
0
100
0
187
105
0
0
41
14
11
0
5
36
0
0
67
0
34
0
0
0
0
255
0
0
103
0
41
0
0
0
37
0
4
41
42
0
0
0
0
59
75
15
0
0
0
0
0
87
6
30
163
255
0
0
0
79
198
58
0
0
74
3
27
67
0
26
0
33
0
8
0
0
50
9
62
174
0
0
0
64
2
21
0
51
0
0
0
0
12
0
0
44
0
25
102
90
0
0
133
99
65
0
0
0
76
230
0
0
0
163
98
0
0
24
8
32
60
104
14
0
0
0
146
77
0
0
26
55
0
0
0
0
0
0
0
13
0
0
0
0
0
4
0
0
11
0
4
0
0
11
15
27
72
108
0
0
0
0
58
0
0
82
26
0
0
0
26
72
0
26
0
0
128
113
0
46
40
0
0
19
8
0
0
57
0
0
0
0
0
30
0
11
0
9
213
143
0
13
0
218
0
0
0
128
114
36
64
6
46
0
0
117
7
0
0
82
104
0
0
47
0
12
4
29
0
6
0
0
0
15
0
0
0
1
0
0
0
23
0
0
0
37
3
67
5
32
11
0
31
0
0
5
0
0
15
0
9
0
3
6
5
0
9
0
20
40
0
18
0
0
0
0
17
0
35
0
0
0
13
0
0
0
0
0
0
13
0
0
0
8
0
6
0
3
0
18
0
0
6
16
0
22
18
0
6
23
0
0
52
0
0
0
0
0
26
0
15
5
0
0
2
0
17
0
8
0
2
0
0
0
25
0
5
0
8
0
22
30
0
0
0
0
0
15
0
0
0
0
142
99
0
0
0
0
69
0
0
24
30
0
47
0
0
0
0
8
0
0
21
0
24
0
35
0
0
0
0
17
0
30
0
0
26
0
13
37
0
4
21
0
0
0
1
0
0
6
0
11
12
0
23
9
0
7
0
9
0
0
0
14
2
8
1
24
27
0
0
0
0
0
24
8
0
33
30
0
63
0
16
6
0
1
0
11
0
0
45
22
0
0
0
37
0
0
0
7
10
0
0
14
40
41
0
0
0
0
191
254
0
0
0
0
79
142
120
6
0
0
0
0
0
23
67
78
181
0
108
125
0
0
0
0
0
30
0
0
0
0
227
175
1
23
0
0
0
1
90
121
40
0
0
72
113
0
0
0
0
0
0
144
0
0
0
0
245
46
0
0
0
5
0
0
0
11
41
0
89
0
12
2
9
0
0
186
180
0
34
0
0
0
22
0
18
0
0
0
57
0
0
0
0
0
0
0
0
1
0
0
0
0
0
0
129
0
0
0
46
190
125
0
0
0
0
0
0
0
0
7
0
29
4
23
0
0
2
48
202
0
0
0
0
53
0
5
0
0
2
30
0
0
0
0
0
46
0
0
80
109
44
0
0
38
128
20
50
90
25
0
0
0
0
179
53
0
2
27
0
36
60
75
52
0
0
0
27
113
0
0
0
31
1
0
0
14
16
0
0
0
0
18
0
0
0
9
1
0
10
0
0
0
17
12
0
0
63
25
0
0
0
62
71
0
0
127
108
62
14
0
58
176
15
6
0
0
167
71
0
16
38
40
0
0
25
0
0
0
0
5
6
7
17
3
32
0
0
7
0
0
0
0
0
228
0
0
0
63
113
0
102
4
108
0
0
107
42
0
0
67
82
0
0
81
30
0
0
0
0
25
0
8
0
0
0
9
29
18
50
0
52
0
0
0
16
0
9
12
15
0
12
0
0
0
11
8
16
15
33
18
0
31
10
0
12
0
13
14
0
8
0
8
20
23
0
0
0
11
0
0
0
0
0
0
27
0
22
0
0
5
0
9
3
0
0
0
0
14
0
13
0
7
0
0
23
0
0
0
0
0
21
0
0
0
43
0
54
0
16
0
0
0
14
19
0
0
0
4
0
7
0
13
0
0
9
0
0
6
0
2
2
0
0
9
0
5
0
8
1
15
3
0
154
100
0
0
2
24
18
0
0
17
6
0
0
32
5
3
0
12
0
4
59
0
0
0
21
0
0
0
3
0
11
20
0
16
0
6
0
3
0
0
17
0
32
0
34
3
35
10
0
24
3
1
0
28
0
0
10
0
15
20
0
11
0
1
16
0
0
0
12
36
15
0
40
0
25
0
35
16
13
0
0
33
21
1
0
50
0
27
16
0
0
34
19
0
0
3
0
0
18
19
40
90
44
5
0
0
0
0
21
255
136
0
0
0
0
0
140
121
35
0
0
0
16
61
86
0
0
0
0
0
0
0
0
5
0
0
0
0
3
38
156
70
0
0
0
0
0
85
115
0
21
0
0
21
173
0
0
0
0
0
113
114
0
0
0
43
255
37
0
0
0
0
0
57
15
0
0
0
60
0
0
0
0
0
0
52
251
0
0
0
34
0
67
0
0
44
0
0
89
0
0
28
0
24
11
0
0
50
0
0
0
0
1
78
46
0
0
11
0
110
0
0
0
0
0
0
0
0
0
16
5
13
16
11
0
7
33
154
15
0
0
0
20
17
28
27
24
0
0
21
7
42
0
0
0
68
58
0
5
112
66
0
0
0
44
85
117
29
35
0
0
0
109
128
37
14
19
31
0
36
72
39
55
0
0
0
0
99
26
0
0
0
0
0
12
0
0
0
16
0
7
1
0
11
12
54
0
0
37
0
3
8
21
22
0
34
89
1
0
0
8
80
106
14
0
39
55
58
28
0
0
11
50
0
0
0
158
22
16
20
64
6
0
0
47
0
0
2
0
0
0
11
21
0
0
75
0
0
29
7
0
0
0
255
0
0
0
9
198
0
114
0
88
0
0
97
30
0
0
36
117
0
11
0
55
0
21
0
0
4
3
9
15
44
3
0
11
0
0
0
0
0
0
22
10
44
40
25
0
4
7
0
0
0
19
0
0
0
0
0
0
0
0
18
0
0
13
18
12
0
0
0
0
47
0
42
0
0
9
15
0
0
5
4
0
0
9
19
36
0
16
0
32
0
2
2
4
28
20
11
0
30
0
0
0
0
36
9
0
2
0
10
0
0
17
0
24
0
14
0
22
2
0
0
6
0
18
32
30
13
0
32
28
12
13
26
0
21
0
45
0
0
0
0
0
0
8
0
2
0
6
39
160
105
40
0
12
0
4
0
0
0
0
10
25
59
0
0
9
10
16
0
0
0
5
8
5
0
0
0
0
0
28
14
0
24
4
4
15
3
2
0
9
10
0
0
0
0
0
2
12
0
0
17
0
0
5
30
30
0
13
0
0
0
43
8
17
0
1
1
0
0
35
0
24
0
18
0
3
0
0
0
6
0
1
23
19
0
0
0
28
19
45
0
9
30
0
25
0
24
128
96
15
0
14
3
17
0
0
0
0
161
242
0
0
63
0
0
0
83
0
56
12
0
56
125
0
0
0
0
0
0
0
43
0
0
0
25
0
0
111
87
0
0
0
0
0
0
31
0
93
0
108
0
0
0
130
0
0
0
0
0
154
117
72
15
0
68
201
49
0
0
0
69
0
0
16
0
0
16
108
0
10
0
16
0
0
0
253
17
0
0
40
0
42
0
11
0
0
30
5
0
0
57
24
0
5
35
0
30
0
0
0
0
158
195
0
0
0
0
58
0
0
0
16
24
4
97
15
40
37
0
11
0
0
0
0
61
158
0
0
0
22
0
37
25
33
14
0
8
72
2
0
64
7
0
0
0
0
0
0
0
94
78
2
0
0
0
0
0
0
0
0
76
130
62
0
9
0
28
0
12
24
17
45
0
0
0
0
82
49
23
0
17
2
11
45
0
0
11
22
0
2
8
0
0
0
0
0
0
0
0
29
26
0
18
15
77
102
0
0
0
0
50
72
55
0
0
0
108
70
40
94
0
0
0
0
117
89
0
0
14
15
0
0
0
28
0
43
67
0
18
0
1
0
0
19
4
0
19
0
0
0
0
52
217
0
0
0
0
231
0
141
0
62
0
0
77
0
0
0
39
22
0
0
0
4
0
0
116
61
0
14
0
0
44
22
0
13
0
33
0
8
0
0
38
0
27
35
31
0
0
0
0
0
0
16
0
14
0
3
20
8
9
0
19
0
18
0
0
19
0
11
5
0
0
0
0
44
24
0
0
6
15
0
0
0
0
3
3
0
0
0
28
9
0
0
0
0
0
1
16
0
14
29
39
6
0
0
0
17
0
4
0
16
0
49
0
8
0
16
30
11
0
0
5
22
8
0
0
0
0
25
0
13
0
0
5
0
11
0
0
0
0
0
0
0
0
9
0
11
11
4
2
172
101
0
0
0
0
24
4
3
7
32
0
0
0
5
0
0
7
33
0
55
2
0
2
0
0
4
41
0
11
0
24
3
0
2
5
0
1
12
0
13
0
20
0
12
0
0
14
14
1
22
0
24
0
3
0
3
0
34
0
2
16
0
0
2
0
3
15
4
8
0
0
0
13
20
0
0
50
8
0
5
0
14
0
0
8
14
0
0
0
55
0
0
0
26
0
54
194
83
0
0
0
0
5
0
0
0
0
0
15
184
0
0
202
189
56
0
0
6
125
91
140
248
23
0
26
0
19
0
38
0
4
18
0
0
0
0
53
80
73
0
0
0
22
49
23
0
0
102
0
0
0
0
0
0
63
0
94
0
0
229
0
0
0
0
0
133
92
0
0
0
0
0
76
0
9
0
33
56
29
0
13
0
0
0
0
54
0
0
0
0
44
0
0
17
0
4
0
30
73
0
0
0
0
0
0
13
38
20
0
0
61
246
57
0
0
0
156
167
0
0
57
47
35
0
27
0
6
13
15
26
0
3
13
49
166
59
0
0
8
25
7
0
23
20
31
24
0
35
12
21
50
0
0
0
0
0
45
49
0
0
28
49
0
0
0
0
0
0
35
59
98
62
3
0
0
0
0
0
4
53
0
0
0
22
6
0
0
40
15
0
0
0
45
35
0
0
5
0
38
0
38
6
19
16
9
28
4
0
3
18
17
10
29
11
45
70
0
0
54
2
35
83
170
0
0
0
0
4
0
0
0
0
0
106
108
56
34
20
46
1
4
0
0
0
0
0
0
0
17
27
0
27
0
7
16
0
0
0
0
0
0
33
168
0
0
0
0
223
0
135
0
57
0
0
55
53
40
0
90
22
0
19
21
31
30
0
0
0
29
27
15
0
64
0
0
0
0
0
0
0
0
0
44
14
7
39
43
0
14
43
3
23
0
7
12
5
31
9
0
6
0
3
8
0
11
0
24
20
0
0
22
15
10
0
19
0
0
5
0
20
0
0
0
16
0
0
9
0
0
5
0
0
10
21
0
0
0
0
0
0
0
0
0
0
3
13
0
28
0
10
0
32
0
10
5
0
8
0
10
19
0
0
18
6
29
0
0
0
19
0
11
0
0
30
0
11
8
6
0
2
0
8
0
0
23
2
0
10
0
6
5
177
100
0
39
26
0
0
0
13
0
2
11
10
29
0
24
0
2
0
1
0
0
0
9
11
0
0
9
0
32
24
0
11
2
22
10
0
0
0
16
0
12
19
0
20
10
0
0
2
0
16
0
6
0
0
5
45
0
35
23
0
34
0
0
20
21
0
0
0
0
13
0
0
7
0
15
0
11
26
0
21
0
17
10
0
41
0
0
15
0
42
0
10
44
89
59
104
171
0
0
0
0
0
0
0
0
0
0
15
0
195
0
0
24
100
0
0
11
110
113
183
255
172
0
0
94
0
0
0
45
0
0
0
0
0
0
41
87
0
0
0
109
117
194
97
0
0
0
102
59
0
0
67
22
0
112
72
97
0
0
168
0
66
0
0
0
131
131
0
0
0
0
26
19
0
10
0
92
0
0
84
9
39
0
15
15
0
0
0
0
4
75
0
0
0
0
0
1
0
45
0
0
59
60
0
1
0
0
3
0
0
116
204
0
0
0
94
185
3
0
0
33
39
0
0
7
13
0
5
16
0
24
0
64
166
41
0
0
4
7
26
0
0
18
0
0
56
0
85
41
0
29
0
0
0
0
0
28
79
53
1
3
74
19
0
0
0
17
40
81
93
67
3
7
16
14
25
23
27
86
29
0
0
22
18
165
0
0
0
72
27
0
0
23
0
28
0
0
0
7
0
0
0
0
0
0
1
0
12
34
0
31
0
20
0
68
54
0
0
0
4
63
55
135
97
0
11
0
0
0
0
0
0
69
128
28
0
2
37
59
0
9
0
6
10
17
23
0
0
0
0
0
45
23
24
0
0
47
38
0
0
0
77
102
0
0
0
0
127
0
117
0
74
10
0
7
73
0
0
99
0
42
0
0
0
10
22
16
51
0
4
0
0
5
2
36
16
16
32
0
0
0
79
5
44
24
4
0
10
0
25
0
0
0
28
36
0
0
0
1
0
0
0
10
0
31
0
2
14
6
11
0
0
0
0
12
10
13
7
0
1
35
0
17
0
18
3
11
16
41
0
24
4
0
4
26
16
8
7
28
0
37
47
16
7
0
6
4
27
23
0
15
0
29
1
7
0
10
0
0
0
0
18
0
0
0
0
11
0
0
0
0
0
0
6
0
0
0
0
0
27
0
21
0
6
19
0
0
25
0
0
20
182
98
0
7
0
6
39
16
0
6
3
0
0
2
7
39
0
28
21
14
5
0
26
1
0
11
0
13
0
0
0
0
12
21
7
0
3
15
5
10
0
0
0
14
0
5
16
0
0
0
16
0
0
17
38
0
0
0
0
0
0
26
0
0
4
0
16
0
0
50
0
32
37
0
10
33
8
0
0
21
0
0
49
0
20
0
3
19
27
11
0
0
36
65
0
0
0
27
0
0
0
173
142
0
0
0
86
30
74
56
115
58
0
0
0
0
133
187
219
255
252
0
0
0
0
236
0
0
0
0
0
0
0
0
0
0
17
36
54
56
69
8
43
0
0
0
0
0
90
15
63
78
76
22
44
2
31
0
0
0
167
0
197
0
0
0
195
45
0
3
0
39
79
1
0
0
0
112
3
3
0
0
0
0
0
34
30
0
0
7
78
47
0
0
82
21
0
0
0
55
0
0
2
0
0
0
0
109
0
0
146
222
15
0
0
0
191
143
0
0
0
19
0
30
0
8
23
4
0
6
2
0
53
156
0
0
0
0
71
13
4
0
0
10
0
14
33
0
13
0
5
64
0
20
0
2
0
0
0
43
37
34
67
79
12
32
42
52
35
125
58
43
37
20
29
33
63
69
70
11
0
0
0
26
97
66
0
0
9
22
21
9
8
0
0
1
0
48
1
2
0
15
0
21
0
0
16
0
0
28
3
29
23
16
11
65
0
0
0
0
0
0
4
0
49
53
39
38
3
10
115
67
68
104
80
30
5
65
41
63
18
18
20
37
0
0
0
40
0
0
0
8
0
0
30
8
0
13
39
4
9
0
144
100
0
0
0
0
165
0
150
0
0
0
0
0
124
0
92
2
21
73
0
0
0
16
18
0
19
0
0
9
24
22
12
40
0
0
34
9
0
0
0
0
28
32
38
0
10
0
0
22
0
5
0
0
31
0
10
2
20
25
1
10
0
21
0
0
1
0
0
24
0
6
0
2
0
0
0
0
0
37
47
0
0
0
0
0
5
0
0
19
0
20
0
0
1
0
8
13
3
0
0
0
0
0
31
0
6
0
10
22
0
0
7
22
0
7
0
24
0
24
0
0
49
0
2
35
31
0
2
0
25
0
0
0
0
0
0
0
19
0
19
0
4
7
21
0
21
0
6
0
186
99
0
0
0
0
4
0
4
0
0
30
0
19
0
0
15
12
0
5
22
7
0
0
0
18
0
30
0
26
56
0
18
0
0
7
0
11
0
17
0
0
0
0
0
2
0
0
18
8
1
0
0
1
5
0
25
0
36
4
16
0
8
27
1
0
0
0
0
0
0
0
0
14
0
0
2
7
0
2
7
0
5
10
4
0
24
0
0
0
0
91
63
0
0
0
0
0
0
3
0
0
157
26
3
35
115
37
14
22
41
86
0
0
0
133
254
194
164
0
0
0
0
0
0
255
89
0
0
0
0
0
0
0
0
120
141
125
57
102
76
0
0
16
0
0
0
0
233
0
0
49
70
0
0
0
69
0
0
0
209
0
207
0
0
0
255
2
0
46
0
114
0
0
0
0
0
73
0
0
0
4
0
46
34
0
0
0
0
48
55
18
20
0
0
0
8
151
62
0
72
20
0
15
19
0
45
0
0
51
138
170
0
0
0
62
186
76
0
14
0
0
0
15
0
26
8
19
8
3
7
26
160
0
0
0
61
13
5
0
9
18
14
16
0
14
27
27
14
2
18
49
11
31
28
12
0
48
0
0
3
19
66
52
94
78
105
48
3
21
0
0
36
0
25
38
17
0
0
0
1
0
0
0
0
0
0
0
22
0
43
0
28
3
4
8
0
7
3
1
36
0
0
23
13
3
46
6
32
0
0
35
11
39
6
75
0
0
0
0
0
0
0
0
0
44
33
8
27
27
54
61
46
46
80
60
30
54
0
0
0
27
42
0
0
0
46
11
24
2
14
0
29
27
0
0
0
0
0
0
0
0
126
89
0
25
0
0
177
0
117
75
0
15
0
12
72
0
137
0
0
0
0
0
0
2
0
0
0
0
0
11
0
9
0
13
0
0
0
0
0
0
5
57
37
1
2
0
13
0
0
14
0
36
3
0
17
0
0
0
0
0
20
0
0
10
0
13
8
0
0
7
15
0
0
24
28
21
0
7
0
0
15
7
0
0
29
0
23
0
3
1
6
0
0
14
10
8
0
0
0
0
5
2
0
31
0
0
0
6
0
0
2
0
11
33
0
30
0
7
0
10
0
0
26
0
0
0
3
0
11
21
13
0
0
0
0
44
24
20
16
0
0
14
23
0
0
0
20
0
14
0
191
104
14
7
22
11
18
2
0
10
0
0
0
14
44
0
0
23
4
32
0
78
0
0
7
6
0
2
0
7
15
25
0
3
45
0
0
8
0
0
0
21
21
14
0
3
18
0
0
11
12
0
8
0
30
0
0
0
0
19
0
0
41
35
0
0
20
8
17
0
39
0
0
0
0
3
23
41
0
0
25
17
0
4
29
0
4
0
49
0
0
255
0
0
16
0
0
0
0
0
0
0
82
52
33
97
83
42
0
0
39
178
180
0
186
111
26
10
0
0
0
0
22
0
0
33
133
0
0
0
0
0
88
172
204
216
208
0
0
198
0
0
0
35
0
0
0
0
255
0
0
80
23
0
15
0
0
107
0
0
144
33
130
0
0
5
255
0
33
147
0
19
0
58
210
0
45
0
0
0
0
36
0
0
0
31
16
14
0
0
28
0
0
83
3
3
0
0
43
0
0
0
61
0
0
0
0
0
0
91
243
0
0
0
32
122
133
0
0
0
0
34
12
5
0
25
1
17
0
0
82
177
47
0
0
0
26
0
0
0
4
35
0
4
0
0
49
18
9
11
10
12
0
36
42
0
0
42
0
0
64
0
0
0
40
5
68
86
63
0
0
50
3
5
24
26
0
51
64
114
145
77
0
0
0
15
0
3
33
0
17
0
0
0
8
0
0
13
26
0
0
0
0
7
12
0
0
0
0
0
1
20
9
10
13
45
0
0
39
0
0
0
0
0
0
0
71
35
55
89
28
6
0
0
0
0
0
0
48
48
11
0
0
0
0
0
39
0
0
0
0
23
0
0
0
0
0
158
0
0
21
0
135
100
0
0
0
0
190
0
111
100
0
0
0
0
27
0
192
0
0
63
30
146
0
2
0
0
91
0
0
34
7
42
0
29
67
11
0
0
0
0
0
9
33
29
50
0
36
0
0
30
0
0
37
5
23
0
3
0
18
0
18
23
0
42
0
0
32
0
23
2
7
12
0
15
0
0
0
10
18
0
22
28
72
0
9
6
20
0
8
0
0
36
8
18
0
0
0
20
16
0
1
3
11
0
0
11
2
0
15
0
21
0
0
0
12
0
0
55
7
0
0
12
0
0
48
0
0
19
16
0
0
0
0
0
7
0
0
0
8
3
0
20
16
4
9
1
0
0
17
0
191
107
23
0
0
0
0
17
0
0
18
50
2
0
0
0
14
9
0
0
0
12
0
0
0
0
0
0
0
0
0
4
0
0
0
0
0
25
16
11
6
27
0
2
0
2
0
21
4
0
10
0
0
0
3
23
0
0
11
18
0
0
21
0
0
15
0
0
0
0
0
0
18
28
13
7
0
5
11
21
1
0
11
18
0
0
4
7
0
0
64
255
0
0
33
0
0
0
0
0
0
10
76
41
0
0
0
50
93
29
0
0
0
0
170
138
74
0
0
0
0
0
0
0
0
0
177
6
0
98
161
172
255
255
75
0
0
0
30
93
0
0
20
0
4
0
0
55
255
0
0
159
0
0
0
58
31
0
42
0
39
165
69
0
0
1
255
0
17
183
0
0
0
177
70
0
30
6
50
16
0
1
0
25
0
56
0
0
0
0
0
0
0
0
1
0
83
0
88
0
0
0
0
12
12
0
0
0
94
217
73
0
0
0
134
148
20
0
0
0
5
2
0
0
0
23
17
17
0
34
173
0
0
0
0
45
0
36
26
0
0
51
0
37
0
0
46
0
0
0
0
8
13
22
17
0
0
22
24
40
69
0
0
0
48
0
0
0
0
0
15
51
17
8
152
102
0
55
0
0
13
0
20
27
76
115
61
38
31
2
0
32
0
45
0
0
43
0
0
0
14
10
11
19
7
0
0
17
23
0
23
23
7
37
0
32
0
41
118
86
88
142
38
0
0
10
47
7
0
0
27
99
98
114
171
77
138
117
12
31
0
0
0
0
0
105
40
1
31
0
0
0
55
30
27
0
0
139
0
5
0
0
82
37
0
0
0
0
162
0
87
101
0
67
0
0
0
0
127
0
0
57
43
0
0
27
12
4
0
0
0
0
0
11
23
7
0
0
12
0
255
0
27
0
21
47
0
0
11
0
0
0
1
24
5
0
0
0
0
2
10
0
12
0
24
0
0
3
15
9
0
0
0
20
0
0
32
3
0
0
0
0
49
126
9
0
4
0
12
0
36
26
0
20
0
0
0
35
9
11
0
11
20
0
13
0
15
8
28
13
0
3
0
0
0
34
0
16
0
0
0
0
0
22
28
0
17
0
11
0
0
0
15
0
2
33
0
7
26
0
16
0
6
7
1
0
20
3
0
26
0
6
191
104
0
1
28
0
22
8
0
56
52
0
0
0
21
0
0
9
0
12
0
0
0
27
52
0
0
0
16
6
73
15
11
5
2
37
0
0
0
0
0
0
7
0
13
0
7
0
0
0
0
22
0
23
0
26
8
0
17
0
0
5
23
23
0
0
0
0
2
46
12
21
0
0
0
26
0
9
7
8
0
32
1
4
0
49
7
23
4
0
36
255
0
0
0
0
0
0
29
9
0
97
149
0
77
15
34
0
14
0
0
0
2
194
255
0
0
0
0
17
24
38
0
0
14
0
174
183
1
14
57
0
0
0
0
0
0
101
203
0
0
0
0
0
0
5
0
52
255
0
0
89
47
5
0
0
12
0
0
0
0
197
30
0
0
0
255
0
0
198
0
0
155
124
0
0
22
6
5
0
9
26
26
0
19
9
0
0
0
9
3
24
11
15
0
52
19
0
0
68
0
17
0
4
0
0
0
16
109
211
0
0
0
43
125
101
0
0
0
14
0
30
2
5
17
51
0
0
62
193
65
0
0
12
0
6
0
0
23
0
0
29
0
0
4
0
16
0
23
13
10
0
18
30
0
4
0
22
43
5
4
0
0
14
79
0
0
27
0
0
0
0
0
0
0
0
0
0
54
11
48
2
92
39
61
38
30
0
5
0
0
20
0
21
0
16
8
13
25
17
43
0
0
0
0
0
0
0
14
0
18
17
20
43
13
43
0
0
33
25
38
49
17
43
33
64
34
0
0
15
0
22
0
0
52
0
0
0
0
0
0
0
0
0
0
72
41
60
1
0
10
0
16
0
2
3
0
22
0
0
0
0
52
88
0
0
0
0
203
0
52
117
0
45
0
19
0
0
91
36
0
0
39
0
0
21
0
47
0
71
2
22
47
17
82
0
0
0
0
0
0
0
31
8
7
0
7
0
0
0
0
0
6
11
0
0
6
0
0
12
13
7
5
0
2
0
20
0
0
19
0
10
0
0
0
3
24
8
21
0
59
1
0
3
0
0
19
0
15
9
0
0
0
18
0
22
1
16
0
0
0
17
0
0
0
21
3
0
17
0
4
0
0
0
0
0
0
24
14
0
22
0
12
0
0
7
19
0
0
0
0
0
0
0
6
25
0
0
21
10
10
21
0
0
6
0
10
16
0
12
0
9
190
103
1
0
9
2
47
0
0
0
0
34
0
0
21
0
15
13
33
0
21
0
19
39
6
0
4
0
6
0
0
0
32
28
0
1
6
17
6
11
4
0
7
0
3
0
0
12
20
1
17
0
16
0
19
0
15
6
14
25
0
0
0
27
23
0
27
0
0
0
0
0
24
0
0
12
11
1
10
0
0
36
23
13
2
1
0
0
0
0
53
255
0
0
0
0
0
64
110
69
81
81
185
14
0
0
0
0
20
0
0
191
255
144
0
0
0
3
104
81
75
2
59
0
18
0
0
107
132
26
0
0
0
0
0
0
34
212
0
0
0
0
13
0
13
49
0
31
255
0
0
0
132
92
107
0
0
81
36
36
15
82
0
34
0
52
200
0
0
0
0
187
255
0
0
0
0
7
0
0
0
0
0
0
6
0
0
16
39
46
0
0
0
62
34
0
0
0
0
0
0
0
1
0
0
0
0
99
185
12
0
0
0
145
134
0
0
19
0
25
0
0
16
0
4
14
0
61
166
52
0
0
45
2
9
47
3
10
33
0
12
16
22
0
34
8
14
0
0
5
0
0
4
45
5
0
26
0
18
0
36
0
6
54
29
6
0
97
0
42
0
97
0
0
62
9
0
0
156
0
0
0
26
0
21
0
17
0
0
0
0
0
0
0
11
17
20
0
15
0
0
0
0
16
47
1
0
0
11
0
22
23
5
37
28
24
0
0
0
0
0
3
0
15
3
14
0
18
0
0
0
0
0
0
69
0
0
0
71
0
0
87
67
36
0
33
4
32
0
0
0
0
51
0
0
0
0
0
0
32
0
34
65
99
0
8
0
0
195
0
80
155
0
75
0
6
0
67
81
20
0
0
9
0
0
0
0
3
2
0
0
0
0
0
0
13
32
0
0
0
28
15
29
0
31
12
6
7
0
0
11
0
21
47
16
31
7
0
0
16
0
0
6
0
13
4
14
11
0
18
1
3
0
10
13
0
0
0
0
0
0
0
0
12
0
0
0
0
29
0
10
0
0
0
4
14
9
10
2
9
0
0
0
5
13
0
0
4
20
0
2
5
0
20
16
19
0
2
6
0
36
15
0
0
22
3
0
0
0
29
0
0
51
0
12
3
5
0
4
4
3
8
7
7
3
0
8
9
0
9
17
0
189
102
0
0
0
0
25
0
21
14
0
50
0
0
40
21
7
0
0
0
4
0
3
0
0
0
26
0
0
5
0
10
3
17
0
34
0
0
0
9
21
0
13
1
1
13
13
0
4
0
35
4
0
29
0
0
0
0
36
10
0
0
6
0
5
0
13
0
0
0
41
3
15
29
20
71
0
5
0
26
0
0
0
0
0
0
0
6
0
0
0
251
0
0
0
0
0
100
72
15
0
36
90
0
0
0
53
139
124
74
88
57
0
0
0
0
0
57
67
0
0
0
0
11
17
0
0
0
232
175
0
0
0
0
0
52
248
154
0
0
0
0
0
0
5
0
0
0
255
0
109
0
10
0
71
0
0
0
0
13
3
82
0
0
0
0
109
0
0
87
0
255
110
0
0
0
0
32
3
36
30
184
0
0
0
15
9
0
0
0
0
0
0
0
0
22
29
4
0
0
15
4
6
0
0
0
48
101
148
0
0
0
0
153
58
0
0
56
0
39
12
1
27
0
30
12
28
193
76
0
0
16
2
0
0
0
10
0
34
0
11
0
46
0
8
0
6
20
2
4
0
25
0
16
5
1
42
19
32
26
9
0
20
4
0
0
0
102
0
25
10
95
0
0
57
57
0
0
148
0
0
0
0
0
9
0
0
0
0
0
0
0
20
21
2
0
17
0
2
15
0
0
0
9
0
0
0
10
0
0
16
24
11
10
19
22
0
0
0
1
0
0
0
0
0
0
3
30
0
28
0
16
15
0
68
29
0
0
121
0
0
0
36
0
0
0
3
49
0
0
0
4
36
12
21
0
29
106
0
0
0
83
0
118
0
0
0
0
172
0
58
92
0
56
0
29
0
62
99
0
1
0
59
3
20
21
29
38
21
0
0
7
34
70
0
0
0
40
0
0
62
0
24
54
40
10
0
29
0
6
0
0
11
25
0
0
9
34
17
0
0
10
0
11
6
0
0
15
11
0
9
23
0
14
4
0
37
0
0
0
7
22
0
0
4
24
0
15
19
0
2
0
18
0
0
0
0
0
0
0
24
20
22
0
0
39
0
0
9
9
0
0
14
10
0
0
0
0
0
0
0
0
41
0
0
0
0
0
4
10
24
0
4
0
9
0
18
7
13
0
0
34
0
0
7
16
0
0
0
0
15
0
190
103
1
16
30
8
36
29
0
0
0
40
13
0
0
0
0
0
12
19
22
16
38
0
24
0
16
0
0
20
18
28
0
0
1
20
0
21
0
3
4
0
19
20
0
0
5
4
0
0
0
0
25
41
0
16
9
0
11
0
0
16
0
20
10
11
47
2
0
0
36
0
0
4
0
0
7
17
35
42
0
13
19
16
24
38
5
5
32
0
0
82
57
0
57
39
0
40
0
0
0
0
0
0
84
148
107
81
0
0
0
0
0
0
18
87
44
0
4
0
0
0
0
10
1
0
0
0
85
235
75
106
0
0
10
67
21
0
0
0
61
78
0
36
95
0
0
33
255
0
0
11
0
90
88
20
0
0
73
113
0
0
34
21
118
0
0
0
0
79
207
103
0
0
0
43
74
3
0
0
0
0
0
42
39
0
4
35
0
0
6
0
0
15
19
0
46
0
0
19
32
0
0
0
0
16
106
210
0
0
0
0
114
113
0
0
0
47
0
0
0
0
10
0
22
19
162
97
0
0
0
0
13
0
23
20
0
0
0
0
19
19
48
0
0
0
0
26
0
29
0
25
0
4
0
0
4
13
29
10
0
0
45
12
0
0
0
20
0
3
0
0
5
0
34
56
0
0
66
0
0
0
0
0
0
0
11
30
35
16
0
0
10
0
30
0
14
0
12
14
1
0
0
14
0
0
44
0
0
39
9
23
12
37
12
38
0
8
0
0
0
0
12
0
0
6
0
0
0
50
24
1
16
30
45
28
85
0
143
50
0
0
61
26
51
0
34
0
0
0
0
22
17
0
0
0
26
11
0
0
0
90
0
112
0
0
0
0
141
0
26
131
0
31
0
54
0
18
173
0
0
0
18
50
0
0
37
2
0
0
0
19
0
0
6
67
17
0
0
42
11
45
42
11
0
0
0
0
0
0
5
49
0
14
0
0
0
6
5
2
0
0
20
0
0
14
14
2
0
13
9
4
0
28
0
0
25
2
17
19
4
0
0
13
0
0
0
23
9
12
0
5
0
4
18
0
17
12
0
0
5
0
0
12
5
0
6
22
12
0
0
0
2
0
0
14
30
0
13
1
34
2
1
0
0
0
0
10
31
0
21
0
16
11
0
19
3
0
16
15
0
3
0
12
0
2
14
13
20
0
7
0
189
102
0
30
0
0
0
0
0
0
5
5
2
29
22
0
52
0
0
0
0
0
0
16
15
0
0
0
0
42
0
3
24
19
0
0
0
22
0
0
7
0
0
14
0
0
0
3
6
5
12
0
0
31
0
0
27
7
17
0
0
28
0
22
0
0
0
0
0
0
11
0
0
0
7
4
22
0
0
0
0
2
0
1
57
0
0
0
0
0
0
49
255
14
40
116
79
54
0
0
0
18
120
226
166
0
0
0
0
0
0
0
0
75
149
30
0
0
0
0
0
4
0
33
0
0
49
0
0
59
136
233
2
1
86
78
78
0
0
72
207
42
0
20
71
0
0
0
217
0
0
0
0
112
93
23
0
0
172
84
0
0
108
9
103
30
193
38
23
98
53
0
0
0
0
0
31
72
56
0
0
37
32
15
16
0
0
0
53
17
30
0
36
47
30
0
14
33
0
0
0
0
0
0
0
79
142
155
0
0
0
0
174
0
0
0
21
14
1
0
5
3
33
0
49
172
113
0
0
0
0
0
31
11
0
44
1
11
0
3
0
0
6
0
25
44
0
8
0
12
33
0
4
0
0
0
0
2
13
44
0
0
57
23
28
12
5
8
10
22
0
53
36
0
40
0
37
0
22
0
47
10
1
0
0
0
19
57
0
0
0
0
1
0
0
19
9
0
22
0
0
0
0
3
0
0
60
0
0
0
0
0
16
42
27
10
0
0
0
19
0
0
6
2
26
0
7
16
0
24
25
3
0
0
53
44
14
0
34
63
0
7
59
0
17
0
52
46
24
3
0
57
0
0
0
0
34
0
0
0
0
0
18
103
0
0
0
0
187
0
0
143
23
0
11
37
0
0
202
0
53
3
0
54
0
0
2
0
6
0
0
68
79
37
0
0
0
0
0
0
0
12
7
20
0
17
0
0
0
9
0
21
16
63
0
36
0
8
0
0
24
0
7
0
9
0
21
0
0
18
0
0
0
4
15
0
0
10
4
0
44
8
1
16
0
0
18
0
0
0
10
3
0
0
19
0
11
4
27
1
0
2
4
0
17
14
0
10
10
6
0
0
0
10
31
0
11
0
38
0
29
0
0
0
0
0
12
0
0
5
0
0
20
15
0
1
0
10
0
21
0
18
19
0
6
15
0
0
0
2
7
0
191
101
0
11
0
0
3
8
0
0
28
0
0
9
0
18
5
1
0
12
55
6
3
0
4
0
0
28
0
3
0
0
0
13
5
0
0
18
29
14
0
2
14
0
15
0
13
17
1
0
0
8
11
0
0
38
18
0
8
8
0
6
0
24
11
0
25
0
0
0
6
0
0
0
0
0
3
0
26
0
3
11
0
0
0
0
14
0
17
0
0
0
93
105
0
0
11
49
27
71
176
114
32
0
0
0
0
18
101
62
0
0
6
103
0
60
0
0
23
59
0
0
75
21
0
0
38
0
0
0
0
178
53
49
128
0
34
53
71
121
181
0
0
27
12
0
0
0
132
52
43
2
0
78
118
29
0
0
173
0
0
0
6
71
21
0
0
27
84
19
135
54
13
0
44
0
0
0
0
0
51
0
0
0
0
13
31
0
0
26
0
0
0
0
3
0
35
0
11
56
25
0
0
0
42
56
185
0
0
0
0
76
162
0
0
14
21
15
7
0
12
4
0
14
159
141
0
0
0
15
8
25
33
0
16
0
0
31
0
5
27
12
0
0
27
7
25
38
0
10
0
0
1
25
0
0
0
0
13
0
0
40
9
0
12
0
6
19
0
0
0
15
12
0
0
0
0
0
0
2
21
33
0
9
26
33
35
23
0
0
2
0
45
0
22
0
0
26
0
24
0
29
0
8
0
0
0
0
0
37
16
11
11
20
20
0
18
0
11
19
0
14
0
17
0
11
0
1
0
0
8
39
0
0
42
12
18
0
11
23
0
15
15
0
23
0
24
4
13
0
0
42
19
0
0
0
29
15
22
0
0
0
54
32
0
0
0
0
167
0
0
111
2
0
101
21
0
0
152
9
0
68
0
52
0
0
73
15
0
5
0
54
35
3
0
42
12
0
0
0
74
56
40
8
0
9
0
0
0
13
0
34
0
5
0
20
0
0
24
0
0
8
39
0
0
14
0
0
4
0
16
0
2
31
14
0
0
0
0
0
3
0
0
0
24
7
0
0
0
0
0
30
0
3
5
0
21
0
5
0
3
0
12
0
0
28
0
11
0
2
0
18
12
0
20
0
29
29
0
0
33
0
0
0
0
18
1
21
0
10
16
2
7
19
0
2
14
13
0
24
0
0
0
0
0
0
0
20
0
0
0
0
189
100
0
17
7
0
12
15
38
0
0
12
18
0
5
0
0
21
0
2
0
0
25
0
52
0
0
37
7
30
4
33
1
12
0
0
43
2
0
0
0
27
12
15
0
0
0
0
0
12
11
0
0
2
0
10
6
0
21
0
0
11
6
37
0
0
27
0
0
3
10
0
37
48
1
0
17
0
17
0
41
0
1
3
0
12
11
0
20
0
0
0
0
188
0
0
0
67
74
85
75
0
0
0
0
0
27
0
0
0
0
12
54
0
0
0
41
0
0
0
0
0
172
0
0
0
61
0
0
0
0
108
95
33
15
0
43
22
99
0
0
0
0
73
10
0
0
0
82
0
2
26
0
0
200
128
32
0
13
0
0
0
0
0
52
0
0
159
165
0
0
48
137
0
222
134
194
0
0
21
0
8
34
20
44
0
0
10
5
55
29
22
6
7
0
0
1
0
0
0
6
0
0
0
76
168
66
0
0
0
24
206
0
0
0
0
0
0
10
0
27
19
49
133
224
0
0
0
27
0
0
0
0
30
0
0
0
36
0
29
5
0
22
19
11
0
0
0
0
45
0
7
0
30
0
29
17
0
18
0
0
0
0
0
0
0
0
0
0
0
8
0
3
2
16
4
47
34
22
0
0
23
0
9
0
42
26
0
0
0
25
4
0
0
11
19
4
5
0
9
0
25
0
0
0
0
56
9
0
20
19
4
0
13
23
27
2
0
18
37
0
14
0
36
1
0
8
25
0
30
0
0
0
0
0
0
0
3
0
57
3
0
8
13
33
16
48
0
30
0
0
73
19
0
0
0
64
15
0
51
23
0
11
138
0
34
0
0
170
0
3
113
15
0
101
0
0
0
169
0
0
55
0
52
54
0
54
21
0
6
0
42
1
22
0
0
0
0
15
0
29
7
21
0
2
0
34
0
9
34
5
21
0
4
0
0
14
1
4
0
0
0
6
24
34
0
34
0
5
0
0
28
0
5
1
0
18
0
0
0
0
0
8
0
0
0
7
23
23
0
0
0
9
32
0
23
6
1
0
0
15
0
20
0
6
0
0
0
0
9
0
8
36
0
4
0
0
9
13
2
0
0
55
12
16
24
4
6
17
2
2
17
0
0
15
2
2
0
0
5
0
8
4
0
19
0
17
0
0
0
4
16
191
104
29
0
0
8
13
0
15
7
3
0
24
8
36
19
0
0
8
26
0
13
0
0
0
0
0
0
0
0
3
55
0
0
13
0
42
0
2
19
0
0
0
0
53
13
0
24
0
0
1
2
11
15
25
0
9
0
9
12
18
0
6
11
35
0
0
0
3
42
0
0
20
0
16
0
0
0
0
26
0
21
3
26
0
22
0
10
0
26
0
0
0
73
85
38
137
87
0
19
0
0
22
34
51
0
0
0
0
0
0
131
95
69
68
0
0
0
2
0
67
0
204
0
0
0
33
0
0
0
0
0
0
17
126
56
63
0
20
0
0
0
0
0
19
0
0
50
0
39
0
14
0
0
0
135
136
53
0
0
0
25
0
63
21
0
0
255
44
0
0
0
94
0
118
0
0
0
25
4
0
0
1
0
0
0
0
34
0
20
7
0
0
25
0
3
39
0
0
0
0
0
0
46
123
190
0
0
0
0
60
109
0
53
0
3
2
0
0
6
13
7
115
200
0
0
0
0
0
0
23
4
20
1
0
11
17
5
0
13
0
39
0
7
0
5
0
0
0
0
15
44
0
35
0
15
0
0
0
0
0
1
0
0
23
0
7
36
0
0
0
42
0
0
0
0
0
24
0
6
0
0
0
30
0
50
13
0
15
0
0
0
0
11
14
0
25
0
0
0
29
13
13
18
12
0
27
0
0
0
0
0
18
11
16
22
0
0
0
26
0
13
0
31
50
0
6
19
0
21
0
0
3
1
0
4
19
7
5
0
54
0
47
8
0
0
0
42
24
0
0
31
0
42
0
0
36
0
0
14
21
0
20
119
0
0
0
0
161
60
0
119
88
0
113
5
0
0
149
28
0
62
0
0
46
0
14
0
0
12
0
31
16
0
0
0
66
0
0
46
29
9
61
6
16
0
46
0
6
0
14
16
12
12
15
0
0
0
0
0
18
0
0
26
0
0
0
18
0
1
0
8
0
0
6
0
15
5
20
10
49
0
19
1
19
0
7
11
5
6
2
0
0
3
0
18
0
0
0
0
0
0
0
8
15
0
24
13
15
0
0
0
0
0
0
6
0
0
2
0
0
0
0
4
0
18
26
14
17
10
0
0
8
8
7
0
11
7
0
5
0
2
0
0
0
0
0
9
0
0
0
0
190
100
0
0
35
11
0
11
0
0
0
0
0
0
2
0
11
10
3
6
0
25
0
16
0
0
0
17
3
29
23
9
4
0
36
0
3
0
20
0
0
8
0
0
0
14
0
0
23
23
6
0
0
10
0
34
3
0
7
0
0
8
26
0
4
0
0
13
0
11
0
45
0
0
0
0
0
10
0
7
0
9
0
4
4
0
3
8
0
6
0
0
0
0
0
52
95
36
0
0
0
0
101
69
32
0
0
0
0
5
111
77
7
0
0
48
39
0
0
0
0
51
110
0
0
0
54
42
0
105
0
154
0
0
0
0
0
63
96
12
99
0
11
20
0
0
37
11
0
0
76
74
0
0
0
0
72
102
45
9
77
47
64
137
0
0
110
108
0
0
0
255
0
0
0
0
2
0
0
0
0
10
0
0
0
43
0
0
0
0
15
33
0
30
17
8
7
34
0
0
0
0
0
116
192
9
0
0
0
0
145
0
0
5
0
24
0
29
0
7
32
84
212
5
0
0
21
33
11
53
6
0
0
0
13
41
0
7
0
36
0
28
0
1
26
13
12
0
18
36
0
0
0
22
0
43
0
0
10
0
0
23
0
30
23
0
0
0
37
1
44
32
0
0
67
9
46
0
0
31
38
0
0
41
0
43
0
0
26
0
0
1
0
27
28
0
17
0
10
0
24
0
0
0
0
0
0
0
0
0
0
29
16
26
43
17
0
0
0
17
11
26
0
0
0
15
12
0
0
24
4
2
0
32
0
32
17
19
13
0
35
0
30
28
23
62
34
2
29
27
0
107
0
26
0
0
23
18
0
53
0
0
135
70
0
0
0
0
148
50
0
92
67
0
117
48
0
0
75
184
0
0
66
0
78
0
0
0
0
10
0
54
0
0
18
0
21
0
7
19
37
26
36
0
0
0
0
10
1
0
14
1
0
0
17
10
0
11
25
0
45
6
0
0
8
10
16
0
0
6
0
9
11
26
0
6
2
5
0
0
0
0
31
0
1
0
0
0
0
0
38
5
0
39
0
13
0
17
13
27
14
0
15
0
9
0
0
6
2
0
32
31
6
20
15
0
21
0
22
0
13
11
15
26
5
0
12
7
0
6
10
15
8
4
0
1
4
0
4
8
0
1
16
5
4
0
12
0
0
18
15
0
190
102
32
0
4
0
0
0
19
7
53
0
36
11
17
0
0
0
9
31
33
0
2
35
11
6
3
0
0
0
0
18
7
0
33
5
0
23
1
0
26
27
0
0
20
0
23
0
10
0
2
0
0
0
19
0
0
0
43
6
0
15
0
8
0
0
0
27
0
0
0
0
32
25
4
15
23
0
5
60
0
40
20
0
0
0
0
40
0
0
0
0
1
0
22
0
11
0
0
0
30
28
89
0
0
0
0
0
0
0
118
71
0
0
0
45
0
0
0
0
0
90
12
0
0
0
63
22
92
0
116
90
0
0
0
0
0
104
27
67
0
0
0
16
0
27
132
0
0
0
85
34
0
0
0
0
0
202
102
85
93
68
124
73
0
0
239
0
0
27
255
255
0
0
0
0
21
0
30
0
0
17
7
0
32
24
0
48
11
20
0
101
0
0
0
0
17
0
0
1
0
0
35
133
122
0
0
0
0
86
103
0
0
0
5
13
0
31
13
37
56
211
23
0
0
3
21
4
12
22
0
9
0
0
0
19
0
17
0
0
0
40
0
1
0
8
45
0
19
1
2
20
0
25
0
3
10
21
37
40
0
26
0
17
26
8
41
0
6
0
0
13
0
0
52
23
2
0
0
28
68
0
5
83
10
12
0
0
32
0
0
39
9
3
0
0
24
10
0
0
14
0
13
0
0
0
27
47
51
0
0
16
24
5
16
13
1
0
0
0
22
10
0
5
0
0
14
13
35
9
17
0
0
0
14
0
0
21
0
0
0
0
0
0
0
17
0
12
11
0
0
25
0
51
0
33
34
0
8
39
0
0
42
0
0
0
36
0
107
66
0
102
44
0
72
0
0
0
61
117
0
1
37
0
41
0
37
0
0
15
0
21
26
0
1
0
0
0
0
14
2
26
0
1
0
21
0
0
20
0
39
0
0
0
10
0
3
14
11
0
0
0
10
4
28
5
0
22
6
18
0
13
3
0
0
0
14
0
0
0
25
23
0
8
0
15
15
7
3
0
0
0
0
0
0
19
0
0
0
21
3
7
56
0
0
21
0
13
0
1
12
0
8
0
0
0
19
0
0
0
42
6
0
1
0
9
9
11
6
0
14
0
8
1
3
7
0
18
0
10
3
6
10
0
0
0
0
6
0
0
0
0
192
99
14
0
16
6
0
6
0
0
13
9
0
0
0
0
0
4
11
0
0
0
13
0
0
0
0
0
0
3
14
38
3
2
8
0
0
27
2
0
0
2
21
0
9
12
32
0
30
8
14
0
26
3
0
36
9
0
8
0
2
25
6
16
22
0
9
37
0
0
39
12
0
2
0
0
31
0
21
0
8
0
44
0
23
36
3
29
0
0
7
139
0
12
80
6
0
0
0
0
0
0
0
0
0
0
92
110
82
110
0
0
0
0
27
0
15
0
41
0
0
81
26
24
0
9
101
56
0
0
161
31
0
0
0
0
72
146
6
34
0
0
0
0
17
34
0
0
93
0
48
114
0
0
0
0
0
76
215
201
132
21
0
0
0
0
111
0
11
249
255
0
0
9
0
0
0
16
20
0
0
8
14
7
0
0
0
4
0
0
0
15
0
37
34
8
27
57
0
18
0
0
72
224
0
0
0
0
0
193
0
19
8
23
0
0
0
0
0
35
196
192
0
0
0
0
15
0
17
0
0
9
19
6
47
0
8
47
0
13
0
28
5
16
2
0
10
7
13
0
28
16
7
0
19
0
21
8
0
44
0
9
18
0
4
31
0
3
0
25
33
23
14
9
0
0
0
0
0
0
0
0
0
22
0
37
4
0
0
0
0
5
33
32
9
0
12
3
7
32
0
2
0
0
5
0
29
0
0
18
3
5
13
0
25
19
9
0
9
0
6
7
3
20
4
7
0
0
0
15
9
1
19
12
2
0
5
6
0
0
25
5
35
0
0
0
0
51
55
0
0
0
0
25
0
48
0
0
0
64
0
0
44
13
2
0
0
0
149
74
3
55
28
28
82
46
0
0
86
58
0
0
15
0
145
0
0
0
0
22
6
16
0
0
1
0
0
0
0
57
38
31
0
0
0
7
0
0
26
16
2
12
15
0
0
30
0
29
0
0
20
5
0
0
0
7
0
0
0
7
0
0
21
0
18
18
19
0
37
0
24
0
0
0
0
0
0
0
40
0
21
0
38
0
8
0
33
6
29
28
0
0
0
0
28
38
0
4
15
10
0
0
0
0
0
0
0
0
0
0
26
6
20
14
4
0
0
2
0
6
0
0
0
19
0
1
0
0
0
3
0
0
3
5
7
14
21
9
18
0
3
0
191
97
22
0
21
13
21
0
18
49
6
0
12
27
17
0
29
41
0
25
42
0
0
31
0
5
0
32
49
0
0
0
23
0
9
38
0
0
22
0
0
0
0
0
0
0
11
13
0
12
12
0
0
7
16
0
0
0
0
46
0
0
8
7
0
0
4
0
0
0
9
0
8
26
55
16
33
0
15
4
0
0
7
5
0
0
0
5
31
0
0
0
3
35
0
0
0
0
0
71
0
0
0
0
82
126
61
102
70
97
22
0
0
0
15
0
0
0
0
0
11
155
22
0
0
27
141
0
0
68
13
26
0
0
0
82
174
76
23
0
0
0
0
0
20
25
0
0
67
86
82
165
15
0
59
0
0
0
0
0
0
133
21
0
0
0
0
0
228
255
12
0
0
0
0
0
0
0
0
35
8
9
33
41
0
0
32
8
0
16
19
0
25
0
0
0
5
20
0
0
0
40
131
158
0
0
0
0
109
157
0
26
0
28
18
0
15
0
6
172
226
0
0
1
0
22
19
0
37
0
15
35
0
0
4
0
0
35
0
0
0
22
0
0
0
0
18
0
6
0
22
20
20
0
0
0
14
6
0
54
0
1
2
0
0
0
0
0
0
1
4
5
6
19
0
0
11
0
0
23
0
35
0
21
21
0
0
0
0
0
13
0
0
0
0
0
21
0
0
6
27
0
43
0
0
3
0
0
0
5
36
0
0
23
29
16
0
7
0
0
0
18
25
15
0
40
0
0
0
25
5
0
25
0
0
38
0
0
2
0
18
0
0
50
0
26
9
12
0
0
19
2
44
13
0
1
0
0
18
0
0
0
95
69
0
0
0
0
44
66
0
54
45
23
57
44
0
0
3
123
0
0
22
0
0
0
71
8
9
39
19
19
8
0
0
0
0
0
42
0
22
26
27
0
23
0
0
0
7
11
9
22
0
59
0
20
0
5
0
11
4
5
13
0
0
13
0
28
0
20
10
3
3
0
26
0
0
0
20
0
30
0
20
0
17
0
50
0
6
24
13
10
0
0
0
4
0
0
25
0
0
11
0
0
8
0
0
15
0
11
0
0
18
21
0
0
0
0
26
15
21
3
0
7
6
11
12
10
0
29
0
1
0
3
0
0
0
8
0
22
0
0
0
0
0
0
0
0
0
1
16
0
190
91
0
0
0
0
34
0
13
0
0
0
8
0
26
0
0
15
0
11
13
8
17
17
0
0
0
0
0
0
44
32
40
0
0
23
0
3
1
7
1
0
35
0
45
0
2
0
0
2
10
3
16
0
16
0
32
0
1
9
0
23
0
27
24
27
0
0
0
0
0
0
0
4
0
0
0
0
30
0
34
0
13
33
10
0
0
0
0
6
0
0
0
0
0
0
0
4
145
158
0
34
66
73
133
162
118
182
86
0
0
1
0
12
0
0
45
50
21
0
0
174
42
0
0
86
107
0
111
61
0
0
0
0
29
215
77
46
0
0
0
0
7
26
0
43
0
25
0
20
30
142
157
8
0
35
15
0
0
0
32
106
101
99
0
51
89
136
206
81
0
0
0
21
0
0
6
4
0
0
3
0
33
0
0
10
0
16
0
32
26
0
35
0
71
0
0
50
0
0
0
119
221
0
0
0
0
0
205
5
0
10
13
9
0
0
1
17
102
255
0
0
0
10
36
0
7
14
17
0
0
6
31
0
46
9
0
34
10
0
0
0
0
0
40
0
51
0
7
0
0
18
19
0
0
0
5
11
0
27
0
7
6
0
16
0
7
18
1
0
0
10
0
0
0
0
0
30
23
8
0
46
0
0
0
12
0
26
0
0
19
0
69
0
18
23
0
0
0
0
2
0
66
0
0
8
0
0
0
0
43
8
0
2
17
23
0
0
0
8
12
0
4
0
4
0
0
20
20
15
0
0
0
0
0
0
0
0
41
0
0
0
2
17
0
0
17
0
31
0
1
0
8
2
0
0
29
54
74
0
41
0
101
12
0
24
0
0
106
103
9
16
78
7
5
77
0
0
77
118
0
0
5
99
33
3
21
0
0
0
0
0
0
19
31
0
0
27
48
0
51
13
4
0
0
0
0
0
13
0
43
7
0
10
0
21
0
16
7
0
0
0
10
0
14
0
0
10
0
0
0
0
10
0
0
0
11
0
0
0
11
0
25
0
20
0
16
0
0
0
0
0
0
31
0
0
28
0
22
0
33
15
0
24
10
0
15
9
0
4
0
10
9
0
0
0
4
18
11
0
0
24
5
4
0
0
0
0
10
0
11
8
18
0
1
0
4
0
6
5
0
4
6
0
0
0
10
16
2
0
0
5
193
88
0
10
0
0
0
0
25
0
0
2
9
3
0
20
0
59
0
22
0
0
0
0
0
0
0
0
19
0
0
0
0
0
6
11
8
22
0
30
4
10
17
0
17
0
3
0
8
0
10
0
0
19
0
0
3
9
0
1
19
0
1
9
0
0
0
31
2
4
0
0
0
29
14
17
0
0
27
0
8
15
0
0
0
0
0
0
0
0
0
0
0
0
0
16
34
17
26
115
101
202
205
200
123
161
0
0
0
0
17
0
27
16
42
44
38
29
0
0
46
203
0
0
0
47
55
19
160
0
0
112
0
0
90
66
0
37
0
0
0
17
15
0
0
29
0
0
0
0
0
0
49
140
0
5
55
59
11
0
0
0
0
249
187
152
143
173
61
0
0
143
8
16
0
12
72
32
40
0
0
0
25
4
38
0
0
26
0
0
0
1
0
0
5
0
0
0
0
0
75
157
131
0
0
0
0
57
138
0
0
29
21
0
0
7
27
93
232
8
0
0
0
5
0
0
42
19
17
0
1
0
15
0
31
0
0
0
0
9
27
0
10
8
31
0
3
0
5
0
17
0
7
0
38
0
25
11
0
16
0
11
0
14
14
16
0
9
0
0
0
23
0
0
16
34
17
29
0
46
6
1
0
0
3
0
0
1
6
0
9
0
39
3
0
0
0
41
0
0
52
0
21
0
0
0
0
40
1
10
10
0
9
30
29
44
0
13
0
0
0
8
0
20
22
0
0
0
0
0
0
17
17
0
2
31
20
0
10
0
0
22
0
29
0
15
0
42
25
10
63
0
51
22
26
6
0
4
0
0
93
0
179
0
0
0
0
0
91
103
0
0
61
21
47
65
0
0
86
27
0
0
0
95
0
0
0
0
4
28
37
0
0
0
0
0
0
14
8
25
43
7
0
5
0
5
0
8
32
4
6
0
0
15
10
5
0
24
4
0
13
22
10
31
5
2
14
38
13
19
0
0
18
17
36
0
0
7
20
5
24
16
15
0
30
0
0
0
0
22
0
0
8
2
1
8
10
0
9
0
2
23
0
0
36
0
0
4
0
19
2
0
0
0
18
0
0
0
17
41
0
15
0
0
20
21
4
0
2
5
0
0
13
7
1
0
18
0
1
7
0
9
0
3
0
6
25
0
4
0
0
4
191
94
23
17
0
92
41
12
11
10
57
0
10
18
0
47
0
1
0
32
27
53
0
40
14
0
0
0
0
0
0
10
31
0
10
0
12
14
0
10
0
0
10
0
0
10
0
6
16
0
19
3
0
18
3
1
16
11
0
10
21
2
13
0
0
4
0
0
0
0
0
30
18
0
9
0
26
0
0
0
0
0
14
0
0
0
0
0
32
33
123
110
44
146
117
131
138
5
6
150
74
42
0
0
0
0
0
4
57
0
0
0
0
0
0
0
19
0
0
0
57
62
0
0
7
0
90
65
0
0
0
85
0
125
71
28
0
0
0
0
0
1
0
0
7
92
21
37
0
0
0
1
0
122
75
133
92
69
104
10
15
0
0
0
148
214
199
64
0
0
62
137
88
57
14
0
0
49
129
0
0
1
1
30
0
0
26
30
0
22
57
19
0
0
5
0
0
0
0
0
172
179
0
0
0
0
0
179
15
0
29
0
29
0
0
20
58
215
109
0
0
0
0
31
12
42
0
21
3
8
27
0
0
0
35
0
11
0
0
0
0
1
0
9
14
0
5
6
9
0
0
19
4
0
31
0
0
42
0
33
0
0
0
30
46
41
0
13
5
2
0
0
0
0
8
27
0
22
0
6
0
7
0
5
0
0
4
25
0
0
0
0
5
0
0
18
0
0
0
23
38
0
5
2
0
0
1
1
0
0
20
0
43
0
20
13
0
15
0
7
0
0
7
12
38
40
0
0
0
21
8
0
0
0
32
0
12
3
32
0
27
0
0
20
0
34
24
33
11
0
0
0
28
0
0
0
0
51
0
0
106
0
149
0
0
6
0
0
84
140
0
56
32
0
74
15
0
0
57
0
0
0
0
117
56
0
0
20
52
0
29
32
2
14
22
0
0
49
12
11
37
12
2
0
0
0
0
46
14
18
4
1
18
0
0
0
2
9
11
0
3
0
0
0
0
17
2
0
11
0
0
0
0
1
21
0
26
0
0
0
12
0
0
5
0
2
69
19
0
3
12
0
0
0
4
23
0
5
10
0
2
0
0
0
0
3
34
0
0
0
0
13
26
0
0
26
21
0
1
0
16
2
5
19
0
16
0
2
7
21
26
9
0
0
0
0
26
0
1
4
0
3
0
5
8
0
5
0
0
4
15
7
195
90
0
11
0
65
46
0
5
0
0
14
0
6
5
16
0
0
0
0
0
0
0
0
0
0
0
13
0
36
0
22
25
7
12
0
20
0
10
0
15
7
0
9
0
12
0
0
0
5
1
11
8
0
37
0
8
0
0
6
25
0
10
46
0
24
8
0
0
0
0
17
24
28
10
0
0
16
0
10
0
0
0
0
5
70
145
152
95
68
97
53
12
47
0
24
119
0
194
139
0
0
0
0
0
0
137
90
0
0
0
6
12
0
3
15
46
57
0
1
130
42
0
0
0
123
74
0
0
0
9
62
53
91
17
57
0
0
0
0
49
0
27
0
0
0
0
0
0
2
0
0
71
0
0
0
99
40
51
52
55
68
99
100
0
0
0
0
0
0
16
112
31
29
0
0
15
77
29
0
0
37
34
29
0
96
0
0
0
9
5
0
0
27
0
0
0
0
0
15
177
67
0
0
0
0
96
155
0
0
22
0
25
0
6
53
163
211
0
0
0
0
4
0
0
0
1
30
18
0
0
7
17
4
6
0
0
4
15
9
0
18
0
0
9
4
0
22
0
16
0
0
0
36
6
17
0
6
0
41
26
0
0
0
0
5
0
1
0
47
23
22
24
28
0
0
0
14
6
30
0
20
0
18
14
11
0
0
19
19
13
0
18
11
0
21
0
9
7
6
34
0
7
13
0
0
0
0
1
0
14
0
47
0
33
29
1
14
0
2
0
15
0
0
0
18
11
19
46
2
19
0
0
0
0
0
14
0
4
0
14
8
27
0
0
1
0
20
0
0
0
0
45
8
0
0
33
103
0
0
60
0
161
0
0
64
0
0
10
145
0
82
24
0
121
117
0
0
89
77
11
47
0
61
34
0
0
0
0
32
0
0
0
7
0
0
42
19
0
50
19
0
0
45
0
0
17
20
0
0
6
4
0
10
0
0
14
0
0
0
3
34
8
0
0
1
29
0
8
0
0
1
3
0
2
0
0
25
41
3
7
0
14
0
0
0
31
0
26
0
6
0
0
40
38
0
4
0
12
3
14
0
7
4
0
26
0
16
0
76
0
0
0
0
7
37
0
24
11
15
4
0
0
4
3
7
0
0
0
0
0
0
5
0
13
0
0
0
7
0
16
12
0
0
0
0
0
0
0
0
0
0
195
87
0
0
0
0
0
0
0
29
8
0
39
0
0
19
9
2
22
11
0
42
0
8
0
0
0
0
0
22
59
20
0
0
7
0
0
14
0
22
0
0
21
11
0
0
18
23
2
16
8
0
2
0
0
11
16
0
7
3
0
0
3
5
6
1
0
0
0
6
0
0
0
0
0
0
0
0
6
0
0
0
52
85
110
139
91
0
0
29
6
0
0
0
30
0
22
53
58
0
0
0
0
0
61
27
54
0
0
0
2
15
34
0
47
0
0
0
0
0
107
29
0
0
0
194
0
0
6
205
0
36
107
0
0
0
0
1
20
56
42
0
12
0
0
0
14
0
34
2
0
0
0
54
21
0
0
123
167
79
207
255
82
0
0
0
0
0
0
0
27
90
88
56
17
49
65
26
0
0
0
0
0
0
0
1
0
9
19
1
0
0
6
32
38
0
0
0
0
118
255
0
0
4
0
0
166
21
0
25
15
17
0
0
32
112
255
0
0
0
3
0
9
0
0
0
12
0
24
0
0
0
0
0
0
43
0
0
45
0
0
27
0
25
19
2
0
0
0
10
0
0
0
0
0
17
5
0
0
10
0
27
12
0
0
30
2
0
0
0
9
1
0
0
0
20
0
17
0
7
0
17
18
28
0
21
0
0
2
2
37
20
0
27
0
26
0
0
27
1
2
0
22
13
2
8
0
0
9
0
8
18
12
0
36
0
0
19
4
0
0
0
0
0
0
0
0
0
0
6
0
17
0
0
3
2
14
0
6
24
8
3
8
15
0
63
0
11
54
16
0
26
22
0
0
60
0
36
26
0
30
0
139
0
0
0
0
0
0
93
22
91
11
0
107
60
14
0
89
0
0
0
0
22
5
0
41
48
35
48
0
25
0
0
0
0
24
23
29
62
0
33
0
14
0
0
47
0
32
0
24
16
0
27
0
22
0
0
22
4
0
0
4
0
0
0
0
0
13
0
18
0
45
0
0
0
0
26
1
0
0
0
6
0
0
0
0
0
24
0
16
0
0
0
0
18
0
22
0
13
0
0
20
2
0
0
0
0
0
0
0
0
0
0
38
0
0
23
0
19
0
5
9
7
1
0
0
2
8
12
27
0
4
0
7
0
13
0
3
4
3
0
0
0
9
20
16
0
16
0
7
5
197
89
26
0
0
7
58
7
0
0
0
0
0
0
115
0
0
5
37
0
0
30
0
0
0
19
1
6
2
0
0
8
0
39
21
0
1
17
15
24
0
4
0
0
26
0
18
0
0
0
0
9
6
31
2
41
3
5
14
22
11
36
26
4
0
0
0
22
0
10
0
29
0
0
0
0
0
26
0
28
74
91
91
41
0
0
0
0
0
0
0
25
0
0
21
0
0
0
0
0
0
0
0
161
91
0
15
0
55
20
37
0
0
92
0
0
0
0
21
115
38
0
0
0
93
68
0
0
143
51
0
174
101
0
0
0
0
19
7
22
0
0
8
27
52
0
67
0
0
10
0
0
0
32
165
71
0
0
0
0
0
52
0
0
0
2
26
65
0
0
0
49
68
29
3
25
58
0
0
6
0
12
9
39
0
0
0
0
0
12
0
18
60
0
0
0
0
0
1
117
123
0
0
10
0
0
171
0
0
42
10
8
0
21
96
255
21
0
0
0
0
0
22
35
44
0
19
0
15
31
15
0
13
19
8
0
42
0
29
0
7
29
13
0
0
1
0
18
2
0
27
0
6
0
0
17
6
0
7
0
3
0
31
0
3
32
3
50
31
0
0
0
38
29
0
17
9
27
0
0
0
5
0
13
0
25
0
39
0
0
0
20
0
49
0
25
22
0
8
23
16
6
3
12
0
0
0
0
30
0
25
37
1
0
19
7
0
13
22
0
3
3
6
0
16
7
9
32
0
5
0
7
0
3
0
7
14
12
0
15
9
0
16
0
3
28
25
23
19
0
0
48
78
0
0
0
54
0
0
0
118
0
151
0
35
0
0
0
0
127
0
44
27
0
97
112
12
0
29
3
0
10
32
0
64
0
0
2
0
0
25
0
0
5
0
9
0
35
21
0
9
12
13
0
0
0
2
0
3
4
6
0
0
13
0
21
7
25
0
12
0
13
41
0
6
9
0
34
8
0
9
0
0
27
7
6
40
0
0
0
0
0
13
63
19
0
5
0
0
0
0
24
20
0
0
7
0
25
14
16
13
0
2
9
0
0
47
0
0
0
0
0
0
18
30
26
23
4
0
21
0
0
0
4
2
15
6
0
0
0
6
0
2
0
21
0
1
4
1
0
12
5
0
17
0
0
2
0
26
0
30
11
201
84
0
6
36
0
32
9
0
0
2
33
6
0
29
0
0
0
0
0
0
0
50
5
6
0
0
0
0
10
3
24
0
13
15
0
0
0
0
0
0
0
25
25
0
0
23
3
0
0
1
25
14
0
6
0
0
0
0
0
17
0
0
9
16
0
0
12
0
38
5
2
15
41
16
11
7
32
0
45
84
51
0
0
0
0
0
0
30
0
4
0
0
106
94
57
0
36
18
0
0
27
16
0
0
74
21
0
0
0
45
0
0
15
0
20
21
0
169
16
0
0
79
0
147
0
0
149
111
16
138
87
100
0
0
0
0
37
0
0
0
19
5
18
0
0
4
0
23
0
0
43
0
0
0
155
170
0
0
0
0
103
65
0
0
0
0
0
0
80
0
0
82
35
0
6
0
0
79
0
0
24
0
58
0
24
48
0
9
3
4
0
0
0
0
0
0
5
108
153
0
0
40
0
0
112
56
0
32
0
12
0
6
71
213
141
0
0
0
14
0
5
0
3
23
0
17
0
30
0
6
8
0
18
0
0
44
0
8
0
0
0
17
0
8
0
19
2
1
0
37
0
9
0
10
0
0
0
13
9
13
6
2
7
0
0
0
0
0
0
32
0
0
0
9
15
11
0
0
0
0
0
0
0
0
3
15
31
0
0
0
0
0
17
0
0
0
0
0
0
0
22
0
0
0
0
21
0
25
0
23
0
9
14
0
19
29
0
15
0
11
0
0
0
38
0
0
38
6
6
9
0
18
17
0
0
6
0
0
2
0
0
22
0
9
19
0
51
16
0
0
0
8
0
0
0
67
40
0
0
109
0
111
0
0
0
0
0
0
139
40
55
14
0
75
149
75
0
0
24
0
0
0
0
0
25
0
0
54
45
0
0
0
0
0
0
26
0
49
2
7
0
10
0
7
0
0
31
3
0
11
7
0
36
0
19
0
0
0
55
0
13
0
0
4
0
1
24
0
0
64
0
0
0
0
0
0
19
0
16
0
11
0
0
0
0
16
12
0
0
21
6
0
0
38
0
0
1
5
7
0
13
15
15
0
0
14
0
0
30
0
0
0
0
3
0
15
0
13
0
0
0
0
22
0
0
2
0
12
17
0
1
5
3
17
3
0
0
4
0
0
0
0
0
0
10
4
0
5
0
0
6
200
80
0
19
0
0
13
20
7
0
13
0
0
1
9
11
25
0
0
13
0
21
0
0
0
33
0
0
0
0
4
11
0
11
9
0
0
21
15
9
28
4
11
0
0
5
4
0
0
11
45
0
0
40
0
9
41
0
28
15
0
7
0
7
11
36
0
32
0
0
0
0
1
0
0
18
0
0
4
0
38
0
0
0
0
22
6
0
40
23
47
22
0
0
0
75
0
116
32
74
25
9
0
41
53
131
0
0
17
53
0
0
0
0
0
0
37
88
187
0
0
14
0
25
25
0
153
125
61
0
0
0
35
105
0
0
0
94
4
0
0
18
0
3
0
15
0
0
30
0
2
57
0
0
0
0
88
195
0
0
0
159
0
0
0
29
0
0
0
140
0
0
67
28
0
0
0
64
144
0
0
0
0
0
0
27
0
0
0
39
44
46
0
0
18
0
0
68
118
87
0
0
59
0
30
232
0
0
37
0
0
0
24
181
228
0
0
0
11
78
0
0
0
30
18
11
0
8
8
10
0
7
0
0
0
0
28
0
0
4
22
22
0
0
28
1
5
0
23
0
0
0
12
0
36
7
8
0
11
0
6
0
8
13
0
8
0
0
0
0
59
0
15
11
31
0
24
0
12
43
5
25
9
4
5
0
3
0
37
48
0
0
21
27
1
1
15
21
0
47
3
5
0
2
18
0
0
0
4
0
0
14
12
46
13
24
5
11
16
0
0
0
4
0
0
0
19
0
8
21
0
5
0
5
19
0
6
23
7
17
0
30
0
11
52
0
26
0
10
0
0
7
34
0
0
29
11
0
0
0
1
51
70
0
43
0
0
0
0
109
57
56
75
0
0
106
43
0
0
98
0
0
21
0
0
74
0
0
1
0
0
0
51
0
0
3
36
6
63
18
3
0
87
0
0
0
0
26
0
0
5
0
0
7
0
0
0
23
0
0
3
6
0
0
34
0
0
5
0
12
2
0
3
0
39
0
6
38
6
0
17
7
12
0
0
0
10
9
0
0
24
0
0
0
0
0
7
0
0
15
0
5
20
0
0
11
0
25
0
0
0
0
36
20
0
22
10
13
0
9
18
10
0
10
0
0
9
0
1
6
0
0
5
0
0
0
0
0
20
4
24
0
6
0
1
0
0
0
0
0
15
1
201
87
28
34
0
38
0
0
0
0
57
0
0
3
11
5
0
0
8
12
15
0
0
0
0
12
0
0
0
0
17
31
12
5
1
36
4
5
0
0
4
0
5
0
25
0
4
0
0
0
0
0
0
9
0
17
0
0
13
0
0
27
4
0
0
0
8
11
0
0
3
0
28
17
1
0
0
37
3
26
0
0
1
0
1
0
0
0
4
0
49
68
0
0
7
0
0
25
66
0
0
0
111
77
0
19
0
0
104
0
0
0
20
0
13
12
80
132
62
0
0
0
0
115
48
56
94
0
13
0
0
0
0
255
0
0
5
8
0
14
23
0
4
0
0
0
0
0
0
55
16
24
0
67
0
116
0
105
199
0
0
145
27
0
3
0
0
16
0
106
12
0
167
46
74
0
50
117
6
0
0
89
57
98
0
0
18
12
0
51
0
0
25
0
0
0
17
149
211
0
0
18
0
0
150
137
0
27
29
16
0
0
138
252
0
0
0
0
0
0
0
39
0
0
0
0
42
0
19
3
0
3
21
15
17
0
5
0
5
16
12
18
0
3
23
6
10
0
20
0
0
0
0
0
23
1
25
0
0
15
28
8
0
28
0
34
28
5
21
0
39
0
0
0
23
0
7
0
47
0
0
24
0
9
26
0
0
0
0
6
0
11
18
36
0
14
12
17
0
28
0
0
3
8
1
0
0
52
0
0
0
40
0
24
12
14
16
9
19
0
0
0
4
0
0
0
0
2
41
0
0
11
15
15
0
0
3
0
0
24
0
17
4
0
27
0
27
24
22
0
2
42
42
0
0
63
0
0
0
0
0
138
30
0
0
4
0
0
0
77
41
50
96
0
8
162
163
0
0
41
0
0
28
0
0
152
0
2
29
0
0
23
9
0
0
34
17
39
12
57
9
7
0
0
0
21
44
1
4
14
25
19
0
8
12
0
0
1
0
21
0
17
21
0
3
5
0
8
12
0
22
0
22
0
6
5
9
0
0
0
0
0
8
4
10
0
6
7
0
0
25
0
27
64
10
6
5
17
0
15
10
0
0
0
5
40
0
0
17
0
20
21
4
36
0
0
0
7
15
0
0
0
0
5
2
4
5
0
0
0
1
19
0
0
0
0
13
0
0
0
0
0
16
10
0
6
16
7
0
0
7
4
203
84
5
0
0
10
23
32
0
4
0
1
0
0
9
42
0
0
28
8
0
8
10
118
0
0
22
50
0
1
6
21
0
0
0
5
0
0
6
6
0
10
20
0
0
0
13
0
29
10
0
9
22
16
0
7
0
6
5
0
0
13
0
72
33
0
0
8
0
12
0
51
16
6
33
0
17
0
0
52
0
0
29
0
0
0
47
0
22
57
22
22
0
51
49
0
0
0
0
0
0
21
54
0
0
23
42
0
61
0
0
0
0
0
0
65
144
8
0
0
0
0
45
152
121
0
0
0
117
0
58
0
0
255
0
43
47
13
0
0
0
0
0
59
23
1
8
24
1
0
0
53
0
0
0
62
0
0
0
2
0
111
83
0
0
0
0
0
0
63
84
0
116
0
15
0
167
123
0
0
27
0
0
0
0
14
13
0
0
56
0
40
0
0
0
0
72
113
100
0
0
21
0
0
176
0
0
39
4
0
0
66
239
120
0
0
0
5
0
0
0
31
1
17
2
0
47
0
31
0
22
2
0
22
24
0
25
0
5
0
0
0
0
11
18
10
5
0
5
8
24
0
22
5
0
0
15
0
33
0
0
0
0
11
0
12
60
19
18
0
0
12
0
0
0
0
0
0
50
8
0
0
18
0
4
34
26
0
1
35
0
25
0
0
0
2
6
0
7
23
0
7
0
16
0
27
0
0
0
4
5
11
0
28
11
13
5
25
27
0
20
0
0
0
16
14
16
7
0
0
14
26
15
0
21
1
0
20
0
0
0
1
23
11
38
13
0
30
0
0
0
26
31
0
11
84
0
0
0
0
0
115
0
0
0
0
0
0
0
88
28
72
69
0
0
90
146
0
0
57
0
8
0
0
0
156
0
0
21
34
31
0
11
0
0
0
28
36
0
12
0
10
0
6
0
0
28
0
10
0
5
7
0
8
0
0
0
0
9
0
10
0
0
0
13
0
0
0
0
0
22
8
39
2
0
32
0
3
0
4
20
0
31
11
0
18
15
6
0
10
39
0
0
0
0
0
8
0
7
38
7
0
26
17
20
0
2
0
8
0
10
13
0
12
14
0
0
8
3
0
13
1
0
8
0
0
0
0
8
0
0
0
2
0
7
12
8
19
4
0
0
16
0
0
0
23
6
0
0
4
0
7
203
80
0
8
0
0
11
0
21
4
13
27
34
0
0
0
0
13
13
20
18
0
0
0
0
20
0
0
0
34
0
14
20
0
19
0
0
23
7
0
0
0
0
0
27
8
6
0
0
23
0
0
12
14
9
13
29
0
0
0
8
55
0
5
0
0
0
25
0
0
41
0
7
0
0
31
23
0
0
22
5
30
24
0
35
0
0
5
0
33
79
51
0
0
10
0
4
0
0
0
118
108
42
0
42
243
7
16
0
0
0
0
0
84
107
195
58
0
0
15
0
5
82
29
140
0
0
21
175
0
0
0
255
0
0
32
0
0
10
0
47
0
28
20
0
15
20
0
0
34
34
0
3
0
0
148
0
13
28
9
0
45
129
0
0
0
0
4
0
0
21
0
92
53
0
44
90
63
0
0
0
0
0
10
51
3
0
0
0
96
0
0
3
0
0
15
126
108
0
0
0
0
0
187
90
0
0
53
0
0
0
186
214
0
0
0
3
61
0
4
0
0
18
2
24
10
18
0
0
0
20
0
27
14
0
0
53
0
30
4
0
12
9
3
0
5
0
0
3
0
0
0
8
26
29
0
0
0
0
7
14
21
27
3
0
0
0
5
0
0
5
8
0
21
25
22
2
27
5
0
5
0
0
1
0
3
0
0
17
0
0
4
26
0
44
0
2
2
23
0
4
0
10
6
5
0
0
0
0
38
0
0
66
4
0
1
3
25
31
0
0
0
0
0
13
0
11
0
0
0
0
0
0
0
12
3
0
0
50
0
29
0
17
3
5
0
0
61
0
0
0
0
0
0
0
28
17
4
0
0
0
150
18
0
0
14
0
0
0
148
70
25
57
0
36
92
123
0
0
16
0
7
143
0
0
0
11
0
0
0
0
0
0
0
4
0
26
0
28
3
0
30
0
0
26
0
19
0
3
1
0
0
4
33
0
34
0
31
17
0
7
7
7
0
31
0
28
0
5
0
0
2
0
18
0
0
28
5
0
0
1
0
7
0
0
0
13
23
0
7
0
0
12
15
23
4
0
0
0
0
2
8
13
0
0
27
10
0
0
12
15
0
6
31
0
23
25
19
7
20
10
0
0
0
0
6
0
0
2
5
13
7
0
6
0
0
0
0
0
8
2
13
0
7
5
0
3
6
0
15
21
0
204
83
20
33
31
0
0
0
70
0
0
0
0
19
0
6
0
23
0
0
34
0
6
6
0
0
0
25
8
0
0
58
18
0
17
1
27
15
0
21
28
0
1
19
0
0
32
0
0
30
0
0
0
0
0
0
7
0
46
10
15
0
1
47
0
0
0
0
0
0
0
0
14
9
0
0
0
71
41
9
0
0
14
5
0
13
5
8
0
3
28
58
0
0
0
108
0
0
95
142
160
12
0
0
0
189
9
76
0
0
0
0
35
117
78
0
0
0
0
0
0
124
0
0
250
51
0
0
82
168
0
0
77
0
48
41
0
0
0
0
6
77
0
0
24
0
30
0
0
9
0
3
16
0
0
161
0
0
0
0
0
0
195
0
0
0
0
0
63
35
3
0
118
0
0
114
141
37
10
15
0
0
0
0
0
0
10
8
0
0
0
0
0
0
0
57
191
46
0
0
0
0
0
158
0
0
0
12
0
0
88
255
0
0
21
0
0
66
0
41
0
0
14
10
32
21
17
4
28
0
0
0
5
22
34
0
16
0
1
0
0
10
14
31
12
0
5
0
0
0
27
17
0
17
0
0
20
0
17
20
5
1
0
56
0
12
14
7
34
0
2
15
22
0
33
0
0
0
0
27
5
28
25
1
0
25
0
0
21
0
0
37
28
0
0
12
0
8
0
3
5
0
22
0
21
0
16
16
0
0
0
0
29
34
15
0
15
12
14
17
0
0
9
16
33
0
16
42
9
10
36
0
36
2
11
0
0
0
0
0
0
0
0
14
10
32
52
0
0
0
101
9
1
0
23
9
0
5
0
0
24
121
2
0
0
5
0
0
0
140
91
20
64
0
0
61
139
32
0
0
0
0
10
0
10
44
53
0
51
10
0
0
0
0
35
15
60
11
12
0
0
29
0
0
16
0
0
0
25
0
9
23
0
8
0
3
0
11
3
0
17
0
0
0
0
0
25
5
36
3
10
4
3
0
10
33
0
12
0
4
26
20
39
28
12
4
3
0
43
4
2
0
0
0
0
4
5
20
0
0
10
0
0
10
4
5
0
0
8
0
0
21
9
0
5
0
0
0
0
0
0
0
4
4
16
0
23
9
7
10
0
0
0
0
0
0
5
0
5
15
0
13
0
0
0
1
24
0
0
10
0
0
202
80
11
0
21
0
43
0
0
0
0
47
0
0
0
30
0
0
65
0
4
0
14
36
0
0
0
0
0
0
0
0
0
11
0
0
13
0
27
0
12
0
0
0
9
0
15
0
0
2
2
4
4
0
0
6
6
0
0
0
9
25
0
3
35
0
17
0
10
2
47
0
0
0
20
2
0
0
0
23
14
0
0
0
0
19
0
0
0
30
41
0
0
0
63
59
14
110
170
78
0
0
0
49
0
60
0
13
0
0
34
54
166
90
0
0
0
0
26
5
0
0
0
0
158
132
0
0
0
181
0
0
0
16
3
0
0
0
61
0
0
69
0
7
24
0
100
0
0
38
12
12
5
115
30
14
0
0
40
0
8
0
103
70
0
0
0
82
0
104
0
0
91
0
0
6
255
0
35
80
0
0
0
34
70
27
0
0
0
52
23
0
0
0
0
99
222
0
0
6
0
0
137
96
0
0
10
0
0
68
222
161
0
0
0
0
22
135
0
0
25
0
1
0
0
0
1
0
64
0
0
0
0
0
8
0
64
0
1
0
6
0
10
0
6
0
20
5
15
1
29
0
5
0
0
1
25
0
0
0
0
32
0
23
0
4
0
0
48
0
0
11
0
0
28
19
0
0
0
1
0
0
0
50
0
4
0
0
18
0
0
0
26
0
0
0
21
2
0
0
0
60
0
0
1
13
18
0
0
0
0
42
0
7
24
23
14
7
50
0
0
0
0
37
3
0
0
15
0
0
13
0
19
0
3
0
21
18
0
18
20
23
45
0
28
7
18
1
0
5
12
11
0
0
100
0
3
0
0
0
0
110
23
0
6
10
0
0
0
25
140
66
98
0
0
59
103
82
0
0
5
0
0
0
0
64
33
46
0
0
59
12
3
0
2
34
39
52
0
37
14
0
0
0
160
0
244
0
0
22
0
0
0
15
0
0
25
0
4
0
37
7
0
19
17
0
0
0
10
0
1
3
0
0
4
0
0
0
0
0
0
0
0
0
0
0
12
0
4
0
0
18
29
0
24
0
0
0
27
19
0
0
15
0
9
0
0
0
0
3
32
0
49
0
11
19
0
7
0
5
8
0
4
4
0
0
0
0
0
0
4
0
0
10
0
5
8
4
12
0
0
4
6
16
17
0
2
13
0
0
9
13
205
73
0
12
0
0
20
0
18
0
0
0
43
8
14
0
6
2
0
6
26
20
12
0
0
6
20
24
0
0
7
5
0
32
14
0
9
0
19
0
0
17
0
14
0
3
20
0
0
3
0
18
0
0
17
8
0
59
0
18
8
1
0
41
6
0
0
0
0
0
90
0
24
39
0
0
0
0
0
2
13
0
19
2
0
0
31
13
8
6
0
0
0
72
142
91
120
255
58
0
0
0
0
80
0
107
83
0
0
0
61
222
94
0
0
0
0
28
0
68
0
18
0
0
27
172
34
0
0
250
0
0
36
0
37
0
31
0
0
0
0
90
9
0
0
0
32
0
6
0
0
10
0
0
0
0
13
94
255
0
0
0
0
83
0
0
0
0
0
0
65
6
0
0
0
0
141
60
150
127
0
0
0
0
19
1
0
25
0
0
0
13
0
0
96
114
104
0
0
0
0
0
194
0
0
11
0
0
17
143
222
0
0
0
0
0
0
59
0
7
30
15
50
0
41
7
0
0
26
4
10
2
0
0
2
0
35
0
0
0
21
0
0
0
0
0
39
0
26
0
26
0
0
11
0
0
6
0
0
40
0
7
10
3
0
11
38
0
5
0
0
0
0
1
0
12
12
3
14
19
4
29
7
11
0
4
19
3
0
0
0
0
41
0
46
0
0
2
0
38
0
1
0
19
0
0
0
0
32
0
0
0
0
21
0
24
20
18
50
1
0
0
13
1
0
0
0
3
0
18
0
0
51
0
3
0
0
0
0
30
0
0
9
0
43
0
6
0
0
41
0
0
0
0
41
0
10
0
0
0
9
137
43
0
0
0
10
0
0
39
123
37
60
0
0
37
60
190
0
0
37
0
41
0
0
61
0
5
9
0
13
0
0
0
23
20
41
31
0
10
2
0
0
0
55
22
65
75
0
0
0
3
0
23
0
0
38
22
1
0
0
6
0
0
6
12
13
0
0
0
0
0
20
0
23
12
36
6
11
9
21
10
21
1
15
0
2
0
5
0
29
3
13
9
0
6
23
9
0
18
0
14
21
0
47
0
0
0
0
9
5
0
13
0
16
0
0
15
0
0
2
4
0
3
0
9
7
0
33
0
0
8
0
1
0
5
0
6
5
0
19
12
0
7
0
0
1
5
1
14
5
0
202
78
22
0
0
0
5
13
0
48
0
0
0
0
0
15
0
0
0
0
13
0
0
0
0
0
0
5
0
0
25
28
13
31
5
0
17
0
0
0
15
0
0
5
8
0
0
0
5
0
27
16
0
6
0
24
0
21
0
0
17
0
5
14
0
0
11
0
0
0
0
0
23
0
11
39
33
0
0
17
0
0
8
0
38
0
0
0
0
0
0
0
26
251
183
100
29
0
0
0
0
0
57
116
0
111
0
0
0
165
146
13
0
0
0
0
35
80
0
153
0
0
0
0
0
112
16
21
0
222
23
0
0
0
87
0
2
0
19
16
0
97
0
6
0
0
0
14
8
0
23
31
24
0
1
0
17
198
151
0
0
0
0
115
0
0
26
0
0
0
78
0
50
45
0
0
0
255
93
43
114
15
0
0
0
0
0
2
16
0
28
21
0
0
100
159
0
0
7
34
0
64
147
0
7
7
8
11
89
249
0
0
0
0
0
0
73
84
0
0
0
0
0
0
53
8
4
0
19
4
0
30
11
3
0
0
0
0
31
31
23
0
0
35
8
0
29
0
19
0
0
0
0
16
10
11
17
25
0
35
0
0
34
0
0
0
4
0
6
2
44
0
0
6
21
0
0
8
0
1
0
0
0
0
24
24
18
29
3
25
20
0
0
0
9
0
4
0
6
0
0
43
0
34
0
0
0
18
0
0
0
0
0
37
11
11
21
0
15
21
0
0
11
0
0
41
36
0
12
0
6
0
90
0
23
0
27
31
0
0
11
12
14
0
26
22
18
37
0
67
0
0
8
2
58
0
5
13
40
0
0
68
6
0
0
5
25
0
0
46
108
62
14
0
0
66
15
134
0
0
117
0
0
0
32
0
36
25
0
52
24
0
0
0
0
26
23
0
0
7
0
0
13
0
0
0
0
4
0
0
4
8
0
6
4
0
18
0
19
0
13
0
16
0
2
14
36
6
0
13
0
15
1
0
0
0
0
5
11
1
0
7
0
0
21
0
0
0
0
2
9
9
0
20
7
7
0
0
1
0
0
4
0
0
0
0
0
18
26
30
1
19
2
7
0
0
9
11
19
2
0
7
1
0
0
0
0
0
9
0
0
1
0
0
12
9
7
0
0
6
0
0
0
0
0
18
3
2
5
0
0
2
202
74
0
0
36
56
21
20
0
12
0
37
3
13
59
0
0
46
22
47
13
0
44
32
5
10
0
0
0
0
0
6
0
18
0
37
18
1
4
47
18
21
24
7
0
22
0
0
0
0
0
0
3
21
19
0
0
9
0
0
12
10
0
26
0
41
0
0
35
0
33
42
0
0
44
100
113
0
0
23
0
29
29
0
0
0
0
0
0
0
91
155
182
183
64
0
0
0
0
0
0
12
103
85
30
0
0
0
183
229
0
0
0
10
0
0
189
0
0
149
55
48
0
0
20
118
5
47
0
200
198
0
0
0
58
0
75
14
63
0
0
126
0
4
0
32
79
0
1
0
0
0
51
0
0
0
95
0
102
0
0
0
0
42
37
0
0
0
0
77
40
0
66
81
7
0
0
204
0
6
228
102
56
0
0
85
0
4
41
34
9
0
0
0
145
146
0
0
0
0
0
155
50
0
8
6
6
22
205
223
0
0
0
0
17
2
0
86
0
5
25
43
55
0
10
2
39
0
44
0
7
30
0
24
20
0
16
0
0
0
2
12
0
0
0
43
0
14
0
0
0
14
3
0
0
0
17
29
0
41
7
0
47
0
0
6
18
0
28
2
0
0
0
18
20
0
14
8
0
0
24
16
5
16
0
0
0
0
0
0
0
0
0
0
70
0
8
0
17
18
0
4
0
0
16
31
0
8
0
0
2
0
3
20
34
11
26
0
31
47
0
0
0
6
0
0
0
0
20
0
0
7
0
0
17
0
0
0
0
34
0
7
17
0
31
9
0
0
0
0
0
24
0
21
1
0
64
0
0
0
17
106
1
0
0
0
0
0
0
17
116
43
35
44
0
76
20
131
30
0
149
0
98
0
0
32
0
52
0
0
0
0
0
49
79
23
27
38
3
6
6
0
0
30
42
0
2
18
3
0
5
11
0
13
0
6
0
0
0
0
0
0
8
18
0
0
0
0
0
9
10
1
22
22
0
0
0
9
0
3
11
4
0
10
1
0
41
44
0
23
0
0
0
0
0
0
5
17
0
16
3
0
29
0
27
0
0
0
6
0
11
4
10
0
12
0
0
3
0
0
0
0
17
0
8
5
20
5
8
0
8
12
0
3
5
0
1
0
0
19
4
15
0
9
0
18
0
0
0
13
14
0
205
79
7
0
0
0
0
0
0
0
0
0
0
28
0
0
0
0
0
0
11
0
32
0
0
31
0
0
0
0
17
18
0
29
9
0
2
0
0
0
0
0
20
20
9
10
17
0
12
11
18
3
5
0
2
0
11
0
0
8
0
15
5
6
0
2
0
28
0
0
0
0
0
0
43
101
67
0
0
15
0
23
0
0
0
0
0
88
104
152
128
124
0
0
0
0
0
0
2
0
0
103
116
26
0
0
0
144
255
18
0
0
0
0
0
96
233
0
0
131
0
0
0
107
31
39
88
91
0
0
255
0
0
21
0
0
0
0
0
0
0
38
75
0
0
0
19
0
0
79
5
0
121
0
0
0
9
0
0
0
83
75
5
0
0
0
0
0
28
21
0
19
44
61
0
0
0
2
0
0
234
144
108
0
0
0
0
30
0
0
29
0
0
97
170
2
0
14
0
0
0
197
0
0
2
0
0
102
255
0
0
0
15
0
0
0
30
110
0
0
0
0
31
0
0
0
0
0
0
0
0
7
0
0
31
0
41
0
9
0
0
25
28
0
0
0
0
20
29
7
0
9
17
0
4
0
28
0
15
0
15
1
39
0
0
0
18
9
0
0
11
18
0
0
14
0
8
16
0
0
0
0
0
3
5
12
0
3
0
25
0
0
7
0
0
42
0
0
11
8
35
0
0
0
0
2
19
0
0
0
29
2
0
0
11
0
0
24
22
50
0
0
0
31
0
37
0
19
15
0
0
10
50
0
13
4
13
23
0
26
0
0
43
0
59
27
12
0
16
0
34
0
4
14
37
0
41
0
0
0
0
127
67
0
2
5
0
0
0
19
110
29
28
38
0
80
0
5
24
0
22
0
0
0
36
69
0
25
38
30
0
0
0
0
47
0
32
6
0
21
0
0
50
0
26
0
0
7
3
0
0
0
0
19
0
0
1
18
0
8
32
9
0
22
0
0
0
0
25
0
3
0
0
3
0
9
7
9
14
0
0
8
22
0
1
0
0
13
0
6
0
25
0
29
32
0
0
18
0
32
10
0
0
0
0
0
22
2
3
15
0
1
6
17
0
5
0
0
16
14
1
2
18
5
1
0
0
0
0
9
0
6
0
2
0
5
16
0
9
0
10
5
0
12
0
0
5
0
0
11
0
1
203
84
42
4
55
0
41
5
0
0
0
43
0
0
19
19
60
1
0
0
10
0
0
0
6
0
0
17
0
22
17
8
0
27
0
0
27
0
17
6
0
0
14
0
0
0
0
0
0
0
1
6
0
32
23
41
0
1
15
0
22
0
40
0
10
55
22
0
0
24
22
0
0
0
56
59
0
0
0
0
0
0
0
0
24
153
160
177
49
20
17
0
0
0
0
15
24
0
0
10
18
138
177
31
0
0
192
162
8
0
0
0
0
0
0
189
115
0
0
97
0
0
0
255
25
0
68
120
0
0
255
72
0
0
0
0
18
0
174
6
0
74
0
0
3
0
50
0
0
10
0
0
29
0
0
0
0
56
0
11
0
0
84
0
0
0
30
2
54
0
0
113
63
16
60
0
0
0
0
0
97
184
176
129
0
0
0
13
9
0
0
0
0
135
114
0
0
0
0
0
51
101
0
21
23
1
41
225
102
0
0
25
29
0
53
0
47
145
0
0
0
0
30
28
0
34
0
31
11
0
0
38
0
32
33
0
1
1
0
0
0
0
0
0
9
27
0
7
10
4
0
0
32
0
18
41
0
0
0
0
24
0
14
36
0
3
0
14
0
18
36
0
0
17
25
0
9
0
8
33
0
20
0
19
6
23
3
0
0
2
3
0
15
0
0
15
0
1
3
0
0
0
3
0
19
0
0
0
0
17
16
0
0
35
37
43
10
9
24
49
0
0
0
14
0
0
0
19
0
0
0
1
0
0
16
0
0
8
2
0
4
0
24
7
58
0
0
0
0
0
0
0
0
23
0
0
74
0
0
0
0
29
125
0
0
0
0
9
0
6
87
23
40
53
0
77
19
64
44
0
2
8
0
14
24
0
18
8
0
3
0
0
14
30
30
8
9
0
0
16
0
0
9
0
32
26
0
26
0
14
17
0
0
18
10
0
22
17
0
0
0
0
9
22
7
42
18
14
0
6
6
0
16
0
0
0
29
0
0
12
1
0
0
1
5
14
7
0
16
11
0
33
0
0
0
0
11
28
0
0
0
0
2
0
0
0
19
6
25
18
25
8
0
23
0
6
7
2
7
0
0
0
0
7
12
0
2
0
3
0
11
0
7
0
20
0
0
6
7
0
0
11
0
2
10
11
1
0
8
0
0
0
203
80
0
0
0
0
16
0
44
15
20
0
0
0
0
0
0
18
16
0
61
33
13
20
0
0
0
23
0
43
0
20
0
5
2
5
0
15
2
0
9
20
0
39
0
0
16
18
0
10
63
1
0
8
5
0
7
0
27
0
0
0
0
10
0
0
0
0
0
0
45
0
6
0
85
112
0
0
6
0
0
0
6
95
126
118
34
0
0
0
0
43
0
0
0
34
0
0
109
33
36
167
86
0
0
158
193
0
0
0
39
53
0
0
0
214
27
0
115
38
0
0
0
223
69
0
0
139
0
0
108
207
0
0
0
21
0
0
73
0
0
12
63
0
23
0
0
19
9
28
0
17
40
0
0
0
28
24
33
0
0
76
94
0
0
36
166
8
0
0
18
69
8
36
117
19
0
0
0
2
0
86
0
65
0
0
1
43
0
0
0
0
155
196
0
0
0
0
0
16
127
4
0
4
0
31
193
218
0
0
0
0
0
0
0
0
1
142
0
0
0
0
0
0
0
23
0
3
0
3
0
20
0
11
0
0
5
12
17
23
0
0
0
41
0
22
0
3
0
0
0
7
0
16
0
0
32
12
0
16
0
0
13
7
27
0
0
19
16
7
0
0
10
1
2
21
18
5
11
36
0
12
27
1
12
0
0
0
0
6
1
18
2
26
0
0
15
21
18
0
0
0
22
0
0
21
0
4
0
4
0
0
14
35
0
6
0
17
11
64
0
0
17
77
19
0
16
0
24
0
0
34
8
0
31
0
38
7
0
28
27
0
0
5
28
12
0
0
0
0
0
0
5
47
0
18
67
0
0
0
0
22
133
0
0
20
0
30
0
2
71
48
86
40
0
131
59
19
41
0
0
0
0
0
51
0
0
0
0
20
0
30
27
3
24
27
53
0
11
0
0
0
24
0
20
9
0
7
0
28
16
22
0
2
14
0
23
6
0
0
25
25
0
9
0
0
0
0
22
0
8
0
27
0
1
18
0
0
24
0
12
0
33
0
0
0
0
15
21
0
0
0
0
22
53
0
0
0
50
46
34
0
0
0
0
25
0
12
14
0
0
0
4
0
8
0
0
7
0
2
0
4
13
0
0
0
0
0
0
13
0
0
16
0
5
0
0
0
18
0
7
11
0
0
8
0
8
0
0
17
8
2
203
83
38
0
30
2
16
6
0
0
7
5
0
8
49
39
0
0
0
33
0
0
0
0
0
0
0
0
27
0
0
29
13
11
0
0
11
0
11
13
13
0
0
6
0
0
0
0
0
0
0
0
11
0
24
5
1
15
0
31
0
0
26
15
35
0
0
0
0
0
0
0
0
0
9
150
95
0
0
0
0
70
146
134
85
0
0
0
0
77
124
0
0
0
18
0
0
0
96
11
93
122
0
0
156
166
0
0
13
0
41
9
0
0
75
125
0
0
255
106
0
0
89
130
0
0
0
160
72
0
25
255
0
0
12
76
33
0
124
0
0
16
49
0
0
0
5
0
0
0
0
0
0
23
93
0
45
38
4
0
13
0
69
0
0
96
78
0
0
76
8
59
50
39
126
62
0
0
0
0
0
124
37
64
0
0
0
0
0
0
0
0
166
185
0
0
0
0
0
0
63
9
15
0
2
146
255
0
0
0
0
0
59
15
0
0
40
114
0
0
0
0
0
45
0
66
0
5
4
21
0
19
0
52
0
2
13
0
0
0
0
0
0
17
0
15
0
4
0
63
0
22
21
0
33
0
1
21
6
6
17
0
43
0
11
0
0
17
16
0
9
15
1
0
11
0
6
0
16
0
0
1
0
8
3
10
0
0
18
0
0
0
0
15
0
0
5
0
27
11
9
0
0
19
0
0
0
19
16
5
7
0
2
0
0
0
4
38
0
46
55
0
0
0
13
0
0
0
0
1
7
0
0
0
54
0
0
0
0
28
0
12
38
20
0
29
0
90
0
0
89
0
20
23
0
0
107
0
9
78
0
39
188
0
0
17
6
0
0
0
89
50
53
72
0
2
95
0
153
4
0
0
0
0
64
40
0
31
8
0
0
0
17
1
31
22
39
0
40
21
0
0
38
0
38
0
0
9
0
0
0
10
16
4
9
0
0
0
11
0
10
0
0
0
0
0
32
41
12
0
0
13
19
0
0
27
0
36
22
6
3
0
9
0
10
0
0
0
0
0
6
4
0
0
0
0
5
8
0
0
18
0
11
0
3
0
0
16
10
0
9
11
0
25
0
0
7
5
0
0
0
9
0
0
25
2
0
12
0
14
0
7
10
0
6
15
0
1
0
0
0
0
9
1
0
18
6
0
0
0
6
0
204
75
0
38
2
0
12
0
32
13
63
0
56
16
0
0
0
6
0
29
0
50
23
0
37
47
1
17
0
0
0
25
0
6
53
0
0
9
0
0
22
0
17
18
0
5
0
11
0
3
8
0
15
7
23
0
0
0
6
0
6
13
19
4
3
0
0
1
0
27
59
0
0
0
0
7
163
46
0
0
54
173
121
0
0
0
0
65
95
53
5
0
0
0
22
0
91
215
0
20
107
0
0
49
174
0
0
0
0
0
0
0
0
71
111
59
0
0
255
0
0
0
209
41
6
0
0
135
55
0
0
255
91
0
0
43
0
0
33
0
0
32
11
0
0
0
9
34
0
7
0
0
33
0
0
0
145
164
102
16
21
0
0
0
0
29
0
0
87
49
0
194
6
7
106
80
6
0
0
0
0
229
168
16
0
0
0
0
0
0
0
48
235
45
0
96
7
0
0
118
0
4
0
0
95
255
0
0
0
0
13
17
0
0
1
0
65
80
0
0
0
25
10
9
0
59
6
0
2
0
22
13
0
0
8
17
0
25
0
0
29
22
12
0
0
4
5
41
0
7
0
0
6
0
0
25
0
13
8
0
0
0
0
0
44
29
33
17
0
0
8
0
18
0
14
6
0
0
21
1
5
8
0
34
3
0
10
19
1
10
0
0
15
23
14
12
0
0
23
0
0
6
5
6
0
0
0
0
0
0
7
0
6
21
0
4
31
18
15
23
77
0
0
0
11
0
14
0
18
0
12
0
19
3
6
10
0
20
0
5
0
0
17
0
3
19
0
0
0
0
0
0
1
0
0
0
31
0
0
57
0
0
142
0
0
0
0
0
0
0
81
46
30
77
0
0
181
0
85
0
0
0
0
0
56
0
0
0
0
0
0
14
40
10
67
0
7
0
9
0
0
45
19
0
6
0
13
3
17
0
0
0
0
0
1
5
7
2
0
21
0
0
25
0
12
0
0
0
0
14
0
0
0
7
7
2
0
0
0
13
7
5
6
0
9
0
32
21
34
37
8
0
8
6
23
8
12
0
19
27
0
0
0
0
22
7
6
35
5
13
0
6
13
0
0
8
1
0
0
11
0
7
0
3
0
7
0
2
0
0
0
0
7
0
0
2
4
12
2
3
3
2
16
0
0
1
0
0
2
3
0
2
206
79
0
2
0
0
20
0
0
0
38
0
0
0
11
4
0
40
0
0
8
0
7
14
0
0
0
0
0
4
0
69
3
14
24
11
19
14
0
14
0
0
0
37
0
0
3
0
9
0
14
0
0
14
0
0
24
0
7
32
0
0
9
0
24
0
0
17
0
0
0
0
0
0
0
0
156
166
90
25
7
46
0
0
30
0
72
86
5
0
59
0
0
0
62
0
125
229
0
3
57
0
0
116
0
0
187
124
255
0
0
0
35
133
0
0
0
101
209
0
0
0
188
0
50
0
0
137
99
0
0
206
255
0
0
55
0
0
31
0
0
0
30
0
0
0
0
7
11
0
0
101
173
0
0
0
53
71
155
77
0
0
0
0
0
0
33
58
48
20
0
214
76
0
75
52
13
0
0
0
0
232
0
0
0
20
9
2
0
0
0
108
137
0
0
40
0
0
9
98
0
29
20
49
255
83
0
0
7
0
16
0
0
42
7
0
29
106
0
0
0
13
0
0
15
10
0
0
24
4
0
43
41
0
0
0
6
35
0
1
0
0
4
5
0
0
0
61
0
0
11
0
22
3
0
46
20
8
26
8
4
3
0
0
0
0
0
9
0
0
16
14
16
0
2
34
0
22
30
0
21
9
0
0
4
0
6
10
0
0
6
0
4
7
0
5
0
0
2
0
0
0
0
0
2
0
0
18
0
0
20
0
0
0
0
6
24
34
23
28
78
0
0
38
25
0
19
0
26
0
0
0
22
0
0
26
8
0
4
0
31
11
8
0
35
12
0
0
0
0
0
0
64
0
0
20
34
26
0
59
0
0
174
0
0
8
0
0
0
0
57
60
16
57
0
0
182
0
139
0
0
0
0
0
84
0
0
12
13
0
0
17
0
31
48
30
0
5
0
0
0
43
0
21
0
0
0
0
9
0
33
10
0
0
0
9
11
10
14
14
0
14
19
3
35
7
0
36
17
7
1
0
0
6
0
11
0
14
7
11
8
0
2
3
15
0
25
0
0
0
2
0
0
3
11
23
16
0
0
3
0
0
0
0
0
19
24
0
16
0
5
3
0
1
0
8
0
0
9
2
2
0
3
0
3
0
3
0
11
0
13
4
7
0
1
4
0
0
0
0
0
0
0
17
0
5
0
4
17
2
0
0
208
80
0
9
0
0
25
0
0
0
7
20
15
0
0
0
0
2
0
19
19
0
4
17
0
0
0
0
0
55
0
32
18
0
0
0
5
9
0
10
35
5
13
0
0
19
2
0
6
1
2
11
1
25
0
12
0
2
18
0
17
0
38
12
0
4
0
0
0
15
79
0
0
0
0
0
0
35
103
58
22
0
0
0
0
0
0
0
0
0
38
50
0
0
55
0
68
121
0
84
0
0
167
35
15
0
0
68
66
0
0
0
87
60
17
0
77
118
0
0
0
48
207
0
0
0
0
182
161
0
0
0
255
0
0
13
0
0
69
31
106
0
58
0
14
0
3
33
23
0
0
0
14
0
52
0
0
0
49
77
0
0
0
0
142
0
22
24
84
0
0
80
255
129
136
105
142
0
0
0
0
89
0
0
0
0
0
0
0
0
66
136
23
0
0
0
0
0
112
59
0
8
4
196
197
0
0
0
0
17
0
5
22
0
0
0
52
161
7
0
18
17
0
0
0
3
5
2
9
0
9
22
23
0
0
0
0
8
0
26
12
13
0
1
16
6
0
22
6
0
0
13
28
0
0
0
0
2
29
0
0
0
16
0
0
0
0
11
23
0
8
0
12
0
0
8
15
0
42
0
18
15
0
22
0
36
0
3
8
21
0
5
0
23
0
23
16
0
25
2
1
0
12
0
10
0
0
0
0
0
10
0
0
0
4
19
21
21
5
6
75
0
0
45
27
0
12
1
0
0
0
28
0
8
0
0
0
33
0
5
0
0
9
0
33
30
26
0
9
0
29
56
15
0
0
37
3
0
0
72
0
42
125
0
0
0
0
0
0
0
0
75
43
45
36
0
181
0
46
26
0
0
0
78
60
0
0
66
0
18
0
36
40
19
13
0
5
2
0
8
0
0
0
38
9
14
1
9
23
0
26
0
5
0
0
34
0
0
6
0
14
0
0
13
0
0
0
0
0
30
0
20
18
0
0
4
2
7
24
0
8
0
18
19
4
0
39
0
19
0
0
0
0
30
0
0
0
26
31
0
8
0
0
0
5
10
5
0
24
0
19
3
0
10
0
8
13
0
6
0
10
0
0
0
0
0
0
2
0
3
8
3
7
0
0
0
3
0
14
0
0
20
0
0
3
0
29
0
0
1
0
2
207
81
2
51
0
60
0
0
0
32
1
0
0
27
0
42
25
0
4
37
0
8
0
0
0
20
13
0
0
0
16
21
0
0
28
13
0
0
14
0
21
0
3
8
6
0
27
23
0
6
0
6
0
15
12
19
0
0
0
13
0
0
14
0
0
25
0
0
0
0
0
0
21
0
36
0
19
5
0
6
59
0
19
43
0
0
0
5
44
35
97
40
0
0
0
0
33
68
4
80
0
0
70
0
0
0
90
0
0
0
68
16
14
27
0
0
187
65
18
18
0
0
128
0
0
33
0
115
168
0
0
0
249
0
0
28
0
0
0
0
0
0
43
0
0
20
0
10
0
0
0
43
0
0
174
0
0
0
0
57
31
0
0
0
255
8
0
0
56
0
0
0
68
221
214
214
155
0
0
0
0
10
0
36
0
0
1
0
0
0
154
203
0
0
12
0
0
15
148
29
40
13
144
255
0
0
0
36
0
4
45
0
0
0
0
0
78
68
23
0
0
50
3
34
42
18
23
0
15
8
0
0
0
12
9
0
25
0
0
21
0
0
0
7
0
94
0
26
0
0
14
18
0
23
4
14
0
0
0
11
0
0
24
0
0
0
0
0
21
16
2
0
0
0
0
0
10
0
0
2
0
0
0
21
0
0
12
0
0
18
3
1
0
23
0
27
3
0
0
0
24
29
0
0
0
28
0
27
0
19
31
6
30
0
0
31
14
28
10
16
40
60
0
12
14
0
0
0
26
0
17
61
0
0
0
50
0
17
0
10
3
4
44
0
30
0
0
0
0
0
0
0
16
0
0
0
61
0
0
38
0
3
111
0
0
0
0
0
0
0
9
102
59
69
16
0
172
0
72
122
0
0
0
11
13
0
0
0
0
22
0
37
0
74
12
0
25
11
0
0
7
48
0
14
0
8
0
0
15
0
0
16
10
0
14
31
0
0
9
1
17
4
12
0
0
25
0
0
0
0
0
8
0
17
8
8
3
16
15
0
0
0
0
0
0
0
20
0
38
11
26
0
0
26
14
0
14
0
0
8
0
0
0
32
21
11
0
0
6
5
0
0
10
0
14
0
0
0
5
6
1
0
0
0
13
0
16
0
0
12
2
0
0
7
0
0
10
4
0
0
0
6
0
7
0
1
0
6
0
0
21
0
206
79
0
0
0
36
0
13
11
1
26
0
0
9
0
24
0
6
27
24
0
0
0
14
24
0
0
0
22
0
16
31
20
0
21
10
0
12
0
0
15
0
1
16
8
5
0
8
12
7
11
5
6
0
0
17
0
4
12
5
0
27
0
0
0
0
0
0
0
3
50
6
16
0
0
0
0
0
0
0
0
0
48
37
112
108
65
48
0
79
76
0
0
0
0
0
182
28
48
27
0
50
78
0
0
130
111
0
0
0
175
80
3
0
0
100
255
0
43
144
0
20
209
0
0
54
0
37
152
0
0
0
229
204
0
0
0
0
28
0
0
0
83
14
16
0
20
0
3
0
93
15
7
0
212
57
193
0
0
94
0
0
0
23
255
96
0
92
107
73
0
0
0
0
0
0
0
0
1
0
0
74
29
0
2
114
0
0
0
8
152
76
0
4
0
0
0
114
47
44
67
15
255
43
0
0
0
13
25
8
0
10
5
8
4
0
82
73
55
0
0
24
0
8
0
0
0
0
17
13
8
0
19
23
6
0
45
8
4
0
0
0
22
0
10
32
0
20
0
0
8
31
0
11
0
10
0
0
8
26
2
1
1
0
0
25
11
0
12
0
6
0
21
17
13
26
10
0
0
32
0
6
4
0
14
0
9
0
3
0
0
0
0
2
0
51
2
0
9
0
1
18
0
0
0
0
2
0
0
1
0
0
0
0
0
27
28
24
20
17
26
53
0
33
21
18
10
1
0
0
8
5
0
0
4
19
18
10
0
6
28
32
0
0
12
25
0
0
15
0
33
0
43
0
97
64
0
51
0
3
0
0
62
0
71
0
0
0
0
0
0
55
64
36
37
0
125
0
27
92
0
72
8
8
20
0
0
32
0
137
0
22
35
25
9
8
0
0
2
0
0
27
9
22
0
32
0
14
0
28
0
15
1
0
24
0
0
9
0
0
7
0
0
29
13
61
0
113
0
10
0
1
0
3
8
0
0
0
0
9
36
0
0
40
21
16
0
0
0
0
0
0
0
0
34
18
8
15
0
0
0
0
14
27
6
13
29
7
27
4
0
3
11
0
0
12
0
0
9
6
0
0
1
0
19
6
10
0
14
0
0
7
8
6
8
0
0
6
16
0
8
0
0
0
0
11
1
2
14
0
0
0
205
84
30
8
7
9
0
0
0
0
0
19
0
33
0
46
0
0
0
11
14
23
12
0
29
12
0
0
36
38
9
0
1
0
12
0
0
11
4
13
0
39
0
5
4
13
2
0
0
0
0
0
0
28
0
1
0
0
0
24
18
12
29
0
20
0
18
28
7
8
0
0
36
7
0
15
0
0
0
0
50
101
0
0
0
60
12
95
0
0
100
24
0
0
0
0
35
0
0
0
0
0
41
0
18
151
0
0
86
64
80
7
0
0
0
82
214
0
0
74
0
0
113
0
0
7
62
0
217
0
0
0
62
255
0
0
0
35
0
0
38
0
0
0
11
0
0
66
41
21
20
13
0
0
66
163
0
0
0
11
0
0
0
30
0
0
0
15
10
0
0
0
0
41
0
0
0
0
0
74
0
62
29
0
0
0
0
109
0
31
121
0
0
92
0
0
0
126
50
140
0
0
241
0
0
0
0
14
3
35
4
0
46
0
0
0
86
98
57
0
12
30
17
14
22
0
24
12
0
22
0
0
5
6
0
0
0
0
15
4
0
42
0
0
0
3
0
0
33
0
24
9
0
22
0
0
0
8
0
0
13
0
26
17
32
0
0
0
0
13
23
0
9
14
0
0
0
0
0
0
0
15
0
0
32
19
14
0
0
0
4
5
15
28
0
39
11
2
7
0
0
0
0
20
0
0
8
5
0
22
0
10
0
6
0
20
38
22
14
17
18
81
0
19
2
16
2
14
0
16
42
0
0
0
0
0
0
0
8
1
11
59
0
49
13
0
0
0
0
0
11
0
18
0
0
0
11
0
0
83
0
0
20
92
0
2
2
0
0
10
0
63
29
25
30
0
70
6
49
153
0
0
0
23
12
0
0
0
0
31
0
0
20
38
5
12
32
0
0
0
15
0
15
0
8
0
9
0
0
0
0
0
31
14
0
4
0
0
5
0
17
0
4
20
0
27
0
6
0
0
0
12
0
1
0
0
13
16
0
0
20
0
0
0
0
10
1
0
19
25
0
23
11
0
0
0
8
0
16
0
7
5
0
0
0
7
0
14
0
0
1
0
3
0
13
0
0
22
10
2
0
4
12
0
0
0
1
11
3
10
2
1
3
0
1
3
0
10
0
2
0
4
12
2
0
0
0
0
12
1
9
9
206
80
0
0
0
18
0
11
38
33
0
36
19
52
0
3
60
0
0
38
0
2
0
0
59
0
0
0
0
0
0
57
18
0
7
0
13
2
0
15
0
6
16
15
0
0
8
0
7
41
6
4
28
0
19
18
0
29
17
0
0
0
27
0
13
43
0
0
0
0
9
0
0
0
0
0
0
0
21
56
90
24
0
0
0
0
0
0
20
50
73
0
0
58
79
126
34
79
0
0
55
63
54
8
41
0
0
28
173
63
0
0
0
0
0
255
75
0
0
0
0
59
125
0
0
17
82
0
186
0
0
0
0
255
0
0
3
0
17
142
0
0
0
0
117
31
72
8
5
0
1
0
0
0
0
219
0
0
46
0
0
37
8
255
0
0
0
0
0
0
0
159
255
189
27
5
5
0
0
0
30
17
32
0
0
0
22
53
0
89
123
0
0
6
0
13
152
150
111
0
0
26
35
0
0
0
0
0
0
12
0
0
32
0
16
0
102
103
37
0
0
9
0
0
0
4
36
0
0
6
4
0
0
1
8
5
34
3
8
0
13
0
9
0
0
20
0
0
0
0
0
0
0
25
22
9
0
4
0
8
14
0
0
2
0
0
22
27
0
3
44
0
3
7
13
16
18
0
15
0
16
27
8
15
26
0
0
10
5
0
0
0
13
0
0
0
0
0
0
0
0
46
0
0
0
10
22
0
19
0
0
30
16
16
0
0
26
22
19
20
17
121
0
0
0
0
0
12
0
6
0
10
14
37
4
6
11
0
0
10
0
0
53
56
3
0
0
19
0
21
0
26
53
0
0
8
27
0
49
86
0
39
1
0
0
0
0
0
33
0
0
89
55
85
0
0
7
84
0
75
69
0
53
0
0
0
18
0
0
36
0
37
34
64
0
0
8
0
5
0
2
56
28
12
10
4
21
0
11
11
1
23
0
27
7
0
2
10
0
8
0
0
0
0
0
0
0
5
0
0
21
30
0
15
12
0
0
0
8
0
23
0
41
16
2
46
0
6
0
0
3
7
0
26
52
20
5
7
1
0
20
0
10
26
41
2
7
7
2
11
0
0
0
0
9
0
20
0
0
0
0
9
0
14
6
0
3
8
12
0
0
0
4
0
8
0
0
0
0
1
6
4
0
0
12
0
4
0
0
8
4
4
208
82
2
0
0
0
0
0
0
0
0
29
0
0
41
0
36
0
0
0
0
0
6
0
0
0
0
9
0
42
0
39
0
0
17
11
0
0
4
4
0
33
0
0
20
0
11
0
0
0
0
0
0
1
16
3
0
0
11
9
9
4
0
0
5
0
0
0
0
0
0
0
11
0
0
0
76
17
31
45
42
0
0
17
0
0
0
0
0
38
0
0
0
0
21
0
0
56
0
0
42
98
80
11
0
0
93
84
0
0
0
0
0
0
122
238
0
0
0
15
0
71
151
0
0
23
97
0
158
112
0
0
0
255
140
0
0
0
0
10
0
0
0
111
117
41
0
0
0
0
3
0
37
0
0
138
0
0
127
112
0
0
182
255
189
182
27
0
31
70
138
143
90
61
6
0
0
0
0
0
71
0
0
0
0
0
85
67
0
0
3
0
0
1
0
71
217
47
0
0
0
108
187
97
161
38
0
0
58
0
34
0
0
0
0
0
77
109
0
0
0
54
33
15
0
25
0
0
43
0
9
0
17
14
0
0
20
0
0
0
12
0
0
21
23
0
0
1
33
16
29
0
0
34
0
0
19
8
0
16
9
0
0
1
0
17
0
29
0
0
7
0
10
23
13
1
16
0
0
3
37
0
0
0
55
0
0
0
0
0
21
0
25
0
25
0
16
3
15
57
0
2
2
0
0
0
16
10
35
0
0
0
10
0
0
28
31
30
33
5
13
92
0
10
0
0
0
15
11
23
21
0
0
0
0
14
0
48
0
26
0
12
27
59
0
0
0
19
0
0
8
52
0
0
0
70
0
0
0
10
0
13
55
0
61
0
3
0
18
0
0
84
13
100
0
26
0
60
3
87
7
0
91
0
0
0
66
16
0
45
26
0
7
24
41
13
33
0
20
0
29
0
11
0
0
3
11
0
0
0
6
0
0
0
29
0
15
3
0
25
0
0
0
0
17
24
0
0
0
0
0
0
31
0
2
10
6
18
10
0
39
0
0
0
0
16
0
0
0
0
0
0
0
18
1
0
0
23
0
0
22
0
0
22
31
0
7
20
0
4
4
4
10
0
8
3
0
0
24
16
2
0
0
4
0
1
8
0
0
0
11
0
3
0
5
0
0
10
11
22
10
0
25
0
0
1
28
0
2
4
0
8
208
84
2
39
0
29
7
0
4
17
0
20
0
0
0
0
0
6
0
32
8
39
40
0
24
16
0
0
0
0
0
42
1
15
0
9
23
23
5
0
0
1
0
25
21
0
9
3
5
3
0
0
12
16
7
0
6
36
0
0
0
12
18
0
46
17
0
0
0
5
0
0
0
0
62
9
82
115
65
0
0
0
0
4
0
67
0
23
22
20
0
0
85
36
0
57
82
105
0
22
33
38
115
0
0
0
59
1
0
41
36
0
0
22
235
86
0
0
0
0
30
75
217
0
0
0
142
0
90
112
0
0
0
72
255
0
0
32
0
0
0
7
107
49
0
19
0
0
46
0
0
0
167
151
0
116
0
5
48
255
0
0
0
0
0
206
255
228
189
37
0
0
6
0
0
0
8
0
0
55
27
0
0
0
0
217
99
68
54
0
0
0
0
0
0
0
0
0
0
0
116
109
0
0
0
0
6
0
0
0
49
0
42
251
0
0
42
132
0
0
0
0
0
0
30
0
0
0
52
0
8
2
0
41
6
0
25
0
0
0
17
6
0
27
0
32
3
15
3
0
0
0
0
62
0
20
0
0
0
0
4
21
0
26
0
20
0
0
0
0
4
16
0
0
0
0
3
1
8
0
0
0
0
6
24
0
0
0
0
0
9
8
5
4
18
2
0
0
32
2
34
0
13
0
20
0
0
3
0
0
0
0
26
29
0
8
0
34
49
40
15
95
0
0
15
23
0
1
0
0
16
0
8
3
11
0
0
28
0
22
0
25
51
0
0
1
0
0
51
44
0
43
21
0
9
57
1
28
48
28
0
63
32
0
61
0
0
0
56
0
0
174
0
116
0
30
0
62
32
107
0
0
66
72
0
0
0
0
0
62
52
12
36
0
41
0
35
0
0
5
18
11
13
0
14
0
0
0
0
0
0
17
11
10
0
0
21
0
0
21
36
0
2
2
0
12
14
31
10
0
1
19
13
0
0
43
0
0
13
0
21
0
33
0
9
136
0
35
22
11
0
0
42
0
2
0
0
15
0
0
27
10
10
1
18
0
4
21
0
4
0
0
0
0
6
3
10
0
0
0
9
0
9
0
0
2
5
3
0
2
0
1
0
2
0
0
0
0
0
0
0
0
1
0
0
0
11
2
0
0
0
0
207
86
6
0
3
0
24
0
1
10
23
26
7
6
17
5
0
0
0
4
0
0
0
0
5
0
0
0
0
0
13
47
3
0
2
9
0
0
1
0
0
0
0
0
0
6
4
1
0
0
8
9
0
0
2
27
0
5
16
0
19
19
23
0
44
0
0
0
0
0
0
0
0
0
73
64
79
81
0
0
0
17
22
0
0
0
0
32
4
72
0
0
20
0
0
76
41
0
0
145
0
134
81
0
11
98
121
0
0
82
50
0
0
131
207
0
26
0
0
0
3
0
206
0
0
0
130
77
65
129
0
0
0
0
255
0
0
17
0
0
69
107
0
0
0
0
0
20
73
0
0
0
16
0
0
30
63
255
188
255
118
0
0
0
0
0
0
0
0
0
0
0
0
0
1
0
29
0
0
79
10
0
0
0
119
222
16
60
70
11
21
36
0
0
0
0
0
31
30
184
185
142
97
0
0
4
1
16
0
63
0
0
0
0
0
0
92
121
9
43
0
6
22
0
50
0
36
1
0
0
14
5
34
0
0
0
16
0
1
25
0
0
12
0
0
6
0
28
0
6
11
0
0
0
1
9
0
0
22
0
0
47
0
8
21
0
15
12
11
5
0
17
0
0
9
0
23
6
6
0
0
6
4
0
32
0
27
0
1
0
0
21
0
16
10
30
0
3
0
0
22
14
19
0
0
0
3
0
0
5
0
0
26
0
0
2
10
25
31
10
47
89
0
0
0
10
5
0
0
0
4
0
5
0
1
0
0
28
0
18
40
70
17
0
0
0
0
0
0
0
9
0
15
0
1
14
0
0
29
3
4
64
0
0
79
0
0
0
59
0
0
88
15
117
0
24
0
0
20
57
54
0
0
34
0
0
32
0
0
51
42
0
26
5
7
8
13
0
0
0
51
5
0
21
0
9
12
27
6
30
72
0
0
10
0
30
0
28
0
0
20
0
0
0
0
0
0
13
0
0
0
0
0
0
20
0
0
0
2
0
13
0
3
0
0
0
0
4
0
0
34
0
11
0
19
0
0
6
0
0
27
0
4
8
15
0
0
10
2
10
12
4
0
11
8
0
9
0
0
0
0
0
7
10
8
0
14
0
0
15
0
0
16
0
1
7
0
16
24
0
4
21
0
5
5
0
0
0
5
0
6
0
206
84
0
21
12
22
0
0
0
14
0
0
3
0
0
10
50
47
41
0
29
11
43
0
39
0
0
0
0
0
24
20
0
0
28
0
0
30
10
0
44
33
13
20
16
3
1
19
0
6
25
0
4
0
7
0
0
7
0
0
0
0
1
0
0
9
0
0
0
0
0
30
102
131
154
75
0
0
0
30
12
19
0
36
32
29
0
0
51
8
0
68
10
62
0
77
4
0
91
88
0
78
0
0
88
0
0
0
67
0
142
0
0
174
157
0
61
0
0
0
0
85
212
0
0
0
0
106
45
135
0
0
0
0
255
35
0
0
73
115
46
61
0
1
0
0
21
109
43
0
10
25
0
0
0
15
0
140
0
0
0
0
0
0
0
0
0
58
50
0
0
0
0
0
0
0
0
0
2
8
0
0
0
0
255
36
0
3
0
0
32
116
39
49
20
36
40
149
106
62
32
0
0
0
0
0
0
0
94
0
33
0
7
6
0
0
77
65
45
52
0
11
0
27
0
0
22
25
7
0
0
0
60
0
6
30
3
0
0
13
0
16
4
0
0
11
0
0
18
0
22
0
22
0
0
0
47
0
0
6
19
19
14
0
1
0
8
0
14
0
0
45
0
0
12
0
42
3
4
7
0
62
0
20
48
10
0
0
3
1
0
5
53
23
6
0
0
4
61
2
23
37
32
0
5
0
0
0
0
14
23
0
15
19
4
13
0
0
26
27
53
54
0
0
51
22
0
25
34
18
0
2
2
24
0
4
0
0
8
45
0
46
0
0
0
0
5
35
23
0
51
0
2
0
4
34
4
0
0
0
20
44
6
0
43
6
0
0
103
0
0
104
37
60
2
0
0
0
91
0
61
12
0
0
0
0
0
0
0
0
123
11
46
0
0
29
0
0
0
18
29
3
6
0
19
0
0
25
0
0
0
11
4
0
0
0
0
0
0
0
0
14
0
23
0
0
0
0
13
0
0
0
0
47
0
0
0
8
25
0
24
0
0
7
0
20
0
8
28
3
45
0
0
26
26
5
0
2
0
5
7
0
21
16
0
18
13
0
0
3
0
13
0
24
0
4
12
0
12
0
4
0
1
17
0
12
1
0
0
6
0
3
16
0
0
0
0
0
0
0
8
0
0
0
8
0
0
0
8
0
8
0
207
88
13
9
0
15
0
0
45
0
0
0
35
0
0
0
0
0
0
6
7
8
40
0
0
0
0
7
45
1
15
1
21
0
21
15
0
9
18
0
0
0
1
0
0
0
0
0
0
16
0
0
6
20
28
0
14
72
0
0
53
0
0
0
0
41
0
0
0
93
189
140
54
100
0
0
0
0
0
0
0
0
3
4
0
3
19
38
10
0
0
54
0
0
0
60
19
0
67
0
66
9
0
10
0
0
23
0
0
0
50
0
0
242
0
0
0
0
0
0
0
61
138
0
0
0
0
29
76
161
0
0
0
0
255
239
0
0
0
1
37
4
0
22
0
0
0
97
41
0
0
0
0
0
0
91
0
0
0
0
0
0
0
0
0
0
75
211
115
255
72
0
0
0
0
29
0
61
26
0
0
0
0
0
228
0
45
7
0
52
0
20
0
53
73
53
43
96
54
0
83
0
0
0
2
34
24
0
14
0
49
46
47
0
0
0
41
54
0
9
0
0
0
34
3
2
0
5
25
0
0
23
0
3
37
0
30
0
0
17
0
6
6
0
15
31
8
0
0
0
70
0
0
50
0
5
22
0
4
0
0
0
0
20
13
0
29
0
0
0
20
0
0
0
0
0
0
0
10
0
0
0
0
0
90
0
0
0
5
23
0
17
12
0
0
17
32
20
19
57
14
0
43
6
0
0
0
0
0
3
35
0
1
3
17
17
0
0
17
27
96
0
0
7
5
0
0
0
0
0
6
30
0
0
29
0
0
0
21
16
42
12
0
0
0
1
0
4
0
0
45
47
1
0
0
42
0
30
121
0
11
100
3
0
20
13
0
0
67
0
0
57
71
66
0
46
42
0
79
0
59
0
0
22
36
2
11
0
0
0
52
38
0
6
10
19
0
0
3
33
20
0
4
0
11
0
0
1
11
9
15
0
4
22
30
12
0
26
3
9
5
0
0
0
0
22
10
0
0
7
31
6
10
0
8
12
27
0
0
13
0
0
0
36
0
0
28
0
0
0
0
4
0
24
0
0
0
0
0
33
16
0
13
14
4
22
0
0
7
0
4
9
0
0
0
0
0
0
22
0
9
19
0
2
1
2
0
10
2
19
0
0
0
0
0
11
0
1
0
0
4
0
0
6
12
0
0
21
10
2
8
13
206
90
22
0
0
26
0
0
89
10
0
43
41
0
0
35
21
0
16
1
0
2
41
42
0
0
0
0
1
0
0
48
0
0
0
7
0
0
0
20
0
18
0
23
0
19
10
0
0
0
0
28
0
0
0
3
0
0
9
0
40
0
1
0
44
0
0
28
77
0
28
0
0
0
0
0
5
0
0
17
0
0
6
0
30
43
0
61
0
0
25
35
0
0
2
53
28
49
0
0
74
0
69
11
0
0
128
0
0
0
2
14
188
124
0
28
0
66
0
0
0
35
138
26
0
0
0
0
77
173
65
0
0
0
121
255
0
0
0
0
7
0
0
0
0
0
0
204
47
0
0
25
21
0
24
139
3
26
14
0
0
0
0
0
0
0
113
20
0
27
0
0
9
0
0
0
0
40
34
0
28
0
0
217
150
0
0
0
41
32
0
3
0
1
42
6
39
140
107
119
0
0
0
0
0
0
0
0
48
0
0
0
0
10
0
0
112
116
26
77
0
52
0
11
10
0
2
1
27
0
22
0
6
22
0
0
44
0
0
23
7
0
21
0
15
0
41
1
0
0
2
0
5
11
0
5
11
0
31
9
0
1
0
0
0
4
0
31
0
8
1
0
0
17
8
28
7
0
27
0
13
0
42
0
8
12
0
0
0
40
0
39
0
0
52
129
108
89
105
133
88
54
46
55
17
0
7
1
0
1
0
7
0
16
0
23
13
15
0
65
40
0
0
35
0
0
35
33
6
0
32
15
0
4
53
12
23
0
0
32
56
0
0
0
0
0
8
0
8
0
0
0
0
0
0
0
0
14
15
0
0
73
0
0
0
55
0
0
67
0
0
0
56
46
31
32
42
0
11
15
52
17
0
0
49
0
0
0
0
0
27
68
0
33
0
5
0
0
0
14
10
2
18
0
4
15
8
0
0
0
0
5
0
1
0
0
0
32
0
0
32
6
7
0
23
7
4
6
31
0
19
24
0
0
0
0
15
0
0
0
19
48
0
22
0
21
0
10
0
14
3
30
1
0
0
25
0
0
0
16
10
8
13
0
0
14
10
8
4
0
0
0
3
0
14
4
11
0
7
0
3
0
0
0
3
0
0
0
0
7
0
0
0
5
9
2
7
0
6
7
11
0
0
0
17
2
0
0
0
0
0
0
205
87
20
71
0
3
0
29
0
3
0
2
0
15
42
32
0
1
0
14
22
0
0
0
10
9
0
0
14
0
0
0
16
44
0
16
0
20
26
7
0
0
0
1
0
0
3
0
17
12
0
17
5
16
2
12
0
0
11
0
22
0
63
0
0
0
3
49
0
0
0
0
0
18
0
8
0
5
0
16
0
0
0
0
28
0
40
255
0
54
0
0
0
0
0
0
58
0
0
0
77
17
0
0
0
0
53
0
0
0
0
193
183
0
39
45
0
149
0
0
0
0
200
17
0
0
0
0
106
181
139
0
0
0
25
255
49
0
0
34
11
0
0
162
0
0
0
182
104
0
0
0
0
77
0
37
49
136
15
0
0
0
0
0
169
125
81
0
0
0
0
0
24
0
15
18
9
0
0
0
0
0
0
255
104
0
18
0
87
0
0
23
44
10
0
0
6
189
0
0
0
0
0
0
0
0
15
10
7
2
22
0
0
2
0
0
99
100
0
39
0
41
0
0
4
15
0
0
63
0
29
0
19
4
0
0
22
0
0
0
2
0
8
9
27
8
0
0
24
10
16
6
0
3
41
0
0
31
0
0
12
33
0
6
0
21
0
31
0
12
0
1
0
0
0
0
0
12
5
22
7
0
37
0
1
20
33
0
0
77
0
0
0
83
42
0
0
0
0
0
0
0
30
14
29
69
2
13
0
4
16
0
0
0
12
18
5
9
54
33
0
0
0
16
0
0
0
0
14
0
8
0
9
0
0
0
0
15
34
54
47
0
12
0
12
0
22
20
1
0
31
46
25
0
35
42
0
55
71
0
0
93
0
0
0
25
19
0
7
0
0
3
164
0
56
3
42
0
18
84
52
81
0
0
72
0
5
0
38
2
77
24
0
13
0
0
5
0
0
2
0
15
12
7
0
0
0
4
17
11
0
37
3
0
0
0
0
10
7
0
0
3
9
0
15
20
0
0
0
7
0
0
9
7
0
0
56
0
4
0
3
5
0
9
0
21
3
12
0
0
15
0
19
11
0
0
0
0
13
19
0
0
20
10
3
12
0
2
0
9
0
6
24
0
0
0
0
12
0
15
15
2
0
5
13
1
0
21
0
0
0
2
0
0
9
0
0
0
0
6
4
14
0
5
0
11
6
0
14
0
8
4
205
77
0
5
0
9
0
0
34
46
0
28
0
0
0
0
0
4
0
21
0
45
37
0
31
0
0
0
23
5
1
23
0
0
1
1
0
0
4
0
15
0
0
1
45
16
4
25
0
5
4
0
8
0
0
17
37
25
18
0
6
0
56
0
28
0
9
26
0
0
25
0
0
0
0
36
0
19
0
47
18
5
10
0
0
9
0
0
0
0
0
47
21
0
44
98
0
0
0
0
157
48
0
4
33
114
8
0
0
0
0
255
63
0
68
0
0
176
0
0
0
0
152
0
0
64
0
0
39
95
189
0
0
0
0
255
116
0
0
3
16
0
0
31
27
0
0
108
0
0
0
0
19
0
0
0
0
0
0
137
16
0
0
0
255
218
123
0
0
0
0
0
15
0
16
0
20
3
32
20
0
0
0
255
56
0
26
20
99
0
0
15
0
25
9
63
176
111
0
0
0
0
0
13
16
0
0
0
0
65
0
0
36
16
8
0
50
60
0
49
0
0
0
63
0
0
0
3
5
0
0
6
0
0
0
0
12
6
14
0
7
0
3
16
0
0
0
0
0
5
0
0
0
55
0
3
0
25
19
0
21
31
7
0
8
12
0
0
0
0
21
12
5
12
12
7
22
5
34
0
0
0
0
0
24
15
9
0
0
21
8
12
28
55
0
0
0
0
0
0
0
0
0
0
0
55
35
43
45
0
0
0
7
39
0
32
0
34
66
0
0
1
0
0
20
4
39
15
17
20
23
4
15
0
0
0
11
0
13
53
0
0
0
0
17
41
8
0
0
0
41
0
1
0
3
17
0
74
15
0
0
106
0
0
4
10
15
0
18
0
0
0
146
0
71
25
66
0
0
88
0
41
0
0
14
66
0
0
66
60
0
52
33
25
9
29
0
0
30
44
22
0
0
4
0
23
16
15
0
11
28
0
0
0
27
50
0
0
0
0
0
0
0
0
0
0
0
15
13
2
0
0
17
0
6
13
0
0
33
21
0
0
35
0
3
20
0
0
4
66
0
0
0
5
6
0
0
11
2
0
2
23
0
0
21
0
0
12
0
4
0
7
0
0
0
8
0
0
17
0
0
14
1
0
0
0
0
0
0
9
0
2
0
10
4
4
0
1
7
0
0
0
0
2
0
0
0
12
0
5
0
13
207
83
21
17
0
57
0
46
0
0
28
0
55
13
64
0
0
3
0
21
0
21
0
0
0
0
2
0
11
14
23
14
0
2
23
4
0
7
0
0
0
0
11
0
0
0
0
4
0
0
1
15
0
31
14
0
0
0
13
9
0
4
0
0
38
1
0
0
0
8
0
10
0
28
45
25
0
0
0
22
0
20
0
32
0
11
3
51
0
0
0
47
50
0
86
19
0
0
23
135
173
29
0
0
30
19
0
0
0
0
82
235
0
0
0
0
0
241
0
0
96
0
161
30
0
63
0
15
0
35
214
17
0
0
0
247
139
0
0
0
92
0
37
0
237
173
0
72
0
0
0
0
0
20
0
0
3
12
0
74
218
53
0
0
255
180
107
0
0
39
0
0
0
0
19
44
25
0
0
0
0
0
149
124
0
6
29
0
97
0
27
4
7
0
45
174
0
0
0
0
15
8
33
0
0
0
27
0
51
12
37
6
0
0
0
0
84
65
62
98
0
9
3
2
10
5
0
0
0
18
0
14
28
0
42
2
0
0
17
0
0
0
0
0
0
0
7
5
0
31
20
23
0
10
0
33
2
0
0
0
9
0
0
0
0
15
0
21
25
0
11
0
2
0
0
0
0
1
46
0
0
31
14
20
0
0
12
0
0
0
32
0
17
62
0
0
0
0
0
0
27
0
0
0
0
0
0
39
14
0
15
0
3
4
0
37
4
63
34
0
0
42
42
0
0
14
0
5
0
0
7
0
17
3
30
0
11
10
67
53
0
0
25
12
23
0
1
0
14
0
45
0
0
0
0
8
0
36
0
3
29
102
0
0
11
0
8
38
0
0
0
0
89
0
80
49
43
0
0
160
20
31
0
0
0
116
0
0
19
0
41
20
0
0
12
0
0
3
11
3
0
0
3
12
7
0
0
13
0
28
0
14
14
0
9
0
0
0
3
0
26
9
0
16
7
2
10
7
8
0
29
0
29
0
18
0
1
9
3
0
25
0
12
5
0
27
0
13
0
0
0
15
0
0
0
17
0
16
0
0
22
11
2
0
28
9
0
13
0
10
2
0
10
14
0
0
5
0
4
0
0
2
0
6
8
3
0
7
0
0
0
8
0
0
8
2
0
0
0
0
0
7
0
16
0
13
13
13
0
10
0
0
205
78
0
38
0
10
0
24
0
0
30
0
0
9
4
0
25
20
0
6
0
0
47
55
0
0
0
0
0
0
25
0
23
16
0
0
12
0
16
13
0
27
0
24
19
17
0
11
24
0
0
0
0
3
0
8
4
4
15
0
0
3
9
4
17
6
0
0
0
0
0
0
10
0
0
0
0
28
0
0
0
0
0
28
0
0
0
61
0
0
107
63
0
0
93
22
52
0
98
113
72
0
1
0
49
0
0
0
0
31
220
27
0
0
0
0
126
162
0
0
150
0
80
70
0
0
0
92
0
0
197
102
0
0
0
253
204
0
0
0
71
0
0
68
20
0
0
30
0
0
0
0
0
0
0
0
0
0
0
0
8
60
0
0
228
18
0
0
0
0
0
3
8
54
55
0
0
0
0
0
0
0
213
20
14
2
0
0
109
0
30
9
61
75
104
241
0
0
0
0
7
0
0
0
0
0
0
0
7
0
0
1
25
0
0
0
113
23
42
53
0
0
0
20
30
0
7
0
0
0
32
0
0
0
0
0
0
0
15
0
5
7
0
19
0
14
0
29
7
0
8
0
31
8
0
18
0
14
0
2
0
0
15
0
0
31
0
0
19
0
18
0
1
18
0
15
12
0
0
4
0
0
0
8
18
0
36
0
0
1
12
1
21
0
0
0
9
0
19
17
77
34
22
14
0
26
0
0
10
9
0
0
13
0
0
0
35
36
0
0
7
0
20
17
0
0
12
9
0
11
0
0
15
0
0
2
33
55
38
34
0
0
30
0
0
0
30
0
20
0
73
0
0
4
5
41
0
110
0
0
0
115
0
0
0
0
24
80
0
0
0
0
94
63
59
49
43
0
0
163
34
0
0
0
0
23
62
0
68
13
41
9
11
0
3
0
0
0
1
44
0
20
0
0
0
0
0
16
0
15
0
0
3
9
15
0
1
0
0
18
0
0
10
29
7
3
2
11
0
0
13
0
14
0
0
0
7
0
0
0
6
40
0
8
37
0
9
0
0
36
10
16
0
27
11
0
0
0
9
10
30
3
4
7
0
0
5
0
0
0
19
0
8
0
10
0
10
6
2
16
0
0
4
0
10
0
5
0
3
15
0
24
8
0
6
3
13
0
5
6
0
2
0
0
9
2
0
0
0
0
8
0
212
79
0
37
5
25
0
3
0
0
0
15
8
0
26
5
0
0
0
57
28
5
8
0
3
3
0
20
0
15
14
0
6
10
9
8
0
35
0
15
0
0
5
5
9
0
0
0
0
0
22
0
24
0
3
8
25
13
12
27
9
0
21
14
19
0
0
18
0
12
18
39
18
0
59
0
0
4
14
25
0
50
0
3
0
1
20
59
0
0
107
106
0
0
105
4
0
0
0
0
94
0
0
88
110
0
0
0
0
218
106
0
136
0
0
0
110
131
37
0
0
0
133
68
0
54
0
111
0
0
152
129
0
0
0
169
255
0
0
0
71
0
0
0
0
0
0
63
0
132
80
0
38
0
29
25
0
0
0
0
0
58
0
106
150
0
0
0
0
24
74
65
0
0
0
0
0
0
0
0
0
43
161
0
5
0
17
68
20
12
31
59
76
102
222
218
0
0
16
20
0
0
9
0
0
65
8
0
14
8
45
0
41
0
44
0
103
31
6
22
0
0
0
55
7
0
4
52
51
0
8
0
25
8
0
12
32
7
24
1
5
17
0
30
0
0
0
15
21
1
23
0
0
0
0
7
12
0
17
17
18
71
0
20
22
23
0
0
11
0
0
16
0
14
0
0
0
1
42
0
0
21
0
3
14
0
49
0
0
0
0
0
14
15
69
43
71
40
45
64
10
34
29
27
0
27
0
0
0
37
0
0
0
0
0
14
35
0
5
4
3
8
0
0
0
5
0
0
3
22
27
64
0
0
0
22
35
11
36
0
0
0
9
1
46
54
0
0
12
0
114
0
0
33
0
20
0
109
0
0
0
47
46
0
0
0
13
118
0
33
0
0
0
76
23
44
9
11
0
131
103
42
7
0
0
0
70
0
27
11
47
7
0
13
44
10
18
0
21
10
0
0
2
0
48
2
0
9
3
7
14
1
0
2
0
6
0
24
0
0
6
0
0
0
8
0
0
0
0
0
0
5
0
1
0
0
0
15
4
0
0
0
23
0
0
0
9
1
26
4
0
0
0
0
0
0
0
18
0
0
0
22
13
0
14
0
0
1
1
6
21
0
3
0
0
0
7
11
0
9
3
2
8
0
0
14
8
9
0
0
8
0
0
3
3
0
27
0
2
0
2
20
3
0
5
9
0
0
13
0
8
0
208
78
0
54
0
9
0
0
9
12
0
25
25
2
0
0
15
40
2
0
6
22
0
0
19
0
0
0
0
7
30
0
6
23
6
11
0
0
7
9
0
22
11
2
15
0
0
31
30
14
4
30
0
0
16
0
0
0
0
0
21
8
0
0
3
0
0
0
0
0
0
7
8
15
15
38
12
52
0
0
11
5
0
0
30
33
66
95
0
0
81
45
0
0
149
2
0
4
0
0
113
5
0
26
0
0
0
0
179
147
14
0
0
13
0
54
45
73
14
0
0
0
143
104
22
54
0
73
12
0
116
204
1
0
0
0
255
43
0
0
0
0
0
0
25
0
0
124
168
190
118
0
0
0
5
11
0
13
0
0
0
0
221
85
0
0
0
0
0
0
16
0
0
79
0
0
107
62
0
70
14
24
0
0
23
43
31
0
0
0
0
0
41
113
0
0
0
11
0
0
0
0
0
14
0
0
0
0
0
0
45
0
9
0
0
0
129
78
43
31
0
0
0
20
18
38
0
31
0
0
4
0
41
2
33
0
0
0
0
0
0
0
0
20
3
20
0
0
0
11
0
36
21
10
13
0
1
7
0
0
0
15
0
0
0
3
0
0
32
0
0
11
0
24
0
7
0
27
4
0
24
0
0
0
9
0
17
4
0
0
0
0
6
0
13
14
24
43
9
21
18
19
36
32
8
38
39
20
0
0
0
0
0
0
9
77
32
0
0
0
0
0
0
19
1
32
0
16
0
0
0
0
0
4
0
61
0
34
67
0
0
28
0
0
34
0
16
0
0
0
94
0
0
62
0
31
0
83
0
0
23
32
14
0
0
0
22
42
0
0
0
0
0
91
42
81
4
38
0
64
99
0
54
0
0
0
49
0
21
49
11
0
9
0
0
0
5
0
9
14
7
2
10
0
6
0
0
0
20
0
0
32
28
10
18
25
0
15
12
24
0
62
0
27
0
0
0
44
0
0
18
29
0
32
2
16
0
33
0
0
36
10
34
7
28
24
0
18
0
27
0
0
65
34
0
0
0
24
14
2
0
14
0
13
0
17
0
10
0
0
10
0
22
13
0
0
0
14
10
0
0
0
16
12
2
3
0
0
10
6
3
0
0
18
0
0
8
0
0
8
0
0
3
0
0
0
0
0
1
0
0
4
208
78
0
1
0
0
0
34
3
6
0
0
0
0
0
27
0
0
0
0
0
0
34
0
45
17
0
0
19
0
4
0
11
0
7
0
11
8
4
0
0
8
0
0
20
8
21
0
0
0
0
0
0
14
15
17
1
1
0
3
0
0
44
6
10
18
28
9
8
0
1
16
0
0
25
0
0
9
10
0
11
0
0
38
60
0
0
0
0
130
60
0
0
0
31
31
0
72
0
20
71
0
0
0
0
0
0
92
164
6
57
0
0
144
0
73
11
1
0
0
0
0
135
150
0
0
0
0
82
0
0
228
98
0
0
33
165
165
0
0
0
33
9
54
48
0
0
83
101
144
79
0
73
0
0
0
34
47
7
0
0
153
140
69
0
0
14
0
0
107
151
0
0
116
114
0
34
63
0
0
86
0
0
37
21
34
22
0
0
0
21
0
255
0
0
0
0
0
0
0
0
31
157
48
82
81
145
0
5
8
24
0
58
101
32
0
0
25
75
2
20
0
0
6
0
0
0
2
41
18
0
0
24
3
12
5
0
0
0
58
0
29
0
12
0
0
0
24
0
0
31
7
0
3
0
44
0
11
0
29
0
14
0
0
6
22
7
0
0
0
15
0
0
0
0
46
0
0
3
11
0
0
0
7
31
0
15
0
0
4
17
0
0
0
0
2
2
0
31
0
9
5
0
0
0
0
0
0
0
0
0
0
25
49
31
44
19
11
0
9
0
16
1
25
0
0
39
0
0
5
2
7
0
18
35
10
43
83
0
0
0
1
41
0
63
19
0
5
42
0
66
0
26
0
0
41
99
0
0
0
82
84
31
0
0
0
74
0
0
0
0
0
0
116
51
73
0
1
0
77
183
0
84
0
0
0
20
51
18
36
21
15
16
26
7
0
0
9
24
0
1
0
11
1
0
0
2
17
31
7
0
0
0
0
0
10
0
0
0
0
0
0
0
2
0
3
33
44
3
23
0
0
9
0
0
0
3
7
22
0
13
0
0
11
4
0
37
12
14
11
13
7
0
0
0
0
0
0
0
18
16
3
0
12
0
1
3
0
10
0
16
0
0
0
0
1
0
10
0
17
8
0
11
0
0
12
0
0
1
0
2
17
0
0
17
10
10
0
0
0
0
6
18
0
41
1
0
10
2
3
8
0
209
79
5
41
14
50
0
33
0
48
0
2
7
23
13
13
0
0
0
0
23
0
26
0
0
0
0
0
0
17
3
55
0
0
6
0
3
2
0
0
0
0
11
7
0
0
2
0
0
5
0
0
39
5
6
26
7
5
19
15
0
2
36
5
13
0
0
0
0
0
0
34
5
6
15
12
0
29
0
1
0
0
41
31
21
0
63
0
0
35
0
4
2
0
56
75
0
49
0
37
0
34
0
0
0
0
71
186
81
69
0
0
0
121
0
20
0
31
0
124
0
0
52
118
0
5
0
0
150
0
0
207
160
0
0
54
1
164
0
0
0
0
0
87
31
0
0
113
0
212
54
0
189
0
0
0
0
0
0
0
65
231
12
0
164
127
0
0
0
3
90
24
32
8
71
0
0
0
0
133
204
0
0
39
0
0
0
0
0
98
128
255
231
0
0
0
54
0
27
5
26
14
18
53
192
0
0
0
0
0
46
0
0
0
0
0
103
121
41
0
65
0
0
0
45
45
20
0
0
0
20
1
1
8
0
13
22
18
0
6
20
0
0
11
0
0
20
29
0
2
28
6
0
12
0
23
4
15
0
15
0
0
41
0
0
39
28
0
18
0
14
34
12
0
9
0
6
13
5
24
8
29
0
0
0
0
0
36
8
8
0
46
27
0
0
0
0
0
0
0
0
0
0
0
0
0
0
9
27
80
70
84
62
38
8
0
0
5
0
0
0
0
0
27
0
0
0
8
0
0
12
0
18
0
38
0
97
0
0
0
6
0
0
6
0
0
37
0
0
0
46
0
0
13
0
0
69
123
0
0
16
0
0
0
0
0
81
0
0
50
0
0
0
103
47
95
24
0
0
48
131
0
137
0
0
0
12
83
0
18
10
7
0
0
0
0
10
4
17
2
8
0
13
1
0
26
0
0
10
5
0
39
0
0
19
0
1
0
6
0
27
0
24
0
10
5
0
0
0
0
0
38
0
0
11
21
0
24
0
7
0
0
0
0
1
0
11
0
25
0
0
0
0
0
29
0
32
13
12
14
15
7
8
2
10
0
0
0
0
1
0
0
16
0
9
0
0
0
5
0
6
0
0
0
5
4
10
0
0
6
0
0
1
0
9
0
6
16
2
0
2
0
0
0
0
0
0
9
0
0
1
0
211
74
0
0
0
26
0
54
0
2
0
69
0
46
0
0
45
0
3
0
2
4
33
17
0
27
0
0
0
44
0
23
0
8
17
0
46
0
0
22
18
0
6
9
0
1
3
0
0
20
11
0
0
3
4
0
0
0
8
0
0
0
20
4
0
32
0
0
0
8
0
0
6
0
4
24
0
26
0
0
0
0
31
21
0
0
16
0
10
0
0
0
0
0
24
93
2
93
0
73
0
24
0
0
0
9
146
91
0
0
0
0
0
0
124
108
0
0
0
187
0
0
73
14
0
0
0
76
141
0
0
63
255
0
0
99
0
144
44
0
0
0
0
105
0
0
0
81
91
97
121
164
161
0
0
0
0
0
0
0
255
109
0
0
121
0
0
0
0
49
0
58
31
0
0
0
30
42
151
241
0
0
115
0
0
0
0
0
0
178
182
255
0
0
0
8
0
0
0
0
0
0
0
0
7
0
0
0
3
0
34
0
0
0
0
0
115
39
88
0
87
0
8
0
24
0
28
22
0
0
0
0
8
0
6
5
0
8
8
8
0
0
14
22
37
0
7
3
0
0
8
0
29
0
0
7
0
2
3
6
1
13
22
0
0
11
0
0
3
0
24
0
0
0
3
0
5
32
0
0
3
0
21
8
0
50
0
0
21
0
40
0
14
0
0
69
0
0
0
0
8
0
32
0
0
0
24
61
26
61
54
43
5
0
21
6
16
0
0
0
17
10
0
0
0
0
5
12
2
10
0
6
17
0
5
25
106
0
0
0
19
10
4
38
9
0
3
0
22
0
60
0
0
21
0
35
26
0
46
13
98
0
65
0
9
0
104
0
33
2
0
0
0
139
46
51
59
0
0
83
82
0
137
0
0
0
0
69
34
0
8
0
3
10
4
0
18
7
18
0
17
0
15
33
0
20
0
0
13
0
11
13
0
6
27
31
0
0
0
0
16
0
0
0
13
0
0
10
56
0
0
9
13
10
0
18
0
4
0
27
5
12
12
0
35
0
14
0
11
0
19
0
28
0
0
0
2
0
0
11
12
0
14
3
0
14
30
0
16
0
0
0
3
6
0
0
6
4
6
10
0
0
7
0
5
14
0
0
3
5
0
3
0
15
0
0
0
1
5
0
0
52
0
0
4
1
0
7
14
1
6
1
211
81
30
21
17
3
0
0
20
0
0
0
5
0
0
0
11
0
14
0
34
0
0
0
0
11
0
0
7
11
0
16
1
0
15
0
2
20
0
18
8
0
8
0
0
0
0
9
0
0
12
0
0
0
24
6
34
16
0
0
17
18
0
11
0
0
0
0
27
0
0
24
0
2
0
0
0
56
0
0
3
17
14
33
0
0
0
52
91
0
0
40
0
0
67
9
0
0
0
12
0
10
0
0
1
189
143
12
0
0
0
0
0
0
9
58
0
0
35
255
0
0
169
43
0
0
0
80
85
37
0
0
197
45
0
73
51
30
129
0
0
0
0
0
42
0
0
0
34
117
0
183
205
0
0
0
0
0
0
141
172
0
0
0
0
0
33
0
82
7
0
0
0
0
0
49
24
114
183
21
0
0
22
0
0
7
0
0
88
133
244
0
0
0
0
0
5
0
19
0
8
0
0
0
88
57
0
1
27
0
20
34
0
0
0
0
94
45
87
0
104
0
19
0
0
32
0
10
0
32
12
0
46
2
8
0
11
0
26
13
31
0
0
0
0
0
21
2
0
0
38
0
12
37
9
6
0
19
0
0
17
0
0
5
0
51
0
0
14
9
0
0
0
15
17
7
0
0
33
0
22
0
6
22
0
0
0
0
20
0
0
3
10
0
0
0
0
2
25
0
28
0
52
46
0
0
0
0
0
52
22
16
2
6
11
15
0
20
1
25
11
0
0
7
8
30
0
0
33
15
3
7
0
0
21
59
0
0
0
0
0
0
0
7
39
3
43
0
0
0
37
0
17
0
0
111
73
0
0
0
45
0
6
0
0
3
174
0
6
48
6
0
0
73
26
61
77
24
0
137
90
0
152
0
0
0
36
70
30
0
65
0
0
61
26
0
6
0
21
0
1
0
1
0
0
0
24
0
6
0
0
11
0
0
8
0
0
6
23
0
9
17
7
22
0
37
19
0
4
3
16
22
0
0
8
49
0
17
0
0
0
6
14
0
0
0
0
7
7
0
0
27
0
7
35
0
1
23
21
28
17
0
23
0
0
0
22
0
0
0
5
14
4
1
0
19
0
9
5
0
0
0
0
10
9
0
8
0
0
12
0
20
0
14
0
5
3
6
0
0
7
6
2
7
1
0
9
0
0
0
6
0
212
76
0
0
0
0
0
0
0
62
26
0
5
8
16
9
1
0
46
9
0
0
16
8
24
14
13
0
0
31
3
0
34
27
0
0
0
4
14
0
10
0
0
18
33
0
31
1
0
0
0
2
0
0
0
0
0
0
7
8
0
9
0
21
0
21
0
27
0
0
27
0
44
9
6
78
0
19
0
22
0
0
0
0
0
0
85
72
120
49
0
0
0
0
57
74
56
0
0
17
0
16
0
0
181
194
35
0
0
0
0
0
0
83
0
69
0
0
0
220
0
76
134
0
5
21
5
74
0
0
0
0
235
102
0
24
136
0
147
0
0
3
0
15
101
0
0
0
8
72
0
0
75
12
60
0
0
0
47
182
2
0
17
147
0
50
50
0
49
32
0
0
0
31
14
104
8
156
120
0
0
84
0
0
21
0
0
0
139
252
176
0
0
0
0
38
60
34
38
7
68
35
73
54
24
0
6
0
40
0
26
9
10
32
7
0
66
65
167
0
97
0
0
0
8
32
0
4
1
4
0
0
0
0
3
0
0
0
0
0
6
40
0
0
10
0
0
43
0
10
0
0
32
0
0
0
0
0
5
0
0
25
0
0
0
3
2
0
0
9
0
24
3
0
0
29
0
0
6
0
14
0
0
0
52
0
0
19
15
21
34
0
46
11
0
25
0
0
0
0
4
0
40
79
0
0
0
7
4
7
35
0
0
11
9
17
3
17
8
0
0
7
1
3
9
0
0
0
0
0
0
0
35
0
73
120
0
0
0
22
0
34
0
4
1
0
37
10
53
0
0
22
15
0
0
67
99
0
0
50
133
36
0
0
0
0
146
0
9
12
0
0
0
66
33
36
82
46
0
127
129
0
93
0
0
0
0
49
61
9
0
0
0
0
0
0
19
22
0
0
0
0
4
0
0
6
0
0
0
0
39
0
11
25
0
0
0
10
19
6
2
2
0
0
0
0
0
25
18
0
0
0
3
0
0
0
0
15
24
1
0
19
42
6
31
33
0
22
7
0
0
36
0
0
0
0
0
10
17
3
0
6
0
4
23
0
1
0
0
0
0
1
0
6
0
5
1
19
0
2
0
7
9
5
0
1
0
0
19
0
0
0
7
0
4
10
0
0
0
0
0
0
0
0
0
11
9
7
8
1
0
0
212
82
20
26
63
22
42
45
48
26
0
9
33
15
11
20
1
0
0
26
4
0
0
0
0
0
9
0
0
27
0
2
43
0
32
6
12
6
0
39
3
0
0
0
0
12
7
0
24
2
0
0
4
0
2
32
8
26
0
2
0
45
0
29
39
11
0
0
0
0
19
0
0
0
0
0
0
0
0
0
4
10
0
0
0
0
47
110
134
0
0
0
0
0
0
18
0
0
0
64
0
0
0
107
228
0
0
0
0
30
0
0
0
0
0
0
24
0
25
31
0
22
40
0
0
71
0
90
9
0
0
0
203
152
0
0
131
17
45
83
0
0
0
0
47
0
0
0
22
151
45
0
0
0
44
0
0
63
68
0
0
0
0
0
2
149
60
0
0
0
2
0
0
46
0
0
114
199
0
0
108
46
0
11
56
0
0
73
180
255
0
0
0
0
0
0
0
0
0
0
0
0
0
0
55
0
2
0
18
0
9
0
0
0
0
0
47
56
52
0
93
0
0
60
0
0
21
0
8
0
15
19
23
29
0
14
16
15
0
21
0
14
0
0
35
19
0
7
0
10
20
0
17
5
7
16
0
21
33
0
0
0
0
18
0
16
0
40
0
14
12
14
6
23
45
1
0
0
1
0
15
0
7
0
8
0
13
0
0
0
17
0
0
0
2
0
0
27
0
0
3
30
17
62
11
0
0
0
0
0
35
29
0
8
0
42
0
0
12
0
0
25
0
0
8
0
15
7
0
0
0
0
0
0
53
39
0
0
8
7
15
0
0
13
0
0
0
0
0
0
47
74
0
0
0
121
59
0
0
0
97
0
0
63
0
24
53
0
55
0
8
0
0
52
84
1
137
37
0
77
130
0
71
38
0
47
0
19
9
9
11
0
0
23
0
4
40
18
0
0
20
26
0
27
0
0
10
33
34
0
0
0
30
0
6
55
0
0
8
0
13
0
32
2
13
0
34
23
0
0
27
0
0
17
22
3
0
0
8
7
0
0
0
0
0
0
3
5
16
0
0
22
0
22
0
36
27
0
0
8
1
2
11
0
0
0
8
1
2
17
0
0
4
0
0
8
0
9
0
13
13
5
1
0
0
0
11
0
10
0
24
0
5
0
0
11
3
0
4
9
7
1
3
13
5
0
12
0
0
3
29
7
212
82
11
0
0
0
0
0
0
14
27
28
0
9
0
0
22
0
23
0
0
0
0
3
0
6
33
0
0
16
0
0
34
0
15
0
0
0
0
2
0
13
9
7
0
0
0
2
18
0
34
0
12
4
21
0
0
29
4
3
0
0
0
31
16
0
11
0
7
0
21
0
28
11
35
59
19
27
6
0
45
0
0
0
20
4
136
110
13
0
5
0
23
0
25
144
91
34
0
27
0
12
0
250
99
0
0
0
0
1
36
6
51
64
12
103
51
0
0
0
20
37
93
74
0
103
0
96
49
76
0
0
167
228
0
0
36
121
0
130
0
44
7
24
0
58
36
0
124
4
35
162
0
0
83
10
102
129
4
0
20
0
0
0
0
65
73
28
0
0
35
55
85
42
42
28
199
63
0
20
31
0
0
6
82
0
115
148
255
0
0
25
68
52
35
113
78
62
2
19
0
6
7
0
0
5
0
0
0
0
0
11
0
0
0
0
36
42
34
0
103
0
0
2
0
0
12
10
2
0
0
0
0
37
0
7
0
0
0
9
0
12
0
0
0
21
0
0
5
18
0
14
3
0
0
6
34
0
11
8
14
39
4
37
0
34
0
0
0
0
0
0
3
0
11
0
21
0
1
0
10
0
0
0
17
0
10
3
10
0
18
31
0
12
13
14
0
0
31
0
1
23
21
48
34
0
0
0
24
0
60
8
0
6
0
8
0
4
0
0
1
0
0
0
15
0
22
9
0
0
0
40
0
72
129
0
0
0
0
11
21
11
0
46
3
56
2
27
12
0
18
36
0
0
0
78
63
0
0
0
119
0
0
30
0
73
34
0
90
0
0
0
0
0
92
9
145
26
0
76
154
0
0
69
0
66
0
62
24
4
0
7
0
20
0
0
19
0
10
0
0
29
0
0
13
0
0
6
0
8
0
0
14
0
0
13
0
1
0
0
1
0
6
5
0
5
38
0
0
12
0
28
0
1
0
0
27
15
0
0
0
18
0
5
0
28
0
9
4
0
0
2
10
0
0
33
0
8
8
17
12
0
29
0
12
0
11
0
0
3
5
11
0
4
21
0
0
19
0
0
0
0
16
0
7
0
2
6
0
0
2
0
0
0
3
0
0
0
0
6
0
0
0
0
12
0
0
4
18
0
0
0
212
78
0
38
17
0
1
0
35
0
0
9
36
0
0
0
7
0
3
27
0
0
0
6
0
20
41
6
0
14
29
0
11
0
8
2
0
26
0
14
0
0
0
9
15
0
0
9
7
0
6
0
28
1
14
4
8
0
0
0
27
7
30
0
29
0
49
0
0
0
0
0
1
25
0
0
9
0
4
0
16
0
0
26
42
85
82
0
0
19
0
0
41
0
0
114
0
0
0
0
62
37
87
152
12
0
0
103
0
0
0
0
0
0
0
0
0
0
0
0
0
26
0
0
0
39
46
0
63
109
0
0
27
255
12
0
28
154
0
48
0
0
0
27
0
96
0
0
0
0
0
102
0
73
48
0
8
72
0
0
0
0
0
0
7
81
0
0
0
22
0
26
18
0
51
43
194
0
0
114
0
0
0
0
45
57
125
255
0
0
0
0
0
0
0
0
0
17
15
52
29
88
50
84
40
122
19
55
87
59
63
83
0
96
89
0
89
94
62
0
92
9
0
21
35
0
0
0
26
18
44
23
16
0
4
29
44
34
30
25
44
0
8
25
9
6
41
0
21
38
0
0
0
0
2
0
9
0
0
6
0
25
0
30
5
12
7
9
28
0
0
12
0
0
2
22
10
0
22
6
0
15
8
8
1
18
2
0
19
6
0
0
0
0
0
0
12
1
14
0
0
13
35
29
30
0
0
7
0
0
29
0
1
0
20
34
47
0
0
0
1
19
0
0
13
0
24
9
0
0
18
30
18
75
8
0
0
0
0
0
3
0
12
26
0
0
0
0
6
0
144
22
0
0
61
86
20
0
0
0
18
10
0
0
0
29
0
0
76
0
47
31
0
0
101
39
93
12
0
28
197
0
0
96
0
91
4
31
1
54
0
0
0
37
0
0
27
0
51
0
0
0
36
3
0
12
43
10
0
13
6
20
0
0
23
5
9
0
2
13
21
11
0
17
41
0
28
4
0
0
5
15
0
0
43
0
6
2
0
16
5
4
19
0
0
0
0
8
0
22
0
0
0
0
0
0
0
21
2
4
14
0
4
0
0
0
8
4
8
2
1
5
0
5
25
0
0
10
3
1
0
0
0
0
0
3
1
0
1
0
0
7
6
0
5
0
0
0
0
7
4
0
0
0
26
16
0
0
21
0
4
3
212
76
2
0
0
0
0
0
2
0
13
0
0
19
3
11
20
0
0
1
0
6
0
0
0
0
0
0
4
26
17
0
33
1
3
17
0
2
0
27
0
0
1
0
24
8
7
0
0
0
0
0
0
0
23
0
14
0
28
0
12
0
18
0
26
0
0
3
0
16
13
0
9
40
11
3
0
0
21
0
0
0
25
44
110
54
0
0
18
31
0
0
0
0
22
93
0
0
24
40
126
114
93
80
0
0
0
0
0
0
0
0
0
97
17
0
34
29
28
0
32
95
0
0
0
0
129
0
34
133
0
0
0
156
94
0
0
182
0
0
83
0
0
0
29
35
12
0
74
93
46
89
19
3
0
0
30
68
0
0
0
0
0
85
196
168
0
0
61
40
0
22
0
0
67
92
29
0
0
123
0
0
7
0
0
167
244
111
0
0
64
0
0
41
0
53
2
0
0
0
0
0
0
0
0
2
0
0
0
0
0
0
0
0
0
0
0
90
0
24
0
44
0
13
50
1
17
0
0
0
35
0
0
39
0
0
0
0
0
0
0
2
0
0
0
0
14
0
0
41
0
9
10
25
0
0
0
0
13
0
0
12
0
7
0
0
2
0
0
0
19
11
0
0
0
22
0
16
0
6
4
0
0
0
0
34
14
0
0
0
4
6
5
0
0
0
3
0
0
0
1
36
35
15
0
6
0
0
0
19
25
0
0
0
9
24
41
0
0
16
0
0
11
3
0
52
15
6
0
6
13
32
2
121
0
0
0
51
1
0
21
0
0
3
0
0
17
0
0
0
74
5
0
0
44
36
19
8
0
25
51
0
5
0
0
61
0
0
32
0
0
0
0
0
30
15
110
72
0
0
177
0
0
156
0
0
0
21
12
5
1
0
0
37
0
0
41
0
0
0
18
0
0
0
0
0
14
0
0
0
0
41
0
0
0
1
0
0
12
0
0
0
6
0
0
0
7
0
35
0
0
19
0
6
0
0
0
0
0
19
28
0
33
0
15
11
16
0
22
18
0
0
0
0
0
16
0
0
0
12
18
0
4
0
0
0
0
3
0
1
0
5
10
0
0
1
0
0
0
0
4
4
15
0
0
0
9
0
0
2
23
0
0
0
7
0
0
6
0
3
0
0
3
39
0
0
0
0
13
0
0
0
209
70
0
12
14
25
0
0
29
7
0
0
28
11
0
5
35
0
11
0
0
0
18
24
16
0
0
5
10
26
0
12
3
3
7
0
17
27
0
19
9
23
8
0
0
13
0
0
9
18
1
0
25
0
0
0
0
0
23
0
0
0
0
0
0
28
0
0
9
0
0
57
2
0
0
0
11
6
0
0
0
0
65
95
48
0
0
107
18
0
0
169
43
0
47
41
0
9
85
117
168
0
0
0
0
64
108
0
0
109
0
0
0
64
53
0
149
3
0
0
0
18
0
73
0
33
190
0
17
0
8
65
0
0
188
0
0
156
120
0
65
34
0
0
35
49
67
0
0
0
0
60
63
0
0
0
32
137
0
0
0
0
0
146
218
99
0
0
78
0
15
33
0
63
89
187
0
0
32
0
0
6
0
0
17
255
244
0
0
0
0
0
47
13
0
0
0
16
32
25
1
19
44
60
7
116
0
0
93
40
8
13
0
36
43
0
0
187
0
50
0
74
0
6
0
0
39
7
0
0
34
0
0
43
0
19
4
26
0
11
17
26
0
34
0
29
0
35
0
15
4
30
1
5
0
6
5
0
7
0
0
23
0
13
3
21
25
0
1
18
0
0
28
0
0
32
0
0
0
19
0
0
27
0
4
0
0
0
17
0
0
0
0
19
10
11
4
11
10
0
0
36
15
20
28
9
0
0
0
33
31
9
12
0
18
12
6
0
5
1
0
15
0
0
0
35
0
0
0
0
0
47
20
107
0
0
0
15
0
17
4
0
9
9
9
0
13
0
0
15
21
12
0
0
103
30
35
0
0
27
45
49
0
17
12
61
0
0
0
0
0
0
0
0
89
52
69
94
0
22
137
0
0
152
0
19
18
37
15
19
8
0
0
36
0
3
37
0
8
0
0
0
1
4
18
1
0
24
12
0
44
0
2
46
6
23
0
23
34
4
0
0
3
0
47
14
0
0
42
0
21
0
11
6
11
0
19
0
0
13
1
0
27
0
0
0
22
20
0
2
9
0
25
0
0
0
29
31
1
31
7
0
21
7
18
0
2
13
0
16
0
0
13
0
17
13
13
2
0
15
0
0
3
3
4
2
0
0
0
2
15
0
0
0
0
9
2
10
0
9
13
11
0
0
0
1
6
0
0
7
0
7
212
78
31
42
0
0
0
31
0
0
9
0
28
26
3
15
16
6
23
0
0
0
0
0
0
39
26
0
0
40
0
0
22
0
0
4
0
0
14
6
0
12
0
10
3
0
5
0
0
0
11
0
31
13
17
9
0
12
0
0
25
22
0
29
0
0
21
17
0
0
0
0
0
8
84
0
49
0
30
0
0
39
120
45
0
0
15
73
54
5
0
0
5
0
77
0
0
68
104
128
43
0
0
0
0
10
0
0
0
29
0
12
0
111
14
0
22
58
0
0
5
114
1
0
0
39
0
105
79
0
0
20
0
0
111
71
0
38
196
0
95
31
0
0
0
68
90
57
0
23
0
5
95
0
0
0
0
55
0
24
17
7
12
124
37
0
0
0
5
0
32
0
71
31
188
2
0
106
0
0
0
0
0
0
255
255
0
0
0
0
25
10
15
6
0
1
0
0
5
22
0
0
0
0
0
89
0
0
0
0
0
26
26
0
0
0
0
178
0
40
0
117
0
17
5
11
4
0
4
22
21
0
0
33
0
0
0
31
9
4
8
0
0
3
0
22
0
0
0
23
0
0
0
33
0
0
44
0
16
0
13
1
0
0
0
14
0
11
0
0
0
8
0
14
0
15
0
3
0
38
1
0
0
0
0
0
6
13
31
30
18
0
22
0
0
26
0
26
0
0
7
46
24
12
12
0
0
0
0
43
42
22
0
1
0
37
0
15
0
2
15
0
0
0
0
24
5
0
0
0
10
41
107
0
0
11
18
18
0
55
0
13
0
36
12
0
8
25
24
15
0
47
0
0
61
0
66
0
0
0
127
21
0
72
17
0
0
23
22
0
20
0
0
0
67
29
84
91
0
0
178
0
0
63
0
0
1
34
0
2
15
7
0
25
0
0
20
8
0
10
4
8
5
0
0
12
10
0
0
11
0
16
0
0
0
0
0
0
0
36
0
24
4
10
0
0
26
0
20
0
25
0
15
18
0
13
30
5
37
0
7
0
12
0
11
11
0
0
9
0
14
0
13
0
3
17
0
0
14
0
4
0
0
0
0
0
2
0
9
0
13
10
0
0
0
0
0
9
0
0
0
0
0
0
0
13
6
0
0
3
2
0
1
0
3
1
4
0
0
5
0
9
0
15
4
8
6
0
12
0
0
4
213
72
0
20
22
0
0
13
31
31
0
0
19
17
21
0
0
0
0
37
0
27
0
0
0
0
0
0
16
11
6
13
0
48
3
3
14
36
0
3
0
17
15
0
0
0
0
0
30
4
0
13
10
0
1
35
0
14
21
0
1
2
0
57
0
8
0
40
0
0
40
0
0
0
0
0
29
0
0
0
33
112
139
0
0
0
44
43
3
0
0
58
23
0
23
0
0
28
69
100
0
0
0
0
0
184
255
0
0
61
0
0
0
54
32
0
0
174
0
0
0
26
65
0
10
61
0
164
119
0
0
0
53
0
102
116
0
0
210
0
31
164
0
0
0
154
173
0
0
17
0
0
0
66
0
0
0
0
0
71
0
21
67
0
0
0
7
0
24
6
0
40
42
121
108
0
0
130
12
0
0
0
0
119
255
0
0
0
0
0
0
0
0
64
79
0
27
2
0
2
0
0
22
76
0
122
5
0
38
0
0
43
0
0
0
0
0
141
0
36
0
165
0
0
21
0
14
0
0
0
0
1
18
0
0
11
0
4
13
0
6
13
0
36
0
26
0
12
0
23
11
0
9
12
5
0
5
17
38
0
0
20
0
43
0
36
0
18
0
0
31
9
0
0
0
26
10
20
0
0
49
13
30
0
2
0
31
0
11
3
0
0
14
0
9
0
0
28
0
0
16
55
0
0
31
14
3
0
0
10
50
4
6
0
1
0
7
0
18
15
7
0
0
10
28
5
16
0
4
40
1
42
80
0
0
0
0
1
0
0
0
9
0
23
0
0
0
0
0
9
52
24
0
28
0
59
10
0
0
0
73
0
0
19
44
0
0
0
29
0
43
0
0
0
56
17
48
98
0
0
169
0
0
68
42
0
8
32
16
7
21
0
0
0
0
0
34
0
0
0
0
0
32
0
17
0
0
0
26
0
7
0
8
16
2
12
0
0
30
0
0
9
5
0
26
0
10
7
0
0
0
41
0
0
0
0
0
0
0
9
0
56
0
10
0
2
21
22
5
5
31
0
21
0
0
0
0
19
7
9
7
0
18
1
0
0
3
0
0
23
0
3
21
17
0
5
3
4
16
0
0
8
11
8
0
0
3
0
3
14
7
0
12
0
23
0
0
0
11
0
0
8
1
0
0
0
18
0
0
13
1
0
212
73
4
0
7
0
11
0
0
0
12
0
0
0
0
0
0
4
0
50
0
21
0
0
13
0
0
0
14
27
5
27
6
6
0
0
0
2
0
0
5
16
0
2
0
27
0
11
0
0
0
0
5
0
5
0
2
0
0
10
0
11
0
0
0
19
0
0
15
0
0
18
0
18
93
0
0
0
0
0
100
102
0
0
0
10
88
24
88
0
47
30
0
0
44
78
0
27
71
94
0
0
23
11
0
0
192
0
105
1
0
0
0
48
2
0
0
147
30
0
0
0
42
0
2
0
0
160
129
0
0
44
19
111
58
55
30
0
64
5
0
182
28
0
0
196
233
0
0
42
0
0
0
89
145
0
0
0
15
64
84
0
0
0
0
0
0
28
0
0
0
42
83
187
0
0
0
0
0
0
0
0
30
255
208
0
0
0
16
10
75
28
0
0
98
1
0
0
11
25
17
0
0
52
0
81
0
0
54
0
0
28
7
2
0
0
0
80
0
39
0
183
0
0
11
22
93
0
0
28
2
0
11
8
20
15
0
0
0
51
18
0
0
0
0
25
0
0
0
0
24
0
29
0
4
0
0
0
43
0
0
12
17
0
0
0
0
36
4
0
0
0
1
18
11
24
0
0
2
21
28
0
0
18
23
0
16
0
12
0
0
29
20
0
6
0
0
0
11
0
23
66
26
0
33
47
0
0
0
0
12
7
24
0
0
7
35
0
0
0
0
0
8
13
24
0
0
0
22
7
19
131
0
0
0
77
0
24
0
0
66
0
0
64
14
0
0
1
28
56
19
0
0
90
2
78
0
0
0
0
92
0
0
82
43
0
95
0
45
0
27
0
0
0
45
3
47
147
0
0
180
0
0
101
69
0
6
26
0
0
0
4
0
0
23
30
14
0
0
0
8
0
18
13
0
27
13
0
0
0
38
0
0
0
0
8
20
18
0
0
19
19
0
14
0
0
0
1
7
0
10
0
31
25
31
0
43
39
1
0
13
0
15
5
15
0
9
0
0
0
9
29
0
0
27
25
0
15
9
22
4
15
0
0
0
0
0
8
0
0
0
12
1
10
0
0
0
4
0
0
9
0
0
3
3
8
0
0
0
5
9
0
12
0
0
0
3
0
16
16
2
15
0
6
3
0
9
0
0
0
0
4
213
74
5
0
25
0
1
9
49
0
41
0
13
22
26
36
3
62
0
25
0
0
22
26
23
0
0
0
21
0
0
8
0
6
20
0
0
8
7
1
0
0
8
25
8
0
0
12
10
0
0
0
10
1
0
23
10
8
2
21
13
11
56
0
0
6
0
6
0
3
0
35
0
0
0
0
18
0
19
51
129
0
0
0
0
17
81
29
53
0
0
0
0
10
119
30
0
43
84
82
0
0
0
39
37
0
0
62
76
4
2
17
0
99
0
0
0
74
130
0
41
0
23
64
0
0
0
41
157
9
0
76
0
0
150
59
0
0
0
9
0
85
82
0
56
213
220
0
0
9
101
0
0
0
0
65
49
65
50
0
74
0
0
0
9
31
48
0
0
7
30
99
197
0
0
56
60
6
0
0
0
7
255
210
0
0
16
12
0
0
0
0
0
0
5
0
36
0
0
63
0
1
0
91
0
23
40
63
22
0
34
0
0
36
9
0
0
143
0
15
0
169
14
0
11
0
0
0
40
11
0
14
0
2
0
13
26
0
0
0
0
0
24
12
0
16
20
0
4
6
0
14
21
0
10
0
31
0
34
0
0
0
4
0
24
8
0
8
0
7
20
16
0
0
0
0
3
0
16
9
29
0
22
4
4
0
1
0
22
10
18
0
8
7
2
30
13
23
0
0
23
26
12
0
21
6
0
0
0
0
7
6
0
36
1
0
31
8
0
12
0
0
0
0
22
9
0
0
46
0
73
108
0
0
0
0
0
34
0
0
0
0
0
0
0
44
39
0
0
6
22
0
39
10
0
5
29
40
0
35
51
0
0
75
0
0
75
0
42
0
20
0
0
0
85
32
19
153
0
0
219
0
0
81
57
0
4
29
8
0
13
30
0
0
0
0
0
0
0
34
21
0
0
0
0
7
0
32
0
41
0
1
7
3
0
52
0
2
0
4
0
0
0
2
4
0
9
0
17
6
7
0
0
0
0
5
26
0
17
0
21
0
0
10
18
0
0
11
0
4
0
0
8
0
13
0
8
6
13
0
9
0
0
11
9
0
0
16
0
29
0
4
7
0
0
25
0
0
6
0
6
0
3
0
0
7
0
1
0
18
0
0
7
0
3
2
0
1
3
0
0
0
0
2
0
0
6
0
18
7
0
0
212
77
44
28
0
3
47
0
27
0
0
13
3
0
0
0
10
0
0
0
0
0
0
36
13
4
0
0
35
3
0
0
0
3
0
5
0
8
2
0
6
12
0
0
0
8
0
1
0
29
2
0
0
20
0
4
29
0
0
0
0
0
43
0
7
37
2
0
0
0
0
22
23
46
6
1
0
0
57
176
26
0
0
0
0
106
26
62
13
0
0
0
28
125
106
0
7
63
125
30
0
0
21
38
0
0
0
140
41
0
0
50
0
12
24
0
0
0
137
0
42
13
0
59
0
0
0
27
60
96
0
0
0
0
0
70
107
80
0
0
0
0
95
0
84
217
205
0
0
7
168
0
0
0
6
125
13
0
0
0
0
0
0
47
0
0
13
0
1
30
70
168
29
0
9
8
0
0
0
0
0
255
255
0
0
0
0
11
0
0
37
154
0
0
43
0
71
0
0
44
0
58
0
37
0
8
16
76
0
0
27
0
0
0
14
0
0
159
7
40
0
96
34
0
43
25
17
0
25
0
0
74
9
0
36
29
0
35
0
7
14
0
0
0
13
4
0
0
0
0
0
0
43
0
26
0
32
0
0
0
10
5
24
0
0
0
1
0
28
0
0
6
5
9
6
11
0
0
0
10
0
0
0
7
0
29
0
0
52
0
0
0
23
0
0
0
0
0
2
0
31
46
0
17
31
0
0
0
0
35
64
52
47
41
48
0
31
14
0
0
0
0
45
18
0
3
2
2
44
0
137
0
0
0
0
6
4
0
0
50
15
0
3
14
0
0
0
117
0
34
0
0
0
0
25
0
10
0
0
16
0
0
0
54
0
0
18
0
15
0
0
0
0
0
107
0
37
145
0
0
189
56
0
61
53
0
26
0
0
0
0
7
0
50
10
0
57
0
11
19
0
49
0
15
54
0
0
4
12
1
0
11
11
0
8
11
0
15
0
8
10
7
0
30
0
4
0
0
13
0
0
0
18
0
23
0
0
0
4
0
0
22
33
0
19
0
21
0
0
0
14
13
0
0
29
2
4
20
4
9
19
0
0
0
0
0
1
0
0
17
1
3
1
0
2
0
4
4
6
0
0
3
0
18
2
0
13
0
0
5
11
1
0
0
26
0
0
0
15
0
0
12
0
7
0
0
1
0
0
0
1
3
212
67
0
10
0
19
4
0
69
0
32
10
6
0
22
0
0
0
0
18
0
38
20
0
0
0
44
0
0
45
0
9
37
0
24
4
0
0
0
9
0
10
16
8
0
27
0
0
3
0
0
0
42
10
0
6
5
25
0
43
0
0
11
0
25
0
0
0
0
0
0
16
0
8
0
0
0
25
140
65
0
10
12
0
0
62
7
81
10
0
69
81
100
0
0
0
139
0
23
0
0
27
0
47
0
0
12
0
0
0
0
71
0
0
0
54
25
0
40
51
0
0
0
0
0
3
0
0
34
7
123
0
0
0
0
0
42
157
137
0
0
0
103
21
60
137
0
0
0
0
0
0
0
0
28
34
13
57
0
0
0
0
0
0
0
55
0
0
15
66
117
164
0
0
159
0
0
9
0
0
119
255
0
0
0
0
0
0
0
0
39
48
0
0
0
0
0
0
0
47
0
44
0
0
0
57
0
0
0
21
0
0
51
0
27
0
0
140
34
0
0
91
0
0
0
0
0
0
79
0
0
5
0
0
0
48
0
2
1
7
3
0
53
0
8
0
28
0
25
47
11
0
24
0
14
0
29
0
0
0
0
0
0
10
0
27
0
1
0
2
0
16
0
4
5
5
45
35
0
14
33
0
0
0
2
17
0
0
0
0
0
0
15
0
0
0
28
0
75
30
50
75
53
109
71
43
5
0
14
56
115
44
1
23
24
23
46
25
28
0
6
0
3
0
7
0
0
0
9
26
185
0
0
0
30
0
4
45
0
3
89
0
0
35
0
0
0
5
0
12
0
24
50
0
33
0
91
0
0
45
50
0
2
14
0
82
0
0
29
20
0
6
0
0
134
0
45
114
0
0
139
113
0
74
16
14
0
18
0
36
0
49
0
0
19
0
0
5
0
0
0
13
0
21
0
3
7
0
24
0
0
0
0
0
0
0
0
5
0
0
0
14
22
0
2
3
9
0
62
5
28
1
3
3
0
27
0
0
3
18
5
0
0
0
22
0
0
35
28
0
13
0
0
8
5
0
2
0
1
16
0
0
0
2
15
0
20
0
11
0
0
0
0
15
0
0
0
0
5
0
15
0
4
0
0
14
0
0
0
0
0
0
0
0
10
5
2
0
0
0
0
7
0
13
0
3
11
0
1
16
1
0
212
74
41
0
0
0
0
0
41
0
5
0
11
0
28
50
0
21
26
1
0
20
9
0
0
0
0
0
0
41
19
0
0
0
18
0
0
14
14
0
0
0
22
0
19
3
0
0
22
1
3
0
19
7
0
8
0
14
0
15
0
7
27
1
21
23
52
0
0
0
0
0
18
12
0
0
30
110
85
0
0
0
5
0
0
107
0
26
13
0
36
119
0
0
0
0
170
0
0
8
0
12
31
0
0
65
98
0
0
15
0
88
0
0
0
0
100
0
0
77
0
24
0
0
13
0
0
25
0
0
193
84
0
0
0
0
0
94
225
72
0
0
41
115
14
0
0
0
0
10
0
0
84
70
108
21
17
100
81
0
0
0
0
0
0
63
13
0
52
122
198
0
0
88
36
0
6
0
0
0
255
228
0
0
55
13
37
0
0
10
36
136
0
0
60
7
49
0
0
113
0
3
0
0
0
8
0
69
43
59
0
33
0
5
0
0
0
109
0
29
0
103
26
29
36
0
33
0
80
0
0
6
0
52
0
35
0
10
0
33
1
0
0
8
0
0
0
0
16
0
0
0
14
0
0
0
0
0
7
6
0
18
0
21
7
17
19
0
21
7
5
25
5
0
38
0
0
0
0
0
19
0
0
16
0
0
0
0
0
1
0
18
0
22
32
31
10
23
21
8
8
4
14
31
0
87
143
105
89
3
10
0
2
0
0
50
20
68
39
0
3
7
0
2
0
0
32
36
28
56
0
0
0
0
33
0
0
0
13
0
159
0
0
0
0
6
49
17
0
6
25
0
5
0
41
0
37
0
0
9
7
0
50
40
0
54
11
0
6
0
0
8
0
0
58
0
36
129
69
0
68
104
0
115
6
44
0
33
0
0
1
15
0
20
28
9
0
5
0
9
23
0
6
0
0
16
0
14
0
2
11
20
7
0
10
18
0
5
1
39
0
11
0
0
5
0
0
4
4
0
0
10
18
0
0
0
37
0
5
8
0
13
29
6
15
0
0
0
1
0
27
0
0
0
0
25
16
26
5
1
22
0
7
8
3
0
0
6
0
0
39
18
0
5
0
5
0
0
1
0
0
0
17
0
9
0
6
1
15
0
4
0
14
0
4
0
0
18
0
4
1
0
0
0
0
18
0
0
17
0
6
0
213
71
17
8
0
16
28
0
1
0
23
47
45
16
0
0
0
0
8
0
0
0
0
23
0
29
0
0
0
0
0
0
34
29
6
0
1
0
22
0
13
29
7
5
30
0
17
18
5
0
33
9
0
3
10
0
0
3
10
0
0
6
0
0
13
0
24
0
0
0
11
0
0
0
0
1
113
182
0
0
0
14
0
0
0
16
0
37
0
0
40
24
0
0
0
126
79
0
0
0
0
0
87
0
26
82
13
0
4
0
0
187
15
0
131
0
135
92
0
79
48
0
32
0
7
0
30
0
0
0
10
161
0
0
0
0
0
0
77
75
30
0
23
77
85
37
0
0
57
49
0
0
57
88
154
31
89
16
101
122
56
71
0
11
72
88
0
38
115
186
0
0
0
141
0
0
25
0
0
202
255
0
0
22
26
0
0
10
0
0
67
141
0
0
0
12
10
0
0
61
0
30
14
0
50
32
0
97
22
97
0
0
0
19
0
0
0
77
120
0
0
30
41
0
0
31
0
0
22
6
0
18
0
7
0
0
22
6
0
0
4
9
0
0
0
12
78
0
0
16
3
0
4
10
3
8
0
39
0
0
13
0
0
11
0
0
47
23
11
0
0
1
27
0
59
0
11
0
4
6
11
28
0
7
1
0
0
10
0
41
33
50
38
51
38
12
39
31
0
0
0
4
0
0
0
0
20
71
7
0
0
0
0
0
0
0
19
62
28
0
0
0
0
0
0
30
0
0
37
167
0
0
0
0
21
5
0
2
5
0
20
0
0
0
0
0
27
0
0
46
22
0
34
0
67
0
100
0
0
0
101
53
0
0
0
71
53
0
26
0
22
2
0
0
7
58
50
58
117
0
3
148
0
74
20
27
0
17
0
23
0
30
0
19
0
0
34
4
11
0
5
0
7
14
23
0
0
38
6
4
39
0
0
10
0
9
15
6
24
7
22
0
6
9
1
29
7
0
2
0
9
3
0
11
7
16
0
0
19
7
8
0
0
0
0
0
40
0
43
0
9
20
0
0
7
11
0
0
0
9
13
0
0
0
0
5
0
9
4
3
0
9
0
16
0
7
9
8
0
18
0
0
0
0
15
0
12
0
0
0
14
8
0
0
5
0
5
36
7
3
0
19
0
0
5
0
19
0
8
0
0
0
212
70
20
0
0
0
19
1
0
23
16
0
7
0
59
0
3
13
11
6
32
4
18
0
10
29
0
4
0
59
0
1
0
0
11
2
28
0
0
27
0
0
0
0
12
0
25
0
0
17
0
0
10
1
0
4
17
10
4
2
20
23
46
13
20
0
30
0
0
11
17
5
3
0
0
60
162
0
0
0
2
0
7
0
0
49
78
16
1
8
29
35
0
0
0
165
51
130
140
0
17
0
93
0
0
0
26
14
0
0
0
96
0
0
0
0
24
158
0
0
36
17
0
13
0
0
0
16
0
0
0
119
164
0
0
0
0
0
0
0
0
0
53
0
66
130
31
0
0
0
0
1
105
0
0
0
0
33
0
78
72
65
11
0
87
30
0
110
123
0
0
0
101
0
0
0
0
0
102
255
43
0
0
0
33
0
0
8
0
3
87
203
42
0
0
0
42
0
0
77
0
0
17
0
0
0
0
0
0
15
0
0
63
0
0
0
0
0
90
0
0
81
22
44
0
13
25
7
16
10
0
30
44
10
0
0
28
0
9
19
0
0
0
32
0
0
0
5
0
14
0
5
4
20
11
0
7
14
0
8
0
0
9
17
0
4
0
0
11
25
0
0
0
0
0
2
40
0
27
0
30
0
0
23
23
39
0
40
44
17
24
0
11
0
0
0
0
5
0
0
0
0
0
0
0
0
0
0
0
0
14
0
0
0
5
17
1
74
64
6
0
9
0
5
28
0
29
35
115
0
0
0
33
0
40
16
0
29
54
0
22
0
1
17
4
4
56
0
34
0
44
10
0
0
69
0
95
0
0
0
21
34
0
21
0
40
78
0
5
0
0
0
0
0
0
81
72
32
122
0
0
159
0
46
12
3
0
51
0
6
0
19
0
0
30
0
7
0
0
16
0
0
0
0
30
0
0
31
0
11
0
2
0
11
14
0
0
0
0
0
26
0
0
0
0
0
21
6
26
0
3
8
11
32
0
0
15
9
0
0
5
0
0
4
0
4
0
0
20
3
0
0
0
0
24
0
0
49
12
0
0
0
4
6
0
0
6
0
6
3
0
0
0
14
0
5
0
0
2
0
5
10
10
5
2
0
9
0
0
0
0
0
0
10
0
0
0
0
0
0
7
9
0
7
13
0
0
5
0
9
6
0
213
70
38
0
12
4
0
0
39
10
0
40
2
0
13
0
3
24
24
0
0
0
0
44
28
0
0
0
22
43
0
4
11
5
4
0
20
0
0
0
0
9
0
7
1
0
19
0
9
0
0
0
13
9
21
0
8
0
16
0
2
0
0
0
2
5
0
0
33
0
0
0
0
0
0
140
87
0
0
0
0
0
0
0
0
100
81
48
0
0
0
0
0
0
99
163
0
215
64
0
0
0
60
0
0
0
16
30
0
9
0
0
11
59
28
0
0
182
0
0
32
57
52
27
0
7
69
0
71
0
0
25
167
96
0
0
0
0
0
60
0
0
101
23
0
136
174
0
0
0
0
68
128
0
0
0
0
48
0
41
15
41
40
11
64
0
39
154
1
0
0
49
46
0
0
0
0
0
255
143
0
0
1
0
4
0
6
31
0
0
0
122
0
0
0
0
60
0
0
21
25
0
12
0
49
41
101
0
8
80
0
0
16
5
0
0
0
89
163
0
0
46
0
0
0
13
0
0
8
29
0
0
20
0
8
2
29
0
18
13
8
7
0
21
0
9
28
0
7
5
9
27
0
14
0
14
7
0
0
13
3
0
0
6
5
23
0
55
33
43
28
15
26
21
0
0
0
0
0
20
34
0
0
12
10
4
0
21
11
0
0
0
0
1
0
30
0
14
0
0
0
47
27
0
0
1
4
50
0
10
40
36
59
27
7
52
45
24
0
0
0
0
15
0
25
0
0
57
134
0
0
0
40
0
0
23
0
0
0
0
0
53
0
14
26
0
31
0
0
20
35
11
0
0
96
0
102
0
0
10
112
0
0
14
0
0
64
0
0
0
0
40
12
0
0
96
64
47
111
0
0
133
0
37
24
15
0
12
4
0
0
29
0
23
17
12
2
0
7
14
13
4
40
0
17
0
0
16
0
0
9
0
0
9
3
13
0
0
5
3
12
0
0
4
0
0
0
9
0
17
0
0
0
0
0
0
17
0
0
10
9
0
0
8
10
17
0
0
9
0
21
0
0
0
1
10
25
0
10
6
0
0
15
0
2
0
4
0
3
3
1
5
6
0
0
0
0
8
0
20
2
0
0
5
3
15
4
0
1
8
8
15
0
11
1
0
14
3
4
2
0
0
2
0
8
0
11
7
14
0
0
0
213
63
17
35
4
10
0
0
19
15
0
0
0
13
41
0
47
0
8
0
0
0
0
0
0
2
14
0
0
25
18
25
0
25
0
17
35
0
0
15
0
0
16
7
0
12
16
0
2
6
15
9
20
13
0
4
20
0
29
0
0
13
27
23
17
8
0
10
0
11
0
10
0
0
133
112
0
0
0
0
0
28
0
0
0
73
75
0
0
0
36
7
0
0
158
44
0
167
151
18
0
0
110
1
35
0
0
1
0
20
37
0
4
0
0
0
0
113
62
0
0
67
0
0
21
0
0
0
0
0
0
0
0
189
106
0
0
0
0
148
0
4
35
91
0
0
155
213
99
0
0
108
119
7
0
0
0
0
101
0
3
49
0
0
53
40
104
132
0
0
36
75
0
0
0
0
0
214
255
0
0
0
0
0
4
5
0
23
0
0
0
66
32
0
43
0
0
16
0
42
18
0
39
0
63
0
81
0
0
62
0
0
0
0
15
0
0
66
215
0
52
0
60
0
0
17
28
25
0
29
0
0
0
0
27
0
0
0
0
0
0
0
0
0
0
25
0
0
24
0
0
0
7
0
13
8
0
24
0
0
26
0
19
53
0
32
0
18
0
26
22
73
30
44
37
43
33
20
21
28
21
0
3
35
16
23
0
7
0
14
0
0
21
67
11
71
0
0
39
0
0
0
16
30
0
73
0
46
51
58
36
0
4
0
23
8
0
0
0
0
0
0
33
0
24
23
8
86
0
0
32
8
9
0
14
0
0
49
25
0
0
0
41
0
0
31
20
0
0
102
99
0
0
0
138
0
110
0
28
0
105
0
42
0
0
59
41
66
0
0
0
40
0
0
0
41
73
32
111
0
0
158
0
20
51
37
0
0
2
20
0
0
0
51
0
17
0
0
6
0
26
0
0
0
0
21
3
0
0
7
30
20
0
0
0
8
0
0
21
0
0
0
45
0
10
13
7
12
0
0
12
12
0
14
0
0
3
12
0
0
22
11
0
5
0
12
0
12
0
1
0
0
0
14
16
14
0
6
6
6
0
5
12
6
0
0
11
0
18
0
0
0
3
15
12
0
9
7
0
0
0
0
2
0
5
0
0
0
0
4
3
2
0
9
8
0
4
2
0
0
15
0
0
3
6
0
0
18
0
0
8
5
213
53
0
0
0
23
1
0
0
0
0
0
0
0
0
9
0
0
15
18
14
0
11
0
0
0
0
0
0
0
1
0
5
0
3
7
0
7
6
26
0
3
11
0
7
5
9
0
15
0
2
0
0
0
12
0
39
0
0
12
0
13
0
0
4
7
20
0
0
0
0
0
0
89
91
0
0
0
0
30
0
0
0
11
16
123
27
0
0
0
0
0
0
4
154
0
0
0
77
1
18
1
1
0
0
0
74
76
15
0
0
0
0
0
2
0
16
103
45
0
0
0
23
0
68
34
0
0
30
1
0
0
0
4
181
95
0
0
10
104
0
0
0
95
101
0
0
0
96
156
96
232
180
178
0
0
0
0
67
0
0
77
0
21
23
80
128
0
0
41
99
13
0
0
0
0
86
255
43
0
0
39
43
0
0
40
4
25
0
0
0
79
79
0
0
0
24
29
0
0
5
0
40
0
69
0
69
0
11
80
56
0
6
17
0
6
0
4
255
0
13
0
135
0
0
0
26
21
0
12
0
37
0
0
0
22
36
0
50
31
0
0
39
0
25
0
0
0
0
0
0
0
7
0
22
0
36
17
7
0
11
0
16
25
13
28
0
0
0
0
0
0
24
66
49
37
74
29
63
18
25
68
0
6
0
0
33
6
0
42
0
31
32
20
0
18
2
54
20
13
0
0
32
0
0
74
0
97
0
0
0
0
0
0
0
0
0
0
0
4
0
10
4
30
34
0
52
140
0
0
0
5
0
0
20
0
13
9
16
0
10
0
15
0
0
40
0
5
0
10
33
0
0
0
104
0
84
0
0
14
41
0
100
0
0
0
5
18
0
19
0
0
0
0
0
1
104
58
115
0
0
204
0
0
8
31
0
2
0
38
17
0
0
11
0
7
0
0
0
0
27
0
0
41
0
0
12
0
43
21
0
2
12
0
35
5
0
0
63
0
1
13
13
0
0
21
0
10
21
0
15
0
0
11
16
3
15
0
15
14
0
0
14
28
0
26
0
17
14
0
11
0
0
0
0
0
8
23
0
15
9
5
5
0
7
0
13
4
0
0
0
16
0
0
9
0
18
7
12
9
0
0
0
0
26
0
14
0
0
1
0
4
3
0
2
2
2
8
0
3
0
4
0
4
0
18
0
0
0
0
0
29
213
57
11
9
0
0
57
7
26
14
0
14
0
62
0
0
4
0
0
0
0
25
1
20
0
7
5
0
0
49
0
19
18
11
0
0
0
0
5
12
20
13
3
0
18
0
0
5
5
0
0
3
8
0
0
21
0
5
21
0
33
13
5
2
23
14
1
0
0
0
0
12
137
172
45
0
0
0
0
0
0
0
78
22
6
172
7
6
0
37
0
5
0
180
109
0
0
3
59
33
0
0
0
32
0
43
17
77
0
17
42
0
0
48
0
0
16
154
1
59
0
51
60
0
19
21
33
6
0
0
39
0
0
0
0
154
121
0
74
155
0
0
0
27
156
70
0
0
0
131
109
77
9
0
0
4
105
39
38
0
0
8
0
46
0
119
0
0
0
67
27
0
0
0
0
42
255
255
0
0
0
28
16
23
6
67
22
0
0
0
0
54
76
6
0
0
0
56
0
0
17
0
22
0
56
0
56
0
19
18
73
0
0
0
0
0
0
7
220
0
0
0
148
0
0
0
0
0
13
10
2
23
0
10
0
11
0
12
21
15
0
0
18
0
27
4
1
0
28
25
2
11
8
0
0
0
0
0
3
0
23
0
6
0
46
0
0
0
0
0
0
0
0
0
0
0
0
0
7
0
0
0
0
0
24
0
23
0
0
0
0
0
0
0
0
0
0
0
0
0
0
0
2
0
0
7
0
0
0
0
0
0
0
0
0
0
1
0
0
0
0
57
0
8
25
0
134
28
0
0
66
7
0
0
28
0
6
65
0
0
58
29
12
0
11
55
0
0
30
42
121
0
68
31
72
0
58
0
44
32
51
6
45
0
0
6
129
6
5
14
0
2
9
0
0
15
55
19
60
0
0
119
0
0
41
0
0
0
0
5
4
16
0
28
8
0
0
55
30
0
0
3
0
0
1
12
16
0
0
0
0
9
16
0
0
21
0
0
0
0
23
9
0
0
0
0
0
0
26
16
14
13
29
0
1
0
0
0
22
0
22
14
28
0
1
0
1
0
0
0
0
0
0
0
41
12
13
14
9
0
1
7
0
0
2
0
0
0
8
1
10
6
0
0
10
0
0
0
0
0
0
0
0
9
0
0
0
6
9
11
3
0
0
3
0
0
0
0
0
18
6
0
0
0
0
4
0
11
20
1
15
0
213
59
17
0
48
0
0
0
45
10
30
19
29
0
16
0
0
14
17
26
8
0
28
23
0
0
54
0
25
17
0
24
13
12
1
0
17
0
0
0
0
0
0
17
4
20
0
4
4
35
0
11
0
11
6
0
0
8
0
0
5
1
0
3
0
17
0
17
0
0
0
47
177
52
0
0
0
6
0
0
0
0
93
0
96
15
6
0
0
0
0
0
127
85
3
0
0
0
0
0
0
0
50
79
0
2
5
126
0
0
90
0
20
8
0
0
63
161
0
127
0
10
25
0
36
62
103
31
0
33
9
0
0
0
0
0
83
60
46
131
0
43
0
121
0
0
0
0
0
0
0
0
0
0
0
17
92
70
27
0
15
29
36
37
68
145
0
0
63
124
0
0
0
0
0
234
255
0
0
0
0
21
0
0
0
0
0
14
2
8
0
0
40
67
0
0
0
0
17
0
35
0
9
0
45
0
59
0
26
35
77
0
0
0
5
0
0
7
216
0
48
0
69
0
0
0
0
30
34
33
0
37
5
0
0
10
14
3
0
13
0
4
50
0
0
18
0
8
0
2
0
37
0
0
34
0
35
0
27
16
0
0
22
0
18
0
0
0
0
54
0
9
0
11
0
0
0
0
0
0
0
0
0
0
0
0
13
0
0
0
3
0
0
0
0
0
0
0
0
0
25
0
0
0
0
0
0
0
0
0
16
0
0
0
1
65
32
17
0
0
42
0
0
28
24
67
105
0
0
0
0
10
1
33
0
4
0
17
0
0
0
0
2
14
58
0
0
8
57
0
0
0
0
59
89
0
82
0
25
4
20
0
8
0
0
0
135
35
13
0
0
36
45
0
0
0
60
92
105
0
0
74
43
0
18
39
13
2
14
0
0
12
0
63
7
0
0
52
0
2
0
35
0
20
0
5
0
12
5
12
22
6
0
9
0
5
14
0
39
7
0
12
0
0
0
0
42
3
0
0
0
0
9
0
0
26
13
0
0
0
0
0
0
0
0
34
0
0
5
0
2
0
4
0
0
35
4
0
4
2
0
0
5
9
0
31
0
0
0
0
0
0
1
2
8
0
0
0
5
20
0
0
2
0
0
6
0
0
0
0
4
13
5
2
2
0
10
0
7
0
6
3
33
2
2
0
8
15
0
0
2
0
212
58
19
0
0
0
14
0
6
0
0
1
0
17
0
0
1
8
0
0
8
0
0
12
0
0
0
0
10
5
0
11
0
0
12
1
9
0
15
11
29
2
0
15
2
37
0
9
0
0
0
0
11
1
0
22
14
32
0
0
0
9
0
17
0
41
0
0
0
0
34
198
58
0
0
1
0
0
8
0
4
56
55
113
0
33
37
0
0
0
0
105
54
0
30
0
30
0
0
31
11
95
65
199
0
0
34
22
0
0
178
0
0
0
0
0
56
112
0
127
0
0
18
0
0
17
0
13
94
41
11
5
0
19
0
0
0
130
190
87
0
0
0
51
0
0
0
0
0
16
10
1
0
11
17
5
0
89
78
33
25
0
37
45
136
0
0
0
70
0
0
0
0
0
104
255
66
0
0
55
0
0
61
19
0
22
0
0
0
0
0
0
71
38
0
0
71
82
0
0
6
0
2
0
46
0
0
0
29
30
107
0
0
1
32
0
0
40
169
0
57
0
84
24
26
0
0
30
0
1
0
22
37
6
33
14
0
0
31
11
18
0
0
0
0
24
0
19
0
20
0
4
0
4
0
27
0
0
40
0
0
11
0
2
10
2
0
30
8
64
60
27
1
21
0
0
0
0
6
0
35
25
0
43
5
2
0
0
0
0
0
0
6
0
5
0
0
14
0
0
0
0
0
0
0
0
0
0
0
4
11
39
10
0
32
0
82
0
0
0
40
27
9
17
6
144
0
0
0
4
28
0
0
0
0
0
0
60
0
0
4
0
0
0
22
0
0
53
52
4
0
0
0
98
0
0
64
0
0
26
43
0
18
0
0
0
21
16
0
0
0
0
39
0
0
0
24
59
78
0
0
4
86
0
8
40
0
0
6
20
2
0
0
34
2
2
1
3
0
0
2
0
0
11
0
18
0
0
14
0
0
0
0
10
0
4
0
0
29
3
18
19
0
18
8
13
0
0
20
6
19
0
6
0
0
28
0
11
0
3
6
10
32
0
0
1
13
0
1
2
13
0
0
0
14
0
0
13
16
4
0
13
0
8
0
12
1
17
1
6
9
0
0
8
9
0
0
0
0
5
0
15
0
7
17
18
0
4
0
11
5
0
3
0
6
3
2
0
0
3
0
2
12
0
1
3
3
0
14
4
5
0
212
51
0
23
15
0
51
0
1
24
1
0
19
34
44
14
0
24
2
11
26
0
0
60
13
0
0
2
0
0
13
11
28
0
0
0
22
0
2
0
0
0
0
0
19
0
0
1
0
9
15
13
0
19
16
19
0
2
0
14
9
0
21
33
2
56
0
0
0
0
211
151
0
0
0
0
0
0
0
0
72
8
37
0
0
47
21
0
0
0
0
134
0
0
32
10
30
0
0
110
0
0
0
0
0
17
124
12
0
0
134
83
0
29
15
0
98
147
0
156
0
12
61
44
11
13
0
0
19
128
50
61
25
4
0
0
38
79
159
108
0
0
10
0
108
0
0
0
17
19
35
44
63
0
10
0
0
43
142
53
46
6
54
66
41
0
0
78
0
0
0
0
23
148
253
194
0
0
0
8
0
5
0
0
23
7
0
64
0
0
0
0
41
0
41
0
0
6
0
6
59
0
10
0
1
39
0
15
0
0
67
1
0
0
60
0
0
22
255
0
52
22
0
8
0
0
0
25
11
18
0
10
0
0
0
0
4
0
53
0
0
0
10
21
0
3
16
14
0
0
45
6
0
0
0
0
0
25
27
0
9
14
0
17
11
11
0
0
0
19
0
50
42
57
3
36
6
0
12
0
13
26
0
0
4
25
0
1
47
20
35
23
26
0
1
0
17
0
0
0
0
0
0
0
0
0
0
10
45
76
0
16
10
0
24
5
0
0
24
0
5
4
16
9
78
134
0
0
0
8
0
43
0
27
0
22
44
3
0
0
5
20
18
0
47
7
0
39
47
0
0
0
0
123
0
16
0
13
0
24
45
1
0
0
31
0
138
164
0
0
0
0
23
0
0
0
44
66
88
2
0
0
150
0
0
27
2
0
28
0
6
18
0
26
7
4
0
0
13
0
49
0
0
0
0
0
2
0
32
0
18
0
1
16
40
0
0
13
0
0
6
0
5
3
9
19
0
4
19
0
0
0
23
14
0
10
0
0
11
23
0
0
22
0
0
0
27
0
0
25
0
19
0
8
17
18
39
0
0
29
2
1
2
0
0
0
0
0
0
0
0
0
19
0
0
0
8
21
14
4
0
6
0
4
0
11
0
1
0
9
0
0
2
7
0
0
0
0
0
7
5
4
4
0
5
0
0
10
1
0
17
0
212
54
0
0
10
0
0
7
0
0
30
0
0
14
0
20
0
0
0
0
2
0
0
70
11
46
0
30
34
0
6
8
3
19
0
18
0
9
7
0
6
28
0
0
27
0
0
10
9
0
0
2
5
0
6
7
8
10
0
0
15
4
0
0
0
0
0
0
2
144
148
3
0
0
0
0
22
9
0
0
26
71
65
0
0
63
0
48
0
0
68
43
0
5
41
0
0
0
58
36
0
31
50
0
0
0
87
0
0
0
0
213
0
0
0
0
120
175
0
88
0
0
0
93
0
36
0
0
0
0
0
42
101
88
35
3
56
0
5
0
110
108
0
0
204
0
91
0
37
93
52
0
9
0
17
0
0
0
158
100
40
43
39
43
0
0
28
85
0
0
0
11
0
218
255
0
0
0
8
1
63
0
2
32
0
0
0
3
0
0
73
0
48
0
58
0
0
25
7
0
38
0
43
0
33
40
0
0
31
18
70
24
0
0
0
0
0
0
185
0
14
7
45
31
0
5
0
0
36
0
0
31
4
0
16
0
41
0
40
0
0
0
0
6
0
11
0
0
0
15
18
0
0
27
3
0
0
19
0
20
0
8
7
20
0
20
3
12
17
0
0
7
0
25
35
14
56
20
8
10
38
7
21
21
10
51
0
48
7
0
0
8
44
0
0
0
0
4
2
9
0
0
38
0
64
11
32
71
29
44
0
3
0
0
0
20
19
33
21
6
0
43
3
59
96
0
0
0
0
0
15
0
0
7
0
32
61
0
0
19
0
27
0
0
36
23
0
125
2
0
17
0
0
152
0
0
7
59
0
24
49
47
56
0
0
0
0
140
0
0
30
47
9
0
0
0
0
63
68
56
0
0
149
0
0
51
16
0
14
0
12
10
0
24
0
0
0
13
0
0
0
0
16
43
0
17
8
0
0
0
11
0
3
1
7
0
0
12
0
8
0
0
0
0
0
0
14
0
0
12
20
16
0
6
0
13
16
7
0
0
0
59
22
0
9
44
6
1
10
0
0
0
10
9
0
0
0
8
0
0
0
0
10
0
22
0
1
12
0
15
3
0
10
0
14
3
0
0
0
0
0
0
30
4
0
11
0
0
0
0
10
8
0
0
1
0
4
0
0
7
0
0
4
0
3
0
0
0
0
0
3
0
211
56
4
0
19
41
0
30
0
23
0
5
0
4
0
0
0
0
7
0
69
10
8
32
0
41
0
4
13
27
19
0
0
0
0
0
44
0
0
0
27
2
13
0
0
26
0
0
1
24
35
0
1
22
9
0
0
0
12
0
23
5
29
0
0
0
0
9
215
134
32
0
0
0
4
0
0
0
21
26
18
121
0
0
0
41
0
23
0
0
26
9
0
26
65
0
0
23
37
0
0
37
0
0
0
0
172
18
0
0
0
166
0
0
0
0
125
212
0
38
39
0
0
66
0
22
10
34
0
65
0
0
4
0
0
38
3
0
0
0
104
197
0
0
105
0
122
16
0
94
41
13
0
0
36
18
0
0
0
121
45
70
16
61
0
0
61
0
0
0
1
92
53
248
11
0
0
0
28
0
25
27
1
4
16
46
0
57
0
0
19
84
0
13
5
0
0
2
2
0
30
31
0
41
0
57
0
0
0
1
64
52
0
39
28
0
0
79
111
0
0
0
2
13
0
11
35
0
63
14
0
30
19
0
7
0
4
10
25
0
15
11
0
24
0
14
3
27
0
0
20
0
19
22
0
18
0
26
0
12
0
2
0
28
0
23
20
4
33
0
36
0
0
0
1
0
27
38
8
0
9
0
8
0
35
41
0
51
4
0
0
0
46
38
44
22
94
22
57
91
0
0
141
31
85
69
17
92
23
28
0
18
0
18
38
16
0
0
29
0
0
34
0
102
42
0
0
16
0
40
0
35
0
42
2
0
0
45
7
25
8
0
0
0
57
0
0
65
0
15
0
0
0
86
0
0
49
0
0
78
0
0
59
26
0
0
33
138
0
0
0
0
27
0
0
47
0
103
72
73
0
0
124
0
0
32
29
0
9
0
28
0
0
42
6
0
0
0
0
0
0
9
0
0
26
22
0
0
42
17
0
0
0
23
0
15
0
6
0
15
0
5
0
0
21
0
1
0
5
0
0
0
0
20
17
2
0
0
0
38
7
0
0
0
0
16
0
0
7
0
0
0
0
0
21
7
20
6
15
0
3
45
0
0
0
0
18
2
0
0
0
0
2
8
0
0
8
6
8
4
7
0
1
0
11
0
12
21
10
21
6
3
26
0
0
1
11
3
9
0
5
0
10
0
0
0
1
1
9
6
10
0
211
57
13
26
0
41
0
0
11
0
20
0
0
24
58
0
60
0
0
0
29
0
0
27
0
43
0
0
0
0
9
2
12
10
15
0
1
0
0
1
1
0
15
0
0
0
5
8
7
0
0
0
17
12
0
16
5
25
0
0
26
21
0
0
0
0
14
58
176
28
0
0
0
0
35
0
0
0
0
0
109
75
0
0
30
37
0
77
47
0
46
0
0
0
122
0
0
98
0
0
0
70
0
0
0
0
144
0
0
18
0
135
130
0
0
0
76
219
0
25
0
0
0
0
0
46
82
49
0
0
7
0
0
0
0
97
53
0
0
0
0
128
152
0
142
0
0
30
0
28
52
25
0
0
39
0
0
0
0
152
80
63
17
0
0
27
0
0
0
0
199
63
185
219
0
0
0
27
0
0
0
11
0
33
0
0
0
0
0
0
0
0
17
0
2
39
0
0
0
15
0
59
43
0
0
55
0
0
0
0
21
0
0
0
0
0
0
16
122
0
0
96
18
0
36
0
0
0
13
18
0
5
30
3
22
11
0
0
50
0
0
0
0
60
0
33
0
0
38
0
0
7
0
15
0
10
0
22
0
37
11
2
0
0
0
41
19
0
15
0
1
26
7
0
1
18
2
0
29
0
0
0
0
0
19
0
0
38
8
0
53
12
0
62
114
91
104
0
83
119
23
47
138
56
34
81
72
74
18
31
0
0
0
0
0
0
21
0
48
0
0
0
17
114
0
0
0
0
0
0
1
12
29
0
0
12
28
0
0
0
0
0
57
0
23
0
0
0
0
0
0
0
0
162
0
0
13
14
0
39
14
0
0
0
0
31
0
93
19
0
0
0
47
0
0
14
0
133
57
58
0
0
104
0
0
21
19
0
17
3
0
0
0
0
0
0
0
31
8
15
11
0
0
19
0
15
12
0
18
0
25
0
31
0
0
0
0
0
0
53
0
13
11
0
4
55
16
0
0
8
6
26
0
5
17
5
15
13
16
20
0
5
9
17
0
0
0
19
35
32
0
0
3
0
0
18
0
18
0
0
21
0
0
7
20
0
4
0
0
0
5
0
0
0
0
0
0
2
0
0
0
0
0
3
3
0
0
0
0
0
9
0
0
0
15
0
12
0
0
0
8
0
5
0
21
2
0
3
0
0
15
0
208
53
0
0
0
19
0
0
52
0
22
14
45
39
0
10
0
33
0
5
0
16
0
0
0
17
0
0
19
14
17
0
8
0
1
0
12
0
0
37
22
7
0
5
25
13
0
0
43
0
7
0
5
0
0
21
6
0
26
0
0
27
0
0
0
28
75
118
84
0
0
0
0
0
27
0
0
0
65
30
153
0
0
0
64
0
11
100
0
0
0
0
0
110
231
0
0
43
0
0
0
52
0
0
0
12
148
11
0
0
0
96
197
0
0
0
121
216
0
26
40
0
0
0
31
0
0
74
27
88
52
27
0
0
12
52
0
0
0
0
1
5
106
0
0
94
0
42
0
4
44
0
12
15
23
0
0
0
0
119
143
0
0
0
0
38
0
80
7
95
140
134
227
0
0
0
42
56
23
53
22
6
0
18
0
55
0
0
53
3
22
0
9
61
0
60
29
0
0
0
0
0
14
0
18
47
0
19
28
0
70
50
18
0
8
0
0
0
95
0
0
95
0
9
25
0
0
0
0
0
0
0
5
0
0
18
0
0
38
0
5
36
0
13
0
24
0
5
23
0
0
17
0
0
0
27
0
0
47
0
0
4
0
4
0
0
3
5
0
1
0
0
1
0
3
21
15
0
30
17
33
8
0
0
0
0
0
27
0
0
23
48
0
0
0
0
65
0
35
41
0
0
0
61
0
33
34
23
64
0
0
0
26
0
6
0
26
41
27
0
0
23
142
4
0
0
32
21
21
0
5
0
0
17
0
12
46
0
0
0
0
0
70
0
37
0
61
0
36
9
0
33
0
188
0
0
34
0
0
23
3
0
0
0
43
86
0
87
83
0
0
0
8
0
0
17
0
161
32
40
0
0
91
0
0
37
22
0
0
8
6
5
0
16
18
0
4
0
0
4
23
15
0
20
4
0
0
0
22
0
16
30
0
0
33
0
2
6
14
0
0
0
19
21
0
0
0
7
16
11
7
0
0
0
32
17
0
3
0
0
21
0
14
22
33
0
24
0
0
0
0
0
18
13
16
4
0
13
0
19
2
0
0
0
6
0
6
7
0
5
18
0
11
0
2
22
0
4
7
14
6
0
4
10
2
1
0
4
0
8
7
8
16
0
16
0
7
0
7
4
0
8
12
0
0
9
3
14
7
0
10
13
207
53
0
13
20
0
0
20
25
0
19
0
11
0
0
0
10
44
0
0
0
0
46
21
27
0
31
0
0
0
0
9
5
48
0
0
0
0
22
0
0
4
1
0
0
7
10
0
0
9
21
0
20
0
0
0
11
0
0
0
21
8
0
0
0
68
80
29
0
0
0
2
2
0
0
0
0
0
0
84
85
0
0
0
23
0
87
25
0
35
61
0
0
235
184
0
59
0
0
0
26
67
0
0
0
131
97
0
29
0
0
0
215
0
0
0
157
160
27
0
10
0
0
0
0
19
0
0
0
77
110
81
0
0
0
76
0
0
132
0
0
30
24
0
0
140
0
10
0
24
49
11
0
28
0
0
29
0
65
162
181
0
0
23
14
0
0
94
5
85
62
133
25
0
0
11
1
0
0
11
1
0
0
0
1
4
3
0
35
0
28
0
0
60
0
0
39
0
0
0
0
9
28
0
0
58
19
13
0
7
45
0
22
0
0
0
2
0
80
33
0
156
0
55
66
0
0
10
33
0
41
23
0
18
17
43
0
21
14
0
2
0
0
0
32
0
5
0
28
0
6
49
0
1
0
21
0
0
30
0
23
1
0
0
27
19
4
26
26
0
20
27
25
0
0
0
0
0
0
9
36
34
7
66
0
0
4
2
0
0
21
0
15
0
0
0
0
0
19
0
0
0
0
1
0
19
0
0
34
8
0
6
40
12
0
38
2
15
0
18
0
91
118
0
0
0
40
0
28
0
17
0
0
135
0
0
32
0
0
1
0
0
8
0
10
83
17
0
0
0
0
0
0
207
0
0
97
0
35
26
0
60
22
0
30
0
3
64
111
0
0
11
0
0
0
38
0
105
87
0
0
0
27
13
0
53
19
0
19
28
0
0
0
13
16
19
0
0
28
0
0
0
0
4
0
32
0
8
28
0
19
0
0
19
2
0
47
0
0
33
1
0
0
9
8
0
34
0
9
3
0
0
9
0
11
0
9
0
9
0
41
0
0
19
0
19
0
0
9
54
0
0
7
10
11
7
21
16
0
2
3
11
16
0
1
4
1
0
0
12
17
0
0
2
0
0
0
0
0
0
12
0
0
0
0
0
15
2
0
14
11
0
3
0
2
0
4
5
4
0
0
0
5
0
18
0
2
3
0
0
0
0
208
58
15
4
0
0
0
0
0
3
19
0
47
18
36
44
0
3
0
28
0
0
48
0
0
0
0
0
3
44
5
3
4
0
0
7
42
0
14
0
21
37
0
1
26
15
0
0
30
0
0
0
0
8
0
0
10
0
0
24
75
8
27
21
0
110
35
0
0
0
0
0
0
1
0
0
3
40
0
164
12
0
0
37
7
0
8
0
0
35
129
0
0
255
61
0
0
0
0
0
0
0
0
0
58
99
102
0
80
0
0
0
231
0
0
0
161
96
36
0
90
45
0
0
0
131
0
0
0
0
0
184
106
50
14
0
0
0
14
3
0
0
0
0
0
122
0
13
0
0
116
18
0
23
0
0
43
69
77
224
0
0
0
20
0
16
0
43
118
0
153
4
0
0
0
9
53
12
0
0
12
12
50
23
0
0
5
0
1
0
11
0
0
16
0
7
0
0
17
11
0
0
0
46
0
0
0
1
0
17
0
21
62
30
0
0
0
0
0
40
0
93
0
0
46
0
60
32
0
6
25
0
5
23
0
27
0
38
0
0
0
8
0
36
0
13
1
0
0
2
0
21
0
0
0
12
0
19
50
0
30
1
0
29
19
0
0
0
0
0
22
0
0
0
0
48
0
0
3
0
0
0
24
6
32
0
0
0
5
0
46
7
0
0
6
27
0
0
0
20
0
0
0
0
0
5
0
22
0
0
0
13
1
0
0
4
0
26
0
15
26
114
0
0
31
0
0
0
32
0
25
1
0
45
0
0
21
0
18
8
0
0
47
0
0
122
0
0
9
0
43
0
0
183
0
0
74
0
66
98
0
0
0
0
68
0
0
101
70
0
0
41
0
45
0
63
0
87
81
12
0
0
0
71
0
56
10
0
0
1
12
0
8
6
0
0
0
8
0
9
25
11
6
55
13
11
0
1
0
0
0
0
0
2
0
0
12
1
0
0
3
14
12
50
0
2
5
0
2
7
0
35
0
26
11
0
12
2
2
2
16
0
0
0
0
0
21
0
0
4
0
0
0
6
6
0
2
15
0
19
0
14
1
0
2
6
3
0
0
3
0
0
9
0
18
21
0
19
0
3
7
0
2
12
4
0
0
0
0
0
2
0
13
0
17
0
5
8
0
0
0
16
0
0
29
0
0
0
0
10
0
8
205
58
3
7
0
0
35
0
22
0
0
0
29
0
0
32
0
0
0
0
0
0
22
0
12
30
14
0
0
16
1
14
14
12
0
0
0
0
29
0
9
0
0
3
11
0
0
0
31
0
16
0
8
15
33
1
11
26
0
0
26
114
173
46
29
0
0
0
0
0
0
1
0
19
0
0
0
39
177
32
0
0
0
0
17
108
0
0
0
0
122
0
83
224
0
0
50
24
50
48
4
33
0
0
23
103
102
0
0
185
3
0
191
93
0
0
201
126
0
0
35
195
0
0
0
11
10
36
57
0
0
0
110
105
14
0
7
147
0
73
0
57
0
0
0
81
70
11
17
0
40
83
1
0
0
0
86
180
121
211
0
0
52
0
0
172
0
204
87
0
53
0
0
0
20
0
0
0
0
0
0
0
0
0
39
17
0
0
1
0
26
9
8
40
0
79
8
25
1
0
0
0
7
109
51
0
0
0
0
8
0
47
0
0
0
0
0
47
65
130
0
27
26
46
24
0
0
0
0
44
12
2
0
27
0
8
0
37
0
5
0
20
0
23
0
0
5
30
12
11
0
27
31
22
0
12
10
0
0
0
14
3
0
8
1
15
10
0
0
0
8
3
0
7
4
31
0
7
0
0
0
0
19
0
21
5
28
11
0
0
0
30
0
0
11
0
0
26
8
0
0
16
0
24
0
0
0
55
0
0
0
3
0
20
0
28
42
0
0
16
46
18
0
0
0
14
38
5
23
0
0
0
0
69
0
0
36
1
29
4
0
27
33
0
0
67
0
0
0
0
7
0
0
199
0
0
20
0
107
0
0
0
0
10
69
0
0
35
145
0
0
6
0
46
0
3
0
92
69
0
0
0
0
48
0
59
13
0
10
11
0
0
20
0
18
0
0
4
10
0
0
12
0
0
0
20
0
11
22
0
25
5
0
18
0
0
0
22
0
0
0
15
0
12
0
9
0
21
0
7
0
28
0
0
5
0
0
0
0
17
0
16
46
6
18
13
36
0
11
14
0
0
0
5
0
19
21
7
8
4
0
2
0
3
8
0
1
16
0
13
0
3
6
0
0
0
5
5
0
0
3
3
0
0
0
5
4
9
14
0
1
2
3
0
0
0
0
0
0
0
11
0
0
0
6
4
0
8
0
2
0
0
206
60
43
19
0
34
0
0
23
24
26
0
12
14
8
0
0
21
0
0
10
0
3
11
11
0
0
0
0
0
13
3
0
15
0
40
18
18
11
2
0
14
0
9
12
0
8
0
0
3
0
10
0
0
4
3
0
17
0
8
0
6
14
0
2
0
0
0
0
0
0
0
7
0
0
0
39
133
94
0
0
0
0
21
58
16
0
0
0
0
0
0
164
178
0
0
0
0
0
49
0
11
0
0
22
137
13
0
0
213
62
0
120
65
0
34
255
56
0
0
0
186
72
0
0
30
0
0
107
0
0
0
0
145
124
0
25
255
0
136
0
103
7
33
0
11
159
21
44
0
0
107
14
0
0
0
82
94
123
40
0
0
2
0
140
0
0
255
79
167
0
0
50
3
47
48
39
59
13
62
25
0
69
3
2
0
31
0
19
0
0
25
8
0
0
0
0
23
19
0
5
0
0
0
44
0
0
0
14
40
10
96
0
0
0
11
1
33
20
81
0
90
63
6
0
0
30
0
0
0
10
2
26
40
0
19
19
0
0
11
0
0
0
9
0
0
0
32
0
0
0
7
0
0
0
0
0
44
18
0
16
0
30
0
0
24
0
34
0
5
0
19
0
12
0
20
0
2
0
20
0
20
0
0
0
28
0
37
0
64
0
0
6
0
1
26
0
8
0
12
0
0
11
12
0
27
0
0
0
0
19
32
29
2
0
12
23
0
0
49
76
76
0
0
45
0
3
0
5
0
0
0
27
70
0
0
0
0
2
0
0
82
0
0
12
85
0
0
60
0
0
0
0
150
0
0
49
0
113
0
0
73
0
17
0
0
0
127
125
0
0
72
0
0
0
0
1
69
83
0
40
0
6
86
0
62
21
0
0
33
0
17
2
0
11
17
0
11
0
0
0
0
5
22
0
21
10
0
0
6
0
26
0
35
0
30
0
0
35
7
0
9
0
14
27
0
8
0
0
4
0
12
28
0
10
0
22
30
15
13
0
18
0
4
0
0
0
17
0
0
0
0
9
29
0
31
17
17
20
12
9
7
0
2
0
0
0
3
0
0
1
0
1
9
0
17
6
10
15
0
0
0
1
2
0
7
0
0
10
0
12
8
11
8
3
1
12
15
4
1
6
0
0
1
2
0
0
0
0
6
0
10
205
52
0
0
0
0
33
10
0
0
0
27
0
24
0
11
0
0
16
0
23
26
40
0
0
27
123
0
0
0
23
0
0
0
19
0
0
0
0
1
0
14
0
15
0
4
0
2
0
18
7
0
18
31
0
26
0
0
22
0
0
10
0
0
14
0
8
0
0
45
0
31
5
0
0
70
99
142
0
0
0
0
0
24
57
77
6
0
103
0
0
0
188
125
1
0
0
0
0
30
14
0
32
0
94
146
0
0
0
99
84
0
27
63
0
81
217
0
0
52
0
165
233
0
0
0
7
41
137
0
0
0
40
0
143
85
0
68
0
187
47
96
6
99
0
0
141
2
89
82
0
90
0
0
0
0
76
0
137
0
0
5
0
48
27
0
162
148
36
15
0
0
0
19
0
0
0
0
0
0
0
23
0
0
0
48
0
41
0
14
0
33
0
0
0
0
0
0
0
0
0
0
0
0
33
43
20
0
62
9
0
5
0
0
1
0
0
0
38
94
0
0
69
0
45
0
0
0
23
0
0
0
19
0
12
0
24
0
0
0
16
0
21
0
36
0
0
46
0
0
0
32
0
39
25
6
25
0
9
0
0
0
2
0
0
0
0
12
0
8
21
0
0
45
0
7
13
7
16
7
0
30
0
15
0
0
0
19
8
11
0
2
33
11
0
2
0
21
7
44
8
41
38
18
0
0
0
0
0
0
6
14
13
0
7
0
43
0
49
84
0
0
0
0
0
4
17
0
55
25
7
0
58
38
5
38
5
81
9
0
5
45
0
0
0
46
0
21
0
0
0
0
8
152
0
0
67
0
124
42
0
46
0
29
0
0
0
72
142
0
0
50
44
41
0
0
77
36
85
0
52
0
0
74
0
44
9
0
0
27
0
60
0
0
0
30
0
0
3
3
48
0
0
3
2
17
0
0
9
4
8
19
0
32
0
28
0
19
0
0
1
17
3
0
6
13
0
0
0
17
0
0
0
2
18
0
0
0
13
0
1
39
0
28
15
0
17
17
0
0
25
0
0
0
0
28
1
0
0
4
1
0
0
7
0
0
9
6
0
25
0
3
0
9
6
5
0
7
0
0
0
0
0
0
2
14
0
1
11
0
6
1
0
0
0
0
0
0
0
0
0
9
0
0
0
0
0
0
17
0
3
0
205
48
0
7
0
8
0
22
0
13
0
0
0
7
0
11
0
6
0
0
0
0
12
7
9
0
1
0
4
0
34
9
14
0
0
0
9
0
0
6
12
10
13
0
8
3
0
21
2
11
0
0
0
13
0
0
0
6
0
21
18
32
0
0
0
16
0
0
20
0
0
16
0
0
0
33
144
0
0
0
23
0
16
97
51
0
21
0
0
0
0
15
205
114
0
0
0
63
29
53
9
0
0
7
112
101
0
0
0
0
111
0
28
18
0
161
204
0
0
64
0
52
219
47
0
0
0
69
126
10
0
0
0
0
0
184
116
0
0
133
21
43
5
110
0
0
2
62
166
185
0
54
70
0
0
0
10
58
176
0
0
11
94
85
0
179
184
0
0
0
0
0
27
6
20
5
11
10
0
7
27
33
25
0
0
148
0
17
5
0
0
8
0
36
36
2
0
53
30
38
5
19
32
0
17
2
15
0
8
23
54
53
79
20
55
0
0
17
0
112
0
0
115
0
52
15
0
14
61
9
0
12
25
0
3
0
0
0
0
9
35
0
49
0
43
19
0
28
0
23
0
37
10
0
0
3
0
8
0
14
37
8
6
16
3
0
11
0
0
2
31
0
0
0
3
0
0
18
0
0
6
10
0
0
5
0
0
0
0
0
9
0
11
40
0
4
29
36
46
0
0
0
0
0
5
0
0
0
46
45
10
9
6
0
54
1
1
17
122
0
0
65
0
0
0
45
0
0
0
30
2
0
53
0
0
0
6
69
0
0
45
9
0
4
58
0
25
0
6
0
0
0
0
69
0
0
68
0
97
48
0
62
79
0
2
0
0
28
207
0
0
28
0
15
0
0
0
9
101
13
45
0
0
101
0
72
3
0
1
35
0
21
0
35
5
3
0
28
0
0
0
14
13
0
0
25
0
39
13
0
12
0
0
0
0
0
2
0
11
13
15
0
0
0
0
0
22
2
0
2
0
26
0
0
0
0
24
0
25
0
0
5
0
0
0
0
0
48
0
9
0
0
0
23
7
32
0
7
16
7
0
11
13
2
4
1
6
0
0
5
0
6
5
0
10
0
0
0
4
0
17
0
13
7
0
7
5
0
4
0
5
0
17
0
3
0
3
0
8
0
2
0
15
0
0
10
0
19
0
0
0
0
206
65
91
0
8
0
0
0
0
20
0
59
49
1
12
44
0
0
11
0
10
0
0
48
35
0
0
0
33
0
9
0
33
4
5
15
8
10
0
4
0
15
0
0
14
0
0
0
6
3
0
26
0
21
0
9
19
9
36
0
0
5
27
5
19
21
0
19
0
1
0
0
0
0
60
120
106
0
0
0
0
0
33
92
35
0
0
0
48
0
0
39
216
144
0
0
0
18
3
0
0
0
0
98
140
64
2
0
26
0
138
6
20
0
0
185
186
0
92
32
0
0
79
147
0
24
28
38
33
24
0
75
0
7
0
28
124
66
15
78
0
0
0
114
89
0
0
66
101
41
0
81
122
0
0
0
18
107
153
0
37
0
247
0
116
249
170
0
0
0
3
0
16
24
0
33
0
0
8
34
0
24
17
82
2
47
4
1
0
41
47
63
0
10
0
21
0
0
37
3
2
58
0
0
24
65
40
0
0
0
20
0
13
0
24
0
0
0
0
57
0
0
122
29
58
0
0
41
10
3
0
12
0
24
16
35
23
0
6
0
0
6
24
0
24
0
0
0
0
0
0
0
9
13
0
0
0
20
20
0
0
0
5
40
0
15
33
9
1
0
0
4
3
0
7
0
4
0
32
2
0
42
37
0
7
50
0
0
0
0
0
0
0
0
0
0
5
0
36
0
0
0
12
0
0
0
0
45
49
0
46
3
1
0
0
0
19
46
94
0
106
0
7
2
0
0
18
6
0
0
0
0
28
0
0
0
16
4
0
23
24
0
0
0
0
12
32
0
0
0
3
10
57
29
0
0
108
0
75
12
0
85
0
0
0
0
0
0
127
0
0
0
0
0
0
0
45
29
27
39
3
0
21
47
0
33
17
0
3
10
0
44
0
13
6
0
0
10
0
25
0
0
0
0
0
0
8
0
19
6
6
8
2
0
4
13
15
0
7
0
0
8
0
29
1
0
0
0
30
0
0
5
28
0
0
0
9
0
8
0
0
0
10
0
18
0
0
25
0
0
0
0
21
0
13
46
13
6
20
0
6
0
17
0
0
0
5
3
0
5
0
3
4
0
6
1
0
0
17
0
10
0
0
12
0
9
0
0
0
8
0
0
0
0
12
0
7
0
0
0
0
4
0
0
0
7
0
0
0
10
6
0
208
57
19
0
11
13
15
15
0
0
0
39
0
18
0
46
0
63
4
0
0
23
16
12
7
0
4
0
0
8
13
0
0
10
0
2
10
0
0
25
10
2
0
17
15
0
16
16
0
0
0
6
0
0
0
14
0
0
10
0
4
18
0
5
0
22
0
30
0
0
0
11
0
0
38
207
0
0
0
0
28
0
17
65
13
0
0
0
40
0
0
0
209
137
0
0
0
28
14
37
1
0
0
144
0
0
0
0
0
0
0
40
98
0
0
233
168
0
130
0
0
0
0
175
0
0
0
21
147
17
0
0
0
80
0
0
0
97
134
9
6
0
0
43
229
141
0
87
97
43
0
132
124
0
0
0
17
149
95
26
0
129
0
0
255
222
0
0
0
0
2
30
0
0
0
4
33
50
15
0
0
0
0
0
0
0
0
0
5
0
0
0
35
0
0
8
0
0
0
21
0
0
40
0
0
0
29
42
0
60
0
0
50
0
0
0
1
0
0
90
61
0
14
6
0
0
0
3
0
0
0
36
0
0
25
0
33
18
0
0
0
13
0
0
0
38
0
0
28
0
0
0
7
1
0
7
0
23
0
0
1
29
0
0
0
0
0
12
0
0
0
35
22
26
12
0
15
0
16
0
0
0
9
0
0
0
0
16
4
36
0
0
0
0
0
0
0
0
0
0
0
0
0
0
0
0
9
74
0
0
9
0
0
24
54
35
44
127
0
0
186
0
0
0
40
0
0
0
5
17
30
7
0
0
0
24
49
0
0
68
0
0
0
19
0
0
0
44
0
0
0
46
146
27
0
0
87
0
126
72
0
60
0
0
17
44
0
55
83
0
0
10
0
0
0
0
18
59
18
63
3
0
0
76
0
44
0
0
0
0
22
6
0
14
0
0
8
0
0
5
7
0
11
0
24
26
0
0
0
0
24
0
20
0
0
13
0
1
3
0
0
0
0
0
0
0
12
44
0
24
0
0
12
0
30
0
18
0
11
12
29
0
5
22
14
11
24
0
0
30
0
0
0
0
0
31
0
5
10
12
8
0
0
0
1
9
0
0
0
0
6
0
0
0
11
8
1
2
3
0
7
1
7
15
0
23
7
2
0
14
4
5
0
0
0
0
0
1
0
0
4
0
10
9
7
7
5
0
0
8
11
0
210
50
0
0
0
0
28
0
36
0
27
34
0
0
0
0
0
0
0
0
2
1
5
23
0
0
0
0
0
0
13
0
14
62
0
0
9
0
0
21
0
0
16
0
2
0
0
3
0
7
29
19
0
10
40
0
8
18
0
6
13
1
5
12
0
37
0
3
0
0
0
0
0
0
29
203
0
0
0
5
38
20
14
78
0
0
0
0
42
0
4
0
203
61
0
0
5
5
45
10
18
0
6
112
73
0
0
2
5
0
0
0
9
0
0
216
100
0
176
0
0
0
0
174
101
0
0
0
66
60
0
1
0
82
0
0
98
105
0
77
48
37
0
0
72
66
0
46
108
39
0
34
141
0
0
51
76
135
0
0
0
98
0
178
255
70
0
0
0
0
0
0
0
0
0
7
0
0
0
0
0
24
44
0
80
31
63
0
0
0
4
23
14
1
40
48
0
158
0
26
0
0
52
118
0
0
82
0
0
18
0
33
15
0
0
9
0
0
0
61
40
0
18
94
56
0
0
0
42
24
12
3
0
0
4
3
41
22
12
21
0
32
0
0
0
23
12
13
0
0
36
0
0
9
27
6
0
0
0
11
0
35
0
1
32
1
43
6
35
9
5
0
0
0
0
0
11
0
0
0
3
14
0
0
5
31
20
0
19
0
0
0
0
0
0
0
0
10
0
0
0
0
10
37
47
50
43
9
22
31
0
0
0
0
0
0
115
25
0
0
167
0
0
0
0
0
65
0
28
0
0
0
33
0
0
18
0
0
109
21
0
0
82
3
0
28
0
107
0
0
0
0
186
0
0
0
26
0
59
116
0
0
24
8
0
0
0
0
101
0
0
52
138
5
7
0
33
15
70
85
8
0
0
88
0
23
0
29
0
0
48
20
0
3
22
13
9
0
12
36
11
7
0
0
0
0
0
10
23
0
5
0
0
8
33
0
10
21
6
0
23
0
5
15
0
11
0
1
0
20
0
2
0
25
0
10
1
2
0
0
0
13
0
13
0
14
0
0
6
0
0
0
0
16
0
57
0
17
13
9
4
8
6
6
0
0
5
1
29
7
13
0
15
4
0
0
0
12
0
2
11
4
1
0
0
3
0
0
1
11
0
0
0
0
0
6
0
8
0
13
8
4
0
4
0
0
0
9
19
0
9
0
210
54
42
16
7
0
3
13
41
7
0
0
12
14
0
0
0
0
0
0
0
0
11
0
13
0
4
0
0
12
16
5
9
0
0
0
20
0
0
0
6
5
31
0
1
18
11
0
32
0
0
0
40
1
0
3
0
14
0
9
17
0
11
0
3
22
0
39
0
0
0
31
0
0
49
191
0
0
0
0
13
99
65
33
0
0
0
0
0
0
0
77
205
0
12
0
0
7
0
8
0
0
55
114
70
0
49
35
0
17
0
0
0
0
52
210
0
0
202
7
0
0
0
113
169
0
0
35
59
38
0
26
0
16
0
47
181
0
0
32
76
23
97
0
16
8
0
11
67
49
0
0
159
0
0
56
117
165
0
0
166
0
192
230
0
0
0
0
12
23
0
41
62
59
37
0
20
0
25
0
6
0
0
0
23
0
0
0
31
0
21
7
2
0
0
0
0
0
0
0
0
0
0
0
0
0
0
0
0
10
0
0
12
0
0
34
0
0
0
25
25
0
0
9
67
0
35
0
63
0
5
19
0
0
5
0
0
0
0
0
0
41
0
9
0
7
0
0
0
11
0
8
0
2
0
0
3
26
0
0
0
23
0
3
0
0
0
2
11
0
8
41
5
0
0
38
0
14
0
0
0
33
0
0
8
0
0
0
45
0
26
15
0
0
0
15
0
0
16
22
5
56
0
42
0
8
0
0
29
9
0
0
0
42
22
39
175
0
0
0
183
0
0
16
0
26
0
0
13
0
33
0
82
12
31
22
0
0
122
0
0
0
38
0
33
3
6
104
0
0
0
0
197
28
0
46
53
0
107
36
0
0
71
0
0
82
0
0
147
0
0
89
0
0
0
0
22
0
113
28
16
0
0
73
0
32
0
0
0
3
10
17
0
9
0
28
8
0
2
2
0
12
5
30
20
23
0
0
26
6
0
21
15
16
0
0
13
0
18
0
1
23
1
3
5
13
0
24
0
0
0
19
20
0
0
0
10
0
20
31
0
31
0
0
0
0
64
0
0
0
0
0
0
0
16
25
7
18
3
2
3
0
0
0
2
0
3
0
4
0
0
0
0
0
0
18
2
0
0
0
0
0
1
8
0
10
0
0
0
0
0
0
0
0
0
11
0
18
4
3
0
21
2
4
0
7
0
7
0
8
12
0
213
45
0
0
0
0
14
0
0
4
0
22
5
0
0
0
17
0
0
0
43
154
0
3
20
0
0
5
13
1
0
0
3
0
16
6
0
0
0
36
0
24
0
0
3
0
0
0
0
0
10
15
0
0
9
0
0
0
17
0
6
6
26
3
22
4
14
0
0
0
0
0
0
0
87
212
0
0
0
0
49
0
0
0
0
93
0
0
0
7
0
119
188
0
0
0
32
16
6
0
0
0
34
21
0
0
0
56
10
37
0
0
0
0
87
242
0
0
176
12
133
0
0
0
197
9
0
98
0
59
0
0
2
32
116
90
9
0
0
15
0
0
107
0
0
0
0
98
119
104
0
0
104
0
0
0
115
102
0
0
38
0
255
82
0
0
18
2
51
0
4
8
0
7
0
25
28
0
9
21
35
2
25
17
61
33
13
28
19
32
12
1
39
31
11
48
73
0
28
0
8
32
48
41
32
31
8
39
45
65
0
15
40
52
42
30
0
36
0
45
32
0
0
52
69
11
5
0
7
13
86
71
0
46
26
33
0
46
25
41
0
31
34
9
12
12
0
43
0
19
5
13
12
15
0
0
0
3
34
29
0
5
0
19
37
0
15
1
0
18
3
8
0
0
36
0
0
42
2
2
27
18
0
0
0
0
5
0
6
0
24
0
11
15
12
54
0
41
0
6
19
0
14
13
4
0
48
43
6
0
0
3
23
0
32
113
12
0
0
0
129
0
0
3
0
0
0
0
43
0
0
0
61
0
0
34
0
0
18
61
0
0
6
0
0
0
0
69
0
0
0
0
163
0
0
5
0
0
59
79
0
0
44
0
0
0
0
0
112
67
0
0
0
14
0
0
5
36
115
4
18
0
0
91
0
19
0
12
0
21
0
0
0
20
1
5
0
0
0
13
0
0
0
0
0
12
0
29
0
0
23
0
0
15
13
21
0
4
13
0
3
11
0
5
10
0
0
0
22
0
13
0
0
0
0
6
9
6
0
0
6
39
0
40
7
0
0
0
12
29
0
0
0
11
0
8
8
10
0
3
3
13
0
3
20
0
1
1
17
7
0
3
3
23
0
0
0
0
0
11
2
1
14
0
9
3
12
0
0
22
0
0
13
0
0
5
0
1
0
0
0
0
8
0
16
7
4
2
6
0
0
1
212
62
88
3
0
32
11
0
18
0
15
0
0
27
20
0
29
0
0
0
0
48
0
28
0
52
0
6
0
12
8
3
0
21
0
0
0
0
19
0
7
6
17
20
0
25
2
9
5
0
0
0
7
22
12
5
16
13
3
17
0
0
17
0
35
18
0
46
2
0
7
0
0
0
67
134
0
0
0
5
27
0
11
37
15
56
0
0
10
0
0
137
103
0
39
0
25
22
0
0
0
0
45
102
68
0
0
42
55
0
0
0
0
130
76
215
0
0
94
0
234
48
0
0
128
140
0
11
0
0
11
0
41
122
141
0
0
0
0
141
26
0
130
47
0
0
0
72
106
74
0
0
172
0
0
0
75
120
3
71
0
211
196
21
0
0
19
0
31
0
0
9
0
0
3
0
7
0
0
14
9
0
0
0
16
16
0
0
0
0
0
34
24
0
0
0
6
0
0
36
0
0
12
0
0
0
0
0
0
0
0
0
11
0
10
41
0
0
0
21
27
0
0
66
0
24
0
0
0
0
0
0
0
36
0
17
0
0
0
25
0
0
0
0
8
11
0
0
12
0
0
0
20
17
0
0
0
13
0
0
0
12
0
10
0
0
13
18
0
6
0
0
0
0
0
12
0
0
0
0
3
0
0
0
1
43
0
17
5
19
0
0
31
0
41
5
7
2
15
54
0
0
15
23
0
0
25
0
17
0
0
4
39
2
38
137
0
0
0
110
18
0
116
26
0
0
0
0
14
28
0
10
37
0
0
51
0
0
0
7
0
0
4
31
52
0
0
40
0
0
0
0
175
11
0
80
52
0
81
16
0
0
11
0
6
8
0
9
44
51
0
0
0
38
22
0
0
35
52
32
0
2
0
55
0
0
0
0
0
59
3
0
0
9
0
28
1
0
0
0
0
0
25
0
9
9
0
3
0
11
0
0
22
39
0
4
0
0
0
0
8
2
0
1
0
22
0
0
27
0
20
0
0
37
12
0
0
8
16
0
0
4
0
0
14
0
0
0
0
20
0
0
0
9
28
36
0
47
9
3
1
10
0
0
6
8
0
0
0
5
0
17
6
10
0
0
0
13
2
15
0
0
0
0
0
0
0
7
8
0
0
0
0
3
3
12
3
2
0
10
16
0
0
0
5
0
2
9
0
12
0
9
209
53
0
0
0
0
0
31
0
0
0
18
0
0
10
11
5
0
0
6
5
27
17
41
6
3
0
9
0
0
30
24
0
0
27
0
6
0
7
0
18
0
0
0
0
17
0
27
0
6
0
0
18
0
0
23
0
8
0
10
51
11
22
16
0
3
0
0
0
0
68
0
0
0
20
113
55
0
0
12
3
0
59
40
0
0
0
0
46
0
0
111
61
0
3
11
0
0
28
0
0
0
63
108
0
0
0
23
83
0
25
101
0
0
85
255
0
0
144
0
25
193
95
0
0
202
72
0
51
0
22
0
83
108
39
0
0
28
0
144
112
0
174
79
0
0
0
0
112
65
0
0
153
0
0
17
116
87
4
0
174
189
0
0
0
0
0
0
0
0
6
54
40
0
7
36
0
0
0
0
51
0
0
0
23
1
0
30
0
39
0
97
0
0
0
0
0
20
0
0
0
0
0
7
7
11
28
0
31
0
13
0
38
0
19
4
0
0
28
0
17
26
0
36
0
77
0
10
0
0
7
30
1
0
0
0
14
23
0
6
46
3
0
21
4
24
0
24
0
0
26
0
17
13
0
25
10
38
15
22
0
29
39
0
0
0
0
14
0
0
18
0
0
44
12
0
0
0
0
1
11
12
10
0
0
10
29
8
0
0
0
26
0
0
31
0
21
9
0
4
0
20
1
4
20
17
0
0
0
0
0
7
0
8
137
0
0
0
0
166
22
0
17
0
0
0
0
17
36
0
0
0
13
15
0
80
0
0
0
17
58
0
0
0
23
0
11
96
0
0
0
0
158
28
0
14
0
0
98
14
42
2
39
0
7
0
0
10
47
42
0
0
0
33
22
0
0
87
59
53
14
37
0
36
30
6
0
0
17
16
19
0
0
21
0
0
8
3
8
6
24
0
17
0
0
14
3
0
5
10
35
6
0
18
0
21
0
9
17
0
21
0
0
20
2
13
0
0
20
9
6
0
35
0
6
8
0
0
17
45
0
41
0
0
14
0
0
22
25
0
6
0
0
11
36
2
0
0
0
10
1
0
0
0
0
0
5
12
2
15
0
0
8
0
0
1
4
0
0
35
0
0
0
0
10
0
1
0
0
0
0
8
20
1
0
2
5
12
8
0
2
3
0
1
2
2
10
0
0
15
0
3
209
52
10
0
51
8
40
0
0
0
0
0
0
0
0
0
0
0
0
31
5
30
16
0
19
0
0
0
0
50
0
0
19
1
22
0
24
0
13
0
13
27
0
18
12
0
0
0
11
9
1
0
0
38
0
14
11
1
0
0
0
0
0
3
34
26
0
0
0
0
0
9
0
0
23
50
22
0
0
87
0
0
65
38
0
0
0
54
42
0
0
166
0
0
79
52
0
24
0
0
0
0
87
45
41
0
0
20
66
0
0
0
0
0
103
255
0
0
116
0
0
1
168
0
0
123
151
0
0
0
10
27
5
33
0
0
0
130
0
0
0
0
140
134
0
12
0
12
130
49
0
100
95
0
0
189
129
103
0
38
255
129
0
0
0
13
0
19
0
23
0
0
0
0
0
0
0
15
42
0
0
36
12
6
63
0
50
0
0
2
0
5
17
0
0
19
9
43
0
0
0
45
6
0
47
28
0
11
0
11
32
0
47
0
29
26
0
0
3
4
12
24
0
3
0
86
0
0
0
0
56
3
1
0
34
42
53
0
0
0
4
19
9
0
0
1
0
0
0
0
22
2
18
0
0
0
14
0
0
17
0
16
0
11
0
27
0
14
0
0
33
1
7
0
0
5
31
0
0
0
20
0
0
17
0
1
0
0
23
0
22
14
8
28
28
2
2
0
0
14
0
0
3
22
0
7
0
18
0
10
7
20
11
36
170
0
0
0
0
125
37
0
0
22
0
43
0
0
25
18
5
18
0
0
0
147
0
0
0
10
68
0
0
85
39
0
9
37
0
0
0
0
158
11
0
25
57
0
131
0
0
0
40
12
1
26
66
29
0
0
23
0
0
66
43
0
0
105
46
50
8
25
0
56
29
0
0
0
19
0
0
0
28
1
0
15
10
9
0
7
0
10
0
0
37
0
3
0
12
0
0
0
0
0
6
7
7
0
35
0
7
20
0
3
7
0
0
5
65
0
0
11
8
0
34
8
7
4
0
0
20
0
14
22
0
0
0
0
15
0
16
0
0
32
25
31
15
6
0
5
0
2
1
31
0
4
0
10
0
0
4
18
9
0
3
0
6
0
0
0
0
50
0
5
0
6
10
0
12
8
3
0
10
0
0
10
6
0
8
0
26
9
0
6
0
0
0
5
0
0
0
1
207
49
0
2
0
0
27
4
43
25
0
15
0
0
0
24
2
0
0
12
28
22
0
0
0
17
0
7
0
15
31
0
0
0
25
0
0
0
18
3
20
0
0
0
0
5
0
0
0
1
13
5
0
10
1
0
0
0
21
20
0
29
15
0
0
0
15
18
9
17
21
0
15
0
1
38
68
47
0
0
98
0
0
12
0
0
0
52
125
9
0
127
0
0
0
11
0
0
0
0
0
0
41
55
2
0
0
0
66
0
0
0
0
0
93
208
0
0
96
0
99
0
34
95
0
0
135
45
18
0
0
68
0
0
14
0
0
35
0
0
0
111
0
98
0
4
0
0
135
41
0
51
173
0
0
55
149
117
38
254
144
0
0
0
0
0
1
16
17
9
0
37
50
65
0
31
0
0
13
0
9
9
6
0
22
0
0
0
0
16
0
65
8
0
19
10
0
49
0
0
26
3
0
0
0
16
4
0
0
0
59
0
0
66
0
0
14
0
0
0
2
16
0
0
0
68
60
0
0
0
36
0
25
0
6
0
39
36
0
29
44
4
0
29
1
19
0
27
0
0
8
0
19
0
12
0
23
0
18
29
0
13
0
0
3
12
0
11
0
7
9
0
7
0
22
0
13
0
0
6
23
0
3
0
35
0
10
0
0
0
75
0
0
0
7
1
19
0
0
10
14
0
0
21
0
0
14
18
0
0
0
24
12
119
64
0
0
0
0
84
0
15
0
0
2
0
0
9
0
0
0
0
53
0
0
48
0
30
84
0
18
0
0
18
0
0
0
37
0
0
0
50
162
17
0
0
30
0
156
0
0
0
5
0
0
24
0
54
75
0
68
0
0
12
67
0
0
51
16
80
0
56
0
59
39
9
0
7
17
30
0
32
0
14
0
0
0
0
8
18
0
8
3
0
22
14
0
9
0
0
0
18
0
0
20
2
12
10
17
0
26
0
11
0
20
19
0
0
0
0
0
0
0
0
0
6
3
0
21
0
26
0
0
5
0
8
1
0
0
25
10
0
0
17
7
18
0
12
14
20
3
8
0
0
0
11
0
0
2
0
10
0
0
3
10
0
0
0
0
0
0
0
0
4
0
29
0
0
1
0
0
12
0
13
0
4
3
0
10
10
0
0
2
6
0
4
0
0
0
0
0
22
208
48
1
0
35
0
5
0
0
0
0
13
13
20
24
7
0
0
13
25
46
18
0
18
7
27
0
0
0
4
27
0
28
4
3
6
0
2
0
14
0
0
12
5
14
30
3
0
0
0
5
0
19
0
11
0
7
3
0
6
0
12
0
45
5
0
0
9
0
0
0
0
0
0
0
18
44
11
0
0
38
0
0
0
56
0
0
75
16
0
0
166
0
23
0
0
0
4
0
20
0
0
118
100
7
0
0
0
38
26
19
0
0
0
135
255
0
0
42
0
92
60
0
7
0
0
29
136
0
0
0
54
0
0
18
0
0
0
0
0
0
186
0
60
11
8
104
24
112
49
0
0
175
0
0
0
0
42
158
51
0
0
0
39
0
23
0
4
0
0
2
3
2
41
0
17
36
18
73
0
0
39
0
0
63
7
8
57
0
2
3
0
56
0
34
0
1
12
17
0
0
0
9
0
0
9
43
1
16
0
0
0
44
29
0
2
0
0
0
24
6
40
41
0
0
0
58
0
0
0
3
32
67
0
0
0
0
4
9
11
0
0
0
0
0
24
0
0
34
6
15
9
0
0
48
0
22
0
0
19
0
17
11
27
0
1
0
0
12
0
1
5
4
8
7
7
18
1
15
23
19
11
13
0
0
0
0
0
64
0
0
0
16
19
12
26
11
61
0
0
16
0
0
29
0
0
0
0
0
0
23
15
44
158
0
0
0
0
0
108
0
0
0
42
0
8
31
16
14
0
27
0
9
0
83
0
0
7
119
0
0
0
0
51
0
47
0
37
25
0
0
42
105
17
0
25
18
0
167
0
49
14
3
0
0
62
0
75
7
0
93
0
5
0
4
0
0
125
92
66
0
9
0
49
37
0
0
71
24
0
0
34
0
20
0
3
12
0
0
0
20
3
0
0
5
6
0
0
0
0
4
26
0
4
0
0
0
1
13
0
20
0
0
0
0
13
8
8
11
0
6
45
7
14
6
24
0
15
13
0
13
11
13
26
0
21
8
6
7
1
0
0
0
27
39
0
10
13
9
0
0
0
0
0
10
0
6
0
0
0
0
1
0
1
0
6
0
6
9
0
3
10
0
0
0
0
0
18
0
0
4
5
0
20
0
0
8
0
0
0
0
2
2
0
0
6
0
13
1
8
0
6
205
45
0
9
7
16
0
0
23
60
0
54
0
0
0
0
0
0
0
0
0
23
0
0
0
0
0
0
19
6
22
0
0
9
0
32
9
0
0
6
19
12
15
0
0
11
0
0
23
10
0
0
6
0
18
27
0
0
16
52
0
15
12
7
3
33
0
0
0
0
0
2
0
1
0
9
9
7
0
0
70
83
0
6
64
0
72
61
47
33
39
39
0
0
59
0
0
0
0
0
0
13
114
37
0
0
0
0
0
6
25
14
0
0
59
255
0
0
28
0
42
44
87
64
0
0
0
125
62
21
0
17
66
0
0
56
0
0
0
0
0
172
99
7
0
0
111
0
114
28
0
0
244
0
0
0
0
39
247
0
0
0
0
49
0
0
27
24
15
53
5
0
0
0
0
0
34
0
0
5
0
33
0
0
83
0
0
10
0
8
16
21
66
0
0
8
0
11
75
0
0
0
20
0
0
0
14
0
8
8
0
12
0
75
0
0
0
0
0
0
4
1
18
0
50
0
72
0
0
0
0
4
49
0
0
0
0
14
0
0
48
16
29
4
2
0
8
15
9
0
13
0
61
0
21
0
31
0
0
0
8
0
0
12
0
27
0
11
11
0
29
0
0
0
3
18
0
0
5
0
0
4
3
0
31
9
13
0
14
16
0
2
0
0
30
0
23
0
0
0
13
9
50
16
0
32
0
5
17
1
31
0
62
87
0
0
0
0
4
116
0
0
0
32
0
0
32
0
0
0
55
0
0
20
0
8
23
0
0
0
0
33
30
102
57
0
0
7
0
0
0
0
82
46
0
30
31
0
155
0
69
4
0
8
0
20
0
106
45
0
96
0
15
0
67
0
0
96
70
47
0
44
0
43
66
0
0
0
19
0
0
39
0
12
0
18
11
0
18
3
7
0
10
29
16
29
0
16
19
9
1
31
9
26
0
2
22
6
0
0
3
0
0
8
19
0
29
7
10
1
0
0
0
0
27
0
0
0
20
16
15
0
15
34
0
0
0
0
10
15
0
0
0
17
23
29
2
0
0
0
3
0
16
5
5
8
0
9
3
37
0
0
0
11
3
1
0
0
5
0
0
0
18
0
0
9
0
4
0
1
0
8
0
0
1
12
5
0
13
10
0
15
0
0
7
8
0
0
0
35
0
0
204
45
0
0
22
0
23
1
10
17
0
0
0
0
0
72
5
0
0
15
0
28
34
8
12
31
0
2
24
0
42
0
0
18
0
24
0
0
0
0
0
1
23
0
0
0
0
11
0
0
0
0
0
8
0
14
4
0
0
8
0
7
0
0
0
0
11
6
11
0
0
36
0
9
0
0
29
19
0
0
63
39
0
5
0
4
20
0
0
0
3
25
0
0
77
17
0
42
0
0
0
0
131
55
19
0
16
46
0
0
0
21
16
0
13
255
0
26
118
13
0
43
69
94
169
76
0
0
0
112
0
17
59
53
12
0
28
0
0
0
0
0
149
0
0
0
124
0
167
62
0
0
163
0
18
37
6
99
255
0
0
0
18
56
0
0
0
0
0
0
0
0
19
16
0
21
0
0
0
0
54
36
28
0
0
4
0
0
0
0
4
0
26
0
0
2
26
0
41
0
16
0
26
12
0
4
0
33
13
0
0
6
0
0
0
56
10
3
40
0
0
31
5
0
9
0
0
0
10
0
56
12
33
48
0
0
0
0
0
0
83
0
0
0
27
6
0
0
9
18
0
0
0
0
0
10
34
24
41
0
37
0
0
0
31
0
0
0
0
0
12
0
3
0
14
8
1
0
28
0
0
18
7
2
0
0
0
0
0
12
14
37
64
7
13
0
13
0
75
0
19
0
0
3
14
16
0
6
0
26
9
11
129
42
0
45
1
0
103
129
0
24
0
13
0
0
0
36
0
0
56
0
5
64
0
0
0
42
78
0
0
0
40
47
0
13
0
0
37
0
10
3
133
69
0
7
0
0
178
0
55
0
0
20
0
30
0
57
3
0
99
56
0
0
8
0
0
110
17
49
0
21
0
52
49
0
0
0
0
0
0
19
19
0
0
15
0
0
0
9
41
0
4
1
0
0
0
0
0
0
0
0
0
0
5
18
12
2
2
10
38
0
43
23
0
0
10
0
4
0
36
0
0
0
3
0
27
1
12
0
16
8
0
8
0
6
0
44
0
0
0
0
0
57
30
22
18
14
22
14
3
0
12
5
0
0
0
10
0
0
0
6
0
0
0
0
0
0
0
0
10
0
13
3
8
0
7
5
0
0
8
0
17
0
0
0
0
13
15
1
5
0
0
2
9
11
0
16
0
10
0
10
204
48
9
0
0
0
0
0
0
0
16
0
0
38
0
0
0
0
0
44
0
21
80
17
11
18
5
0
0
0
0
24
0
4
0
4
4
0
49
0
0
19
0
0
11
0
0
17
0
0
45
0
18
19
20
21
0
13
29
0
22
23
0
0
7
15
0
0
0
0
0
0
47
0
0
26
98
30
0
47
127
4
0
0
0
92
0
0
0
15
136
71
0
0
84
0
0
31
0
0
0
0
148
0
0
0
0
0
23
0
12
53
22
0
0
255
0
81
125
0
0
0
0
0
0
126
119
11
0
32
7
0
0
0
69
0
36
35
0
0
0
0
228
38
0
0
44
0
213
0
0
0
121
0
122
9
0
255
255
0
0
0
205
2
0
0
20
33
11
38
9
4
50
0
0
47
47
0
36
0
255
0
4
7
26
16
0
0
0
5
11
0
41
0
21
0
0
0
76
0
2
4
0
0
30
12
0
0
50
0
29
59
0
37
8
63
0
0
48
0
0
76
12
2
0
57
24
26
0
0
0
14
42
32
0
0
0
2
0
0
9
0
2
28
13
39
0
0
9
0
0
6
0
0
19
0
0
0
28
0
23
0
10
0
22
23
0
29
0
15
27
0
21
0
0
17
0
0
22
16
14
29
0
20
2
3
15
0
0
0
0
0
0
0
8
0
0
6
4
0
4
0
0
30
0
40
0
0
1
38
10
47
164
0
0
0
0
0
144
24
0
18
1
9
71
30
16
0
0
10
33
0
1
79
0
1
0
47
0
0
1
0
196
5
0
43
0
21
47
0
0
0
118
59
0
123
0
0
202
0
48
0
0
51
0
0
0
39
0
0
62
119
0
0
0
0
0
148
61
76
0
8
0
21
64
0
6
55
0
0
0
1
2
8
0
24
17
13
13
23
0
0
0
0
1
0
10
16
12
0
43
0
11
0
0
0
14
0
0
0
0
0
2
26
0
0
29
0
18
0
8
0
0
1
0
0
0
10
2
0
7
0
8
34
4
0
29
3
3
0
0
0
0
53
13
0
0
4
0
25
8
0
14
0
0
0
0
0
0
5
0
6
0
22
0
2
0
9
12
0
17
0
0
10
0
3
1
0
0
0
6
0
0
20
0
11
0
0
0
0
2
3
5
5
0
0
0
12
0
10
0
21
202
47
0
22
34
0
33
43
0
26
0
0
24
15
0
0
0
0
50
69
0
0
7
20
7
12
0
0
0
32
18
18
9
24
0
0
0
0
5
0
2
17
4
20
0
9
18
3
11
14
3
0
0
0
0
17
0
0
0
3
31
0
11
0
15
28
0
8
0
0
0
2
5
0
0
9
30
0
0
0
140
0
0
0
115
43
0
0
0
74
187
0
0
0
0
0
25
72
0
49
0
0
157
39
9
0
0
49
84
0
0
4
51
0
20
246
0
64
87
0
0
0
0
0
0
0
89
135
3
1
100
103
49
0
80
7
0
29
1
0
0
0
249
76
0
0
0
72
157
65
0
0
0
0
255
0
0
255
255
0
0
55
163
0
0
0
29
0
0
0
0
0
18
12
0
0
4
0
0
0
0
0
0
0
0
15
21
15
0
18
20
0
86
0
0
0
0
0
12
45
0
0
0
0
0
21
0
0
0
0
0
0
18
0
0
13
5
0
11
0
3
9
0
0
0
0
0
3
58
0
0
30
0
44
24
0
0
0
0
0
7
47
37
8
0
9
15
0
50
0
42
8
24
10
27
2
29
0
0
0
18
18
0
19
0
0
0
54
0
23
9
6
23
0
11
41
14
8
17
0
0
34
0
15
12
14
0
0
0
0
13
9
16
15
0
5
1
20
16
0
9
13
21
10
0
43
0
15
10
13
12
62
57
0
0
0
7
0
133
3
0
0
0
3
0
0
8
0
0
0
23
0
0
13
11
6
0
63
1
0
0
0
119
0
0
80
0
0
0
0
27
12
156
45
0
0
0
0
223
0
67
38
0
54
11
9
0
65
0
0
17
129
0
0
40
0
0
112
80
23
0
0
0
0
53
0
0
11
3
0
5
48
0
45
0
0
0
0
0
20
0
8
48
0
25
3
5
0
0
0
0
0
19
0
0
0
0
3
17
16
17
0
0
1
0
0
0
2
16
0
0
0
37
29
0
26
11
6
4
0
22
37
0
14
0
0
0
1
0
0
0
0
0
48
42
4
11
10
4
7
0
0
19
0
7
0
0
16
0
11
8
0
4
0
6
14
0
3
7
0
6
0
6
0
5
0
0
6
0
20
0
17
0
5
0
0
0
0
4
5
0
11
4
0
17
20
0
7
8
23
1
1
200
47
0
0
0
0
39
0
1
0
2
0
0
0
9
25
0
0
0
47
0
0
0
0
0
0
0
0
4
21
0
0
0
0
0
11
25
0
7
26
0
9
25
12
0
1
3
0
0
0
0
0
14
23
12
1
39
19
16
14
0
0
18
7
57
18
0
14
0
25
6
0
29
4
0
0
0
0
19
0
0
50
0
0
51
47
0
0
0
134
176
0
0
0
78
21
38
0
0
7
0
0
108
46
19
0
16
0
53
3
0
0
24
0
27
255
0
0
57
0
0
0
0
0
0
0
0
0
114
70
1
29
86
0
0
35
12
35
19
0
0
0
189
95
0
0
0
13
130
97
84
33
0
0
187
0
0
0
0
0
0
255
0
0
0
0
41
6
0
70
9
0
0
0
0
28
18
36
0
0
25
0
0
4
0
60
0
0
0
0
0
13
3
0
24
59
28
0
0
56
2
9
0
34
0
49
4
25
9
38
18
0
87
16
3
4
11
0
8
16
0
5
0
7
0
0
42
0
43
0
0
0
64
3
60
30
0
44
0
0
0
0
0
0
0
12
31
0
0
0
0
0
0
21
0
0
0
4
60
2
7
0
12
4
0
24
16
0
0
3
0
0
0
0
16
0
5
24
0
3
10
22
22
41
0
0
40
0
2
4
16
0
0
4
1
0
0
0
36
0
51
26
6
3
2
43
0
0
0
30
32
77
0
0
0
13
0
0
114
0
0
19
0
43
0
17
0
0
0
7
70
0
0
24
0
89
0
0
0
0
0
0
38
6
0
0
2
15
15
0
0
0
128
38
0
2
36
0
241
0
0
12
0
45
69
0
31
91
31
0
19
93
0
0
95
0
0
69
109
47
22
9
0
28
69
0
0
23
0
31
16
32
0
23
0
14
6
29
0
24
0
26
13
0
0
4
0
10
7
48
0
35
0
28
7
3
12
0
3
21
0
28
0
7
27
0
1
16
10
0
15
0
0
0
0
0
0
16
12
6
16
0
27
9
0
66
14
18
0
10
0
0
0
38
16
5
13
0
0
3
2
0
4
0
14
0
4
11
0
0
0
0
0
0
0
0
0
0
6
1
4
0
0
5
18
1
0
7
0
0
0
0
0
0
2
27
12
0
5
0
0
0
17
0
1
0
0
19
13
16
3
24
190
48
8
0
26
23
11
32
28
0
0
0
0
14
72
0
18
64
0
54
0
19
14
12
0
0
0
0
0
2
5
32
0
0
20
0
11
0
12
6
0
0
14
0
0
0
0
0
6
40
0
0
7
4
0
11
0
0
0
13
23
7
4
0
0
34
0
0
0
0
0
0
7
0
0
88
0
86
172
53
0
0
0
0
0
0
24
0
0
211
36
0
0
0
49
0
25
0
0
0
0
0
34
14
26
0
0
0
91
0
0
35
33
0
114
235
0
9
155
0
0
0
80
32
0
0
0
0
1
0
97
25
0
0
0
5
44
81
63
16
24
0
28
85
0
45
102
2
73
0
0
138
80
0
31
143
0
0
0
0
46
19
0
0
13
0
0
8
0
71
6
0
0
0
37
0
21
7
0
15
54
12
17
34
31
0
0
21
0
7
0
104
16
0
0
0
0
36
0
0
9
0
0
0
0
0
0
0
0
48
17
0
0
8
0
0
4
0
0
30
0
0
102
0
0
0
50
0
52
0
0
0
62
0
50
0
0
0
0
14
0
0
17
22
0
26
0
19
0
14
32
10
0
33
0
8
19
0
0
0
12
0
0
29
0
0
21
0
47
3
0
27
0
2
0
0
15
0
23
0
0
0
42
6
4
0
0
1
1
0
44
0
0
9
0
0
17
0
45
0
53
9
13
0
3
0
0
28
58
6
80
38
0
0
11
0
13
46
35
0
0
33
0
29
0
0
0
44
3
0
0
0
0
53
0
142
0
0
6
0
0
33
7
56
0
0
16
0
40
0
0
46
79
48
0
36
41
0
210
0
62
74
0
54
6
0
0
22
5
0
136
97
0
0
132
0
0
39
130
46
0
0
0
0
98
0
0
19
0
0
0
13
0
0
17
0
0
27
0
25
18
0
0
0
6
5
0
13
0
2
0
0
0
0
0
0
0
0
13
0
0
32
0
0
1
33
9
0
12
0
0
22
17
29
12
0
32
0
0
29
14
0
28
22
7
0
0
6
0
0
10
0
22
25
20
15
3
26
0
25
7
0
0
2
1
0
0
14
0
3
16
0
2
13
18
0
0
0
1
0
8
0
0
2
4
0
0
0
0
23
13
0
0
0
0
0
0
0
6
0
18
10
5
17
26
30
18
33
0
10
48
38
173
49
10
0
0
0
17
0
0
3
38
7
22
0
0
0
0
64
0
32
0
0
35
0
5
7
0
0
0
0
16
6
29
21
0
0
14
0
0
17
6
0
0
35
0
10
16
11
0
6
0
6
0
0
31
7
12
0
8
0
21
12
0
0
16
0
0
0
38
6
14
0
5
0
0
0
0
114
98
0
0
10
0
17
24
1
0
0
0
204
1
106
0
0
14
9
40
57
7
0
0
0
121
0
30
0
0
0
86
0
2
0
0
30
39
171
0
20
184
0
0
0
0
62
0
0
68
0
0
0
0
75
60
15
34
0
34
0
10
0
0
0
0
42
0
33
77
0
118
0
0
129
121
0
138
194
0
0
0
29
65
0
0
0
41
0
0
32
17
21
7
49
20
18
0
16
0
0
0
0
28
0
0
4
40
0
12
0
0
62
0
84
1
0
8
8
0
16
0
93
73
9
65
0
0
9
3
0
0
9
0
13
2
27
42
0
24
91
0
0
0
22
34
0
0
0
13
44
0
1
0
0
77
0
13
3
40
0
0
17
0
0
37
0
26
0
0
58
27
11
0
0
35
0
0
26
22
13
14
9
9
27
0
23
16
0
33
0
0
0
3
38
0
0
7
0
25
0
16
0
0
0
46
2
0
0
0
9
0
0
9
13
4
20
0
0
8
17
0
6
7
6
14
0
31
0
0
0
34
0
14
11
12
0
0
0
0
88
40
0
3
1
0
3
15
22
0
0
0
0
10
9
0
0
0
86
0
0
0
0
17
24
0
21
0
7
63
0
22
0
0
46
85
60
0
0
7
0
222
0
12
0
0
23
51
0
0
12
59
0
0
85
2
0
62
0
0
110
117
35
0
21
0
0
84
0
0
0
19
10
16
20
0
8
33
8
0
25
0
0
0
0
10
4
3
23
5
0
3
7
7
33
0
9
0
0
26
27
0
0
6
8
18
0
11
0
0
0
0
0
0
7
0
0
0
0
0
19
0
0
0
0
0
0
0
0
13
0
0
0
0
0
0
40
23
0
0
33
0
0
26
0
2
0
5
3
4
1
0
17
0
2
0
0
0
2
9
12
0
4
19
0
0
0
0
17
0
0
0
3
0
0
5
0
11
16
0
6
0
0
0
6
0
11
7
9
12
33
27
84
60
80
142
51
15
0
0
41
9
17
29
13
3
14
0
10
6
0
0
0
0
11
6
16
7
25
0
0
10
45
5
31
12
0
0
0
6
4
25
0
0
0
0
15
0
0
1
0
0
4
0
2
9
2
0
0
4
0
26
0
14
0
13
4
0
9
14
26
0
0
2
0
0
0
41
0
9
0
55
149
0
0
0
0
4
32
0
55
0
0
24
210
0
116
21
0
0
0
0
48
33
0
0
31
98
0
66
0
0
0
33
0
0
0
0
12
40
84
0
0
111
50
0
0
0
38
1
0
76
126
0
83
3
0
0
0
49
38
58
0
47
0
0
0
1
0
9
13
0
0
107
49
0
0
14
0
4
91
21
0
0
51
0
0
68
7
0
5
1
0
0
0
0
0
0
0
0
0
0
0
14
0
30
0
0
13
0
0
0
0
0
18
0
77
29
0
0
2
0
27
0
0
15
12
0
0
14
1
55
0
0
21
0
13
45
14
0
0
0
6
0
0
0
0
0
9
74
0
0
58
0
14
0
0
0
37
0
66
63
0
0
0
0
0
0
0
0
0
6
0
0
23
0
7
12
22
23
56
0
20
9
0
0
1
0
0
19
0
0
0
30
0
20
0
32
12
27
0
29
0
16
0
15
3
0
0
23
3
30
0
14
29
12
50
0
28
17
0
0
8
2
0
9
0
37
0
44
0
0
3
52
13
35
19
20
0
0
0
0
42
0
0
0
12
26
34
0
14
0
15
0
0
18
0
0
12
0
121
11
0
0
17
10
0
0
34
30
0
4
0
15
31
0
41
82
24
0
0
10
0
190
0
47
0
0
0
59
0
0
81
10
0
8
100
0
0
17
0
0
63
102
29
0
0
0
33
72
0
17
41
9
0
8
6
12
9
17
1
0
9
9
24
0
7
0
3
36
0
11
25
0
34
0
1
0
17
0
0
0
22
32
21
14
0
0
22
0
0
0
0
31
29
0
14
4
22
0
27
0
21
4
4
14
0
0
9
0
0
24
0
0
0
0
0
40
27
7
12
0
8
3
0
12
0
3
0
0
0
0
0
0
11
0
0
5
0
10
5
0
0
7
6
0
0
2
0
12
0
0
8
6
0
0
1
4
0
23
0
5
6
10
15
7
18
15
36
23
64
44
73
54
51
26
7
97
52
16
24
21
0
3
3
0
0
0
0
0
0
53
55
0
9
0
0
32
4
0
0
23
0
0
0
14
15
34
0
0
0
0
5
0
0
8
20
0
0
8
8
6
0
0
0
20
0
0
0
26
0
18
17
25
30
0
10
3
11
0
39
0
10
0
19
0
0
0
19
0
0
0
0
151
0
0
0
0
0
0
5
0
82
0
0
141
94
0
114
0
0
0
46
0
33
82
0
0
70
13
0
49
0
9
0
49
9
9
0
0
0
141
128
0
0
127
61
0
0
0
83
66
0
0
112
0
0
142
0
0
80
0
6
83
89
98
0
3
110
94
0
0
36
41
0
2
154
56
0
0
0
0
0
0
48
13
0
0
1
0
54
0
22
0
28
34
56
16
41
12
35
0
0
0
45
0
8
39
6
7
73
4
0
10
0
0
0
0
54
6
0
0
4
0
42
0
0
0
15
0
0
0
0
33
0
1
0
0
0
0
16
15
0
0
4
3
71
17
0
14
12
5
0
0
65
0
0
0
18
61
100
0
25
46
0
39
34
23
47
48
0
0
0
50
0
0
48
10
34
9
38
12
5
0
25
49
33
56
39
42
7
35
41
44
12
26
37
19
0
34
0
14
16
0
3
0
21
0
9
5
11
0
26
18
0
9
0
0
5
31
0
0
11
0
11
22
17
0
0
0
0
32
0
20
5
5
14
4
30
74
0
0
20
0
77
0
0
0
2
6
16
0
14
0
31
0
0
0
12
0
0
0
69
0
8
0
0
69
0
0
0
32
34
48
15
0
0
12
10
68
46
0
51
40
0
152
0
45
0
15
0
65
0
16
50
41
0
19
137
0
0
20
0
0
45
153
30
0
13
0
22
12
0
0
22
0
0
0
5
5
0
0
13
2
0
10
0
25
33
0
3
21
0
0
0
1
0
0
15
7
7
0
0
4
0
0
1
11
0
8
12
0
28
22
0
0
15
8
0
0
0
13
12
5
0
0
5
1
7
3
0
20
1
0
6
0
0
0
0
29
37
23
0
7
10
0
10
12
0
4
0
0
0
0
0
0
15
1
14
0
10
0
1
0
1
3
3
4
0
18
0
1
4
4
12
0
0
9
0
5
0
11
11
16
20
17
15
28
0
24
51
52
29
36
48
22
0
0
0
59
56
0
0
0
0
0
0
0
0
0
0
0
0
0
0
12
13
13
0
0
0
25
18
0
16
0
14
0
39
13
0
24
0
12
0
0
0
0
10
0
34
2
0
0
0
27
3
15
0
11
29
5
4
0
10
0
6
0
35
0
7
31
0
24
18
0
0
0
9
47
0
0
0
0
118
64
0
0
0
0
6
0
0
0
48
23
0
134
0
0
103
0
0
0
0
29
0
0
42
0
30
0
34
48
0
0
0
46
0
20
0
0
0
119
190
0
0
95
91
9
0
0
0
140
0
0
15
11
0
137
17
0
126
0
0
0
37
128
45
117
174
0
8
0
0
13
21
14
195
199
0
0
0
43
36
0
162
1
0
0
2
0
39
0
0
0
0
0
0
0
12
0
30
17
0
31
3
0
0
12
0
0
88
12
2
55
0
11
39
0
77
9
4
0
0
0
75
0
40
11
40
41
0
11
23
0
24
44
50
36
2
1
27
21
21
36
0
37
39
0
16
0
0
0
6
0
14
0
8
8
0
0
32
0
0
0
58
0
0
0
0
0
12
0
0
0
0
8
0
59
0
0
0
64
0
60
0
0
0
38
32
68
0
0
28
0
0
25
0
0
0
0
0
2
38
0
9
14
0
0
30
0
0
0
0
49
0
22
0
3
18
9
0
4
0
1
0
0
35
0
19
53
3
0
0
0
0
7
45
25
36
79
0
0
0
0
65
7
42
71
11
0
30
43
0
3
31
0
3
65
28
0
14
140
44
0
31
0
8
131
0
31
67
0
0
0
0
3
0
12
0
58
48
0
39
11
0
122
0
93
0
0
0
99
0
5
7
0
0
46
93
0
0
32
0
0
52
100
22
0
0
0
17
26
5
0
0
0
0
16
0
0
30
0
6
0
0
10
0
0
0
0
58
0
30
0
29
16
0
5
6
0
17
0
4
0
11
0
0
0
33
0
19
0
0
0
0
12
0
0
0
0
0
0
0
16
0
0
27
0
1
30
0
0
10
8
5
0
0
0
19
42
4
2
17
4
9
8
0
0
0
0
10
1
4
11
0
10
5
0
4
0
0
0
15
0
8
2
4
11
0
0
1
11
1
0
8
0
8
3
0
23
8
15
3
13
22
17
21
43
8
58
52
26
33
0
0
0
0
0
0
48
45
0
0
73
0
0
12
19
52
34
28
5
0
0
41
48
0
0
4
0
15
0
16
0
0
29
8
0
8
31
0
36
0
19
11
0
0
15
0
4
0
12
0
8
13
11
0
4
10
0
0
0
0
13
0
0
30
9
30
0
0
29
0
8
0
0
32
16
0
0
0
0
0
0
76
0
0
0
21
207
0
0
0
0
40
37
66
170
0
0
49
75
1
0
0
25
67
0
0
0
150
0
0
93
0
0
0
58
3
95
0
0
0
65
195
0
0
53
86
0
0
0
0
26
0
0
0
0
0
34
106
0
109
11
0
0
0
15
115
0
0
0
20
23
0
6
8
0
28
176
0
33
45
118
0
0
82
44
0
0
2
4
0
8
21
37
81
7
10
17
0
0
22
0
0
9
0
0
0
24
0
31
62
0
0
13
23
0
0
0
76
0
0
50
0
25
0
0
36
0
0
15
1
0
17
0
33
0
0
0
10
0
23
0
0
0
12
0
0
0
0
0
12
0
17
0
48
5
0
0
6
0
0
98
4
0
16
20
0
32
0
56
0
0
0
0
0
0
0
0
0
14
2
0
0
0
0
0
0
0
0
0
0
0
27
25
41
0
0
0
0
16
1
0
0
0
0
0
0
16
0
21
19
0
17
0
0
17
9
0
0
22
0
9
0
4
0
0
0
0
29
0
0
0
0
12
0
0
40
9
7
0
0
0
0
0
27
17
0
0
0
10
0
0
0
0
19
0
0
0
0
14
0
53
0
0
0
0
0
9
0
3
0
0
41
0
60
0
0
27
0
80
28
0
16
0
0
116
0
98
0
3
2
93
0
46
49
0
0
4
103
0
0
31
0
0
94
121
46
0
0
28
8
53
0
0
41
1
8
21
2
1
19
0
13
60
0
0
0
26
0
12
0
0
20
0
20
10
0
0
21
0
51
35
0
14
9
18
0
4
0
0
16
14
29
7
13
21
0
11
4
0
0
9
4
0
37
2
0
31
5
6
0
16
5
0
5
0
0
0
19
21
18
9
0
0
15
1
19
0
0
13
0
3
0
0
2
0
7
0
11
9
21
0
10
0
6
0
9
0
1
19
0
0
0
4
0
1
10
21
11
6
0
8
16
17
29
48
35
93
50
63
19
0
0
0
0
0
0
0
0
43
41
0
0
0
9
40
0
7
0
0
0
0
6
0
0
30
0
3
0
0
0
31
32
26
0
15
0
0
0
30
0
17
2
22
6
19
17
3
0
0
0
27
0
0
0
0
0
29
16
5
19
12
0
16
5
0
0
0
23
0
2
0
0
30
26
31
0
0
0
0
0
0
0
110
230
0
11
0
183
175
0
36
0
0
0
13
70
65
0
0
0
38
15
1
17
29
19
0
0
62
3
3
0
9
0
0
0
48
0
72
0
44
0
166
225
0
0
69
97
0
0
0
0
71
33
1
0
0
11
0
94
0
0
89
0
0
0
23
182
0
0
0
7
47
0
0
68
43
0
36
0
10
14
62
0
0
47
123
14
0
0
0
0
0
0
0
0
0
0
4
0
24
27
0
0
0
0
50
10
47
0
24
92
0
0
0
0
0
10
0
131
0
0
0
0
0
0
0
14
23
32
0
0
0
0
0
20
1
0
0
0
13
24
12
0
9
0
22
4
0
27
0
11
56
26
0
6
14
41
0
30
29
0
58
0
0
22
19
9
0
1
0
35
106
30
0
35
26
4
0
26
0
0
0
0
0
0
0
0
0
2
0
1
0
0
0
0
39
22
0
0
22
4
32
39
11
33
0
0
55
26
0
0
0
0
7
12
12
0
0
0
22
0
0
0
8
0
1
0
16
29
14
5
0
39
36
0
36
72
0
0
10
0
19
0
35
0
0
0
0
36
0
0
4
41
19
21
4
22
30
0
14
0
133
29
0
11
18
18
36
0
56
27
0
0
22
0
22
0
25
0
78
94
0
65
77
0
100
0
31
0
33
0
64
0
44
85
0
0
6
69
28
0
15
0
0
59
103
71
0
0
81
0
1
0
0
0
0
0
0
0
14
7
0
0
2
0
8
12
10
11
49
28
0
4
38
6
17
28
0
0
15
0
19
0
47
0
0
0
1
5
10
0
0
3
0
0
0
0
13
0
43
25
33
0
17
5
0
0
24
23
0
39
0
0
10
0
0
0
0
56
26
14
17
5
16
6
4
0
8
4
7
4
10
0
0
12
4
20
0
7
0
0
0
0
0
5
8
0
0
0
0
0
0
16
7
20
3
5
0
3
6
19
35
26
54
40
60
10
72
0
0
0
0
0
0
0
0
11
16
0
43
47
14
30
0
0
0
0
4
0
23
0
4
29
0
87
0
0
12
69
20
0
26
28
0
0
0
0
0
24
0
9
17
0
13
0
21
0
0
0
21
0
0
4
0
8
0
0
5
0
3
0
0
26
10
1
13
0
0
2
8
5
26
8
0
0
21
0
0
0
0
0
23
100
255
69
0
0
0
255
132
0
0
0
0
0
9
4
13
0
0
0
0
28
0
0
0
0
0
37
65
0
0
0
84
28
0
0
23
0
39
0
0
0
0
203
10
0
50
125
33
0
0
0
62
52
16
0
0
0
11
38
115
0
144
0
0
0
0
149
0
0
4
63
19
25
0
101
2
0
0
44
0
93
165
137
17
17
85
112
0
0
19
0
0
0
0
0
30
42
0
6
30
31
0
31
0
0
14
3
4
0
30
56
0
5
0
0
0
0
0
177
0
0
23
0
88
3
0
0
7
15
14
28
0
25
24
12
14
0
50
24
0
5
0
0
3
0
0
10
41
37
0
37
61
0
64
0
32
22
0
0
36
0
68
30
0
31
77
0
0
53
0
0
0
0
0
0
0
0
0
0
0
0
0
0
0
30
0
0
0
0
0
0
0
0
0
0
2
0
0
0
11
0
0
0
0
0
0
0
0
0
0
0
0
0
0
0
0
0
16
0
0
4
0
0
0
0
0
0
0
0
0
0
0
0
0
0
44
19
0
28
0
6
7
9
41
3
2
0
14
0
0
0
0
4
0
45
0
0
21
26
0
0
77
0
0
0
10
0
0
0
0
0
0
0
1
40
0
0
24
0
70
76
0
0
0
0
88
0
66
0
71
0
67
0
5
80
0
0
0
0
71
0
140
0
0
57
117
81
0
5
67
0
58
29
0
53
0
0
19
5
0
0
25
43
0
3
24
0
0
0
0
0
22
30
0
3
0
24
35
0
0
0
8
0
15
0
32
10
0
0
3
36
9
9
31
10
20
13
0
0
1
12
0
0
0
0
0
0
40
0
0
0
4
0
0
0
0
0
0
39
20
13
0
0
12
8
5
0
0
0
0
0
7
2
0
5
0
15
0
3
1
2
6
5
17
0
2
9
15
0
17
0
12
12
0
0
11
12
24
5
8
6
0
9
58
29
1
0
0
0
0
0
0
0
0
0
0
0
0
0
45
48
9
0
0
0
118
16
12
27
0
10
0
47
0
0
0
0
0
0
4
0
0
1
51
26
0
0
3
0
32
1
0
0
7
7
20
0
7
0
20
6
19
14
0
4
0
2
12
0
5
0
7
0
32
19
6
18
0
13
5
0
3
0
31
0
0
0
0
0
0
37
127
255
152
0
75
0
108
255
0
0
0
8
29
0
2
59
0
111
0
0
0
0
85
0
37
0
19
36
57
0
7
0
15
17
0
7
57
0
63
0
31
0
0
229
0
0
0
88
54
36
2
27
168
47
0
0
0
0
113
0
136
0
154
30
0
0
0
1
0
0
10
9
67
90
0
76
15
0
0
113
12
0
130
232
78
6
91
139
0
0
0
0
35
23
55
23
25
10
24
0
0
0
0
0
18
0
14
69
78
0
61
82
0
0
54
12
14
0
0
76
0
0
0
0
30
6
0
0
0
24
0
8
0
4
0
0
36
18
0
0
19
0
48
0
35
22
24
0
0
0
0
0
0
0
0
0
17
35
0
0
1
0
0
14
0
0
49
78
9
0
0
0
0
0
0
28
57
72
35
52
85
45
0
42
21
2
15
3
52
0
4
14
0
5
0
0
0
29
45
21
0
0
24
15
4
0
0
42
17
6
0
54
10
12
9
36
0
19
33
19
9
6
1
13
16
0
39
20
0
0
0
0
0
0
0
0
0
0
0
18
0
0
0
0
5
0
23
23
0
62
0
39
80
0
22
0
65
14
10
0
1
0
126
84
0
14
7
44
0
14
89
27
9
0
0
74
0
0
6
0
90
17
0
13
59
0
61
0
24
0
43
0
0
0
25
43
7
0
51
0
94
0
58
0
0
28
114
82
0
42
43
0
0
0
0
66
0
0
17
0
0
0
10
21
0
0
3
15
9
11
45
0
0
8
0
2
4
0
6
0
39
1
0
33
0
1
0
26
0
27
0
0
0
10
0
19
0
0
9
0
0
0
0
0
33
14
23
7
0
0
24
18
21
0
0
10
0
0
37
13
20
13
0
8
20
0
0
11
14
0
6
0
0
0
3
17
0
13
0
0
18
0
2
0
0
0
10
0
9
0
12
0
9
10
3
0
1
19
17
21
33
14
66
32
20
0
0
0
0
0
0
81
54
0
6
0
24
0
14
0
51
47
0
0
0
0
0
0
0
0
0
0
0
7
0
7
0
0
10
0
22
26
0
11
15
21
0
42
0
0
10
3
0
26
0
5
0
14
11
0
0
18
0
14
33
0
0
0
28
0
2
12
29
0
0
0
26
0
0
16
28
1
16
0
0
0
0
0
0
0
33
192
255
112
0
0
0
0
47
214
0
0
0
0
0
0
0
0
92
64
0
0
0
0
49
21
0
0
0
54
7
46
0
4
12
0
0
0
23
0
21
0
0
0
0
227
0
24
0
61
103
65
37
0
6
0
0
7
0
0
0
0
50
97
185
118
0
0
0
0
52
40
0
0
0
124
121
0
54
11
0
0
0
0
0
0
52
47
162
64
26
5
0
0
0
0
0
0
0
0
0
23
25
0
3
0
38
0
0
61
10
0
81
32
0
7
0
0
0
0
73
81
0
15
17
19
0
14
0
0
0
21
20
70
28
0
51
0
16
27
0
0
27
0
0
0
13
0
0
0
35
0
55
46
0
49
32
0
0
0
19
32
19
3
44
53
38
56
37
19
0
0
10
0
25
15
0
105
44
19
5
11
0
18
24
76
23
14
87
47
43
13
103
52
30
23
46
15
53
1
0
34
0
0
58
27
46
0
10
89
63
0
0
36
27
5
9
34
0
12
16
19
22
23
34
23
90
37
61
42
42
73
19
0
37
12
24
32
11
0
0
0
0
0
0
0
0
0
0
0
0
54
0
17
17
0
0
0
18
0
1
0
20
0
1
4
0
0
68
0
0
0
40
0
34
0
0
99
0
0
1
0
77
111
0
0
46
0
65
0
62
0
52
0
54
0
0
42
0
0
65
0
19
0
96
0
0
62
143
77
0
52
40
0
31
1
0
87
0
4
0
0
1
0
0
18
24
0
0
0
0
0
0
71
0
0
0
0
0
14
18
0
40
0
0
0
21
0
18
0
8
26
0
16
28
0
0
12
0
15
18
0
1
38
0
0
0
0
0
5
4
10
0
0
0
0
0
2
0
0
20
28
17
2
17
13
6
12
7
0
1
0
0
0
6
19
0
9
0
10
5
0
0
0
11
3
0
8
12
0
1
21
0
6
8
9
0
4
0
8
1
4
47
3
0
0
0
0
0
16
0
0
0
0
0
0
0
0
36
0
6
5
53
47
0
25
0
2
22
5
9
39
43
0
10
1
19
4
12
0
0
0
0
13
9
64
0
35
0
0
0
0
0
0
0
26
0
1
7
0
2
8
0
29
0
0
7
6
0
0
24
20
0
0
0
15
0
3
19
0
22
0
12
31
0
3
4
0
0
0
0
71
230
255
30
0
0
0
0
0
166
255
0
0
0
0
0
0
0
13
108
0
0
15
0
0
1
38
15
0
33
77
0
0
0
12
0
19
0
0
6
0
36
0
0
0
0
210
0
87
0
0
157
66
0
0
0
30
6
23
0
0
0
0
0
91
67
31
0
0
0
0
147
118
111
0
0
0
104
0
46
60
0
44
0
0
0
0
0
0
137
94
70
0
69
0
0
0
0
15
0
7
11
0
0
33
35
0
0
0
0
85
0
0
79
56
0
0
0
7
0
0
0
30
0
0
0
0
46
0
19
9
1
0
0
0
0
0
26
0
29
0
3
0
20
40
22
0
0
0
9
20
0
11
0
0
0
0
0
0
29
22
21
8
0
0
0
0
0
0
0
0
0
31
74
0
25
30
0
31
0
24
1
44
0
60
29
36
20
0
37
0
0
5
44
26
43
0
29
9
0
11
4
55
48
0
17
0
35
0
16
10
0
20
0
11
17
0
10
24
0
0
19
0
33
0
3
8
0
0
28
21
0
0
44
44
53
62
45
78
58
68
90
56
1
0
0
0
0
0
0
0
19
41
0
0
2
30
0
0
0
20
30
0
0
10
2
46
0
0
0
13
4
6
55
21
22
0
0
118
0
0
59
0
34
66
0
0
0
0
142
0
13
0
0
0
64
0
30
51
0
0
0
0
0
42
27
0
0
79
129
56
0
74
59
0
10
0
0
73
6
0
0
5
16
18
0
0
18
0
26
6
0
24
0
24
26
0
13
27
16
25
1
0
0
28
1
0
0
0
61
9
43
2
9
0
40
0
12
3
5
0
0
0
0
0
0
0
20
0
20
0
0
0
20
5
17
10
0
12
0
0
50
45
12
23
8
0
2
1
10
0
3
0
0
2
0
12
0
0
0
18
0
10
0
1
0
1
2
0
0
5
0
19
0
3
2
1
0
5
0
34
0
17
0
0
0
0
0
0
0
0
0
0
0
1
3
0
51
12
0
17
0
0
62
50
0
47
66
6
0
0
46
0
0
0
0
10
0
0
24
10
0
1
20
0
0
0
28
0
0
0
0
27
57
20
7
0
0
40
0
10
0
0
30
0
28
0
11
3
2
0
5
0
0
7
3
4
15
19
37
0
20
4
0
5
1
0
0
0
0
0
37
194
255
74
0
0
41
0
0
0
255
174
0
49
24
152
34
0
0
0
73
48
0
31
0
36
22
18
0
0
102
0
0
0
3
10
59
0
0
25
75
0
40
39
0
0
26
191
0
0
5
0
72
122
0
0
0
0
83
48
0
17
0
0
0
0
10
0
0
0
1
23
165
118
88
10
0
0
36
86
29
90
0
45
63
0
0
0
0
0
16
143
169
0
98
93
61
0
0
0
0
3
33
0
3
0
0
14
0
12
0
50
0
11
79
0
0
0
0
0
10
0
57
107
0
0
30
0
4
0
0
0
36
0
24
0
58
0
7
0
0
0
8
0
0
0
13
3
0
0
7
0
0
13
0
0
0
50
48
0
0
0
0
0
0
5
0
0
77
0
0
34
75
27
0
0
45
29
0
0
0
22
0
0
0
24
0
6
7
0
7
15
0
62
16
0
4
4
0
29
15
0
0
0
0
0
0
0
0
0
14
0
0
0
0
30
0
4
0
0
0
0
6
0
0
0
20
0
0
5
32
0
0
6
10
0
43
0
14
5
24
49
92
104
83
119
58
38
0
0
0
0
0
0
0
12
5
0
4
58
0
0
4
0
0
43
0
31
60
0
0
28
0
0
0
0
0
0
0
112
0
0
17
0
93
78
0
7
0
0
71
0
56
0
23
20
26
0
40
99
0
15
2
64
0
22
0
0
0
112
123
0
0
100
48
0
36
4
0
66
0
11
0
0
0
3
0
0
0
0
38
28
0
24
0
0
15
0
0
1
0
0
0
16
0
9
0
14
33
0
26
0
0
5
22
0
39
0
3
0
12
0
10
34
1
0
37
0
49
0
0
0
0
3
0
5
0
24
0
0
0
0
45
3
0
9
4
6
1
12
17
0
0
0
4
0
22
0
0
0
0
33
0
1
0
0
0
0
0
2
5
2
0
8
0
0
0
0
17
0
0
28
3
6
0
0
2
0
0
0
0
65
41
21
0
120
0
0
0
0
0
34
4
0
69
57
24
0
0
0
4
17
0
0
0
23
0
11
13
0
2
12
0
0
10
23
0
0
36
5
0
0
0
0
18
4
16
0
2
0
0
0
0
2
13
0
22
4
5
0
9
8
9
15
0
9
0
0
4
0
5
7
6
6
0
0
13
0
0
0
0
24
249
255
38
0
0
255
163
19
0
0
199
0
0
0
0
64
0
5
0
0
163
0
0
33
0
0
11
0
36
85
29
0
0
0
0
108
72
0
0
0
4
0
0
0
0
0
83
143
0
0
77
0
0
148
72
52
24
0
0
83
0
0
0
8
0
0
67
12
0
0
128
0
111
0
0
0
32
0
41
0
30
153
34
86
161
91
36
0
0
0
0
0
159
61
150
127
79
13
0
0
0
0
2
5
3
3
0
39
0
0
0
38
0
0
81
23
0
11
0
0
0
0
79
100
0
0
0
9
0
11
33
0
0
0
47
0
12
0
6
45
28
0
60
0
14
0
35
0
0
48
9
13
0
0
76
26
0
0
97
0
0
5
2
8
0
1
0
0
90
6
50
0
0
0
0
0
7
0
23
0
0
29
7
4
6
16
23
0
4
2
0
0
0
6
0
0
0
5
0
0
2
0
26
0
25
0
0
5
0
0
51
9
0
0
0
8
0
11
13
14
0
25
38
1
0
27
0
8
0
0
0
0
33
0
0
0
0
0
11
0
18
9
0
21
61
103
97
131
126
48
0
0
0
0
0
22
0
0
0
0
0
4
0
0
0
0
9
0
0
0
69
8
0
62
19
153
40
0
0
0
49
0
0
0
41
76
0
1
0
65
82
0
80
0
0
22
0
0
37
70
0
0
47
46
0
55
0
0
0
69
127
0
0
53
41
0
50
0
0
27
0
77
0
0
50
0
3
0
12
8
0
0
0
10
10
7
0
0
12
0
3
0
0
0
35
0
29
0
0
6
0
27
0
21
25
0
15
0
10
0
22
0
4
0
0
0
3
5
0
7
0
44
0
0
0
0
9
42
0
7
0
46
38
23
36
17
15
0
13
0
0
0
2
0
10
0
2
11
0
10
0
34
0
2
14
0
15
0
0
17
4
0
18
4
0
0
36
0
6
0
0
21
28
19
40
0
0
0
0
33
0
0
0
0
0
12
0
0
0
16
17
42
47
15
73
55
0
0
0
0
35
91
0
75
0
50
0
10
0
7
0
8
0
55
16
0
0
0
0
0
20
0
0
0
16
22
11
0
0
14
23
0
26
17
0
1
0
0
0
16
0
1
6
0
0
40
0
23
0
5
0
3
13
0
0
0
22
0
0
0
107
255
255
100
0
0
46
4
0
15
0
0
140
0
0
0
0
17
0
0
0
0
130
52
52
6
0
0
0
0
62
113
0
0
10
44
0
129
66
0
0
0
11
0
41
30
0
0
118
105
87
0
69
0
0
65
94
56
95
0
0
8
49
0
0
0
0
0
107
110
0
0
64
48
138
0
58
0
0
0
54
38
0
94
107
0
0
144
186
0
12
0
0
0
255
58
90
79
28
143
91
0
0
8
0
12
0
29
0
27
0
0
36
0
18
42
38
0
0
53
0
56
0
0
94
195
0
0
0
0
15
8
0
46
1
0
29
23
29
0
0
0
0
0
5
0
14
39
0
4
0
0
11
9
0
0
3
0
0
0
0
71
12
0
43
0
0
22
0
0
14
0
0
18
0
0
46
30
6
5
0
8
24
36
26
0
0
0
41
0
0
9
3
1
9
10
0
5
5
0
0
32
0
6
0
0
22
11
1
0
26
16
0
20
0
0
17
30
3
37
0
0
25
0
0
7
0
0
0
0
0
0
5
0
0
12
0
4
25
0
0
20
0
0
8
10
0
5
1
25
86
121
115
64
27
0
0
0
0
0
0
0
20
0
3
0
17
0
24
0
0
0
10
0
0
0
0
0
0
6
0
0
133
0
0
0
26
121
0
0
15
0
5
0
136
0
41
0
0
0
15
59
0
0
0
35
0
30
34
0
0
115
130
0
0
72
28
0
6
0
0
61
0
29
16
0
0
10
0
9
24
0
0
34
0
0
0
0
7
4
1
10
45
0
9
17
0
0
0
0
16
2
0
28
0
0
0
2
0
0
20
8
4
9
0
12
26
0
0
43
0
0
3
0
1
13
14
6
0
0
0
0
0
0
4
18
5
0
0
6
16
9
16
3
0
1
8
0
0
4
0
12
10
0
0
0
1
1
0
0
11
0
0
4
12
0
34
0
21
0
0
10
7
0
12
14
0
0
0
0
29
0
0
0
0
0
0
0
14
0
21
0
0
12
0
31
73
57
0
21
26
0
21
0
0
0
0
0
0
29
29
34
0
0
0
0
19
0
11
11
47
55
0
0
8
9
36
44
29
17
0
0
0
11
6
0
0
18
0
35
0
0
5
0
26
20
1
1
9
12
36
15
52
1
0
0
16
30
0
0
0
112
255
219
0
0
0
0
60
0
0
0
0
77
255
0
0
0
6
48
0
65
0
0
127
1
1
0
44
0
0
0
0
38
0
1
19
11
0
0
206
0
0
2
120
0
30
0
0
0
0
0
93
45
0
80
0
0
92
66
91
24
0
0
0
0
0
0
35
16
148
144
0
0
70
84
108
0
7
108
0
0
90
0
0
0
32
0
0
0
167
145
31
0
0
0
63
0
46
0
71
140
79
7
0
0
12
41
23
39
0
14
14
0
0
0
0
60
35
0
0
0
0
46
0
36
0
95
0
0
9
0
0
0
48
0
0
0
0
0
14
21
0
0
0
24
10
0
0
0
0
0
0
10
0
0
7
17
34
30
0
16
4
45
0
0
27
0
13
52
1
0
0
20
17
29
0
0
0
0
39
13
0
0
0
4
0
15
24
0
33
7
0
0
3
0
0
0
0
0
2
13
0
0
3
14
0
0
5
0
11
0
0
0
14
0
0
12
0
0
8
0
0
23
0
0
4
0
0
0
27
7
0
0
59
1
0
10
0
1
0
0
12
9
10
0
12
0
16
9
28
2
13
44
83
91
143
79
29
17
0
0
0
4
1
0
15
45
6
5
0
43
26
9
0
12
0
37
0
85
0
62
0
0
110
0
0
0
0
100
0
0
11
0
33
0
132
0
53
20
0
0
59
56
0
31
27
58
0
45
0
0
0
164
85
0
9
25
24
0
0
32
0
69
0
0
54
51
32
0
0
1
0
0
0
38
16
0
23
0
0
24
0
0
8
0
0
3
1
21
22
13
17
1
9
53
0
0
24
18
0
6
23
0
24
52
0
32
0
0
5
9
0
7
20
31
14
0
0
0
5
0
23
0
0
49
57
43
29
3
7
0
0
0
0
0
0
10
0
0
10
0
0
0
0
0
6
3
2
0
3
9
2
0
25
10
0
0
20
0
26
7
21
26
54
50
42
2
0
23
0
0
13
0
0
22
0
10
0
31
0
8
24
66
14
49
14
25
73
64
0
0
34
60
18
30
0
10
0
0
11
0
0
0
0
1
0
0
6
0
0
33
15
0
0
28
0
0
0
2
0
0
9
0
0
0
0
0
3
8
0
0
27
15
0
0
0
0
13
0
11
0
0
0
0
6
0
26
0
0
0
0
82
253
143
0
0
0
0
29
86
64
0
0
0
255
98
0
0
0
0
0
0
0
0
0
44
27
35
0
15
86
0
18
0
45
23
0
4
0
0
0
241
31
0
0
22
0
47
7
0
5
0
0
0
124
5
35
61
0
0
81
95
58
80
0
0
0
0
0
85
0
0
0
0
8
95
180
0
0
0
66
79
0
0
14
0
20
59
69
9
0
7
120
60
6
0
0
0
0
130
0
0
115
125
167
8
0
0
0
0
0
0
1
0
97
0
0
0
129
23
0
0
4
0
0
18
0
0
123
0
0
27
0
67
0
0
27
0
3
0
14
0
26
23
44
27
0
0
48
0
33
46
60
7
37
0
0
15
14
0
21
68
0
0
0
0
0
0
60
0
0
0
0
0
42
24
21
0
0
9
0
6
24
26
0
54
31
0
19
0
10
0
0
11
5
0
19
0
44
24
0
0
24
0
15
0
20
0
0
12
0
26
0
8
0
0
0
7
37
0
16
6
0
8
0
0
4
14
0
34
0
0
0
0
0
19
0
2
30
9
0
10
12
0
23
12
1
20
3
0
0
0
0
3
20
0
37
90
129
105
100
33
0
0
0
0
0
0
0
0
4
23
18
0
32
36
19
15
37
13
76
0
0
0
0
0
74
8
0
76
108
21
0
41
0
58
0
101
0
23
42
0
0
66
38
0
0
0
15
0
86
0
0
0
202
44
0
44
22
0
4
0
49
0
78
0
0
0
9
0
0
0
39
15
0
0
0
0
10
0
4
0
2
0
32
0
16
0
8
0
0
0
2
0
0
31
0
0
15
31
0
0
0
0
22
0
0
0
0
19
13
13
28
25
0
17
0
0
4
25
26
10
0
19
0
0
36
19
4
4
0
31
14
7
8
0
0
0
0
0
0
0
0
12
10
15
0
0
0
9
0
1
8
19
0
3
0
0
0
0
15
22
9
54
11
56
0
26
0
0
0
0
0
27
7
0
0
12
8
0
0
0
5
0
20
0
6
0
0
73
75
0
0
7
0
0
15
0
8
0
39
0
6
24
33
0
46
3
0
0
38
11
0
0
13
0
0
0
53
0
3
41
0
12
0
3
1
17
7
0
0
20
4
0
3
15
31
0
2
2
24
0
2
24
0
3
0
0
19
0
0
0
187
208
68
0
0
0
0
99
136
0
0
0
0
105
255
42
0
0
47
42
40
14
21
9
0
0
137
14
14
0
0
0
0
81
90
0
24
13
8
0
0
137
71
0
0
0
0
0
0
0
0
78
0
0
35
85
1
106
4
0
0
75
100
142
78
0
0
0
0
0
0
0
9
0
66
94
67
0
0
0
0
82
99
0
0
0
0
43
82
123
10
0
0
0
101
26
0
0
127
103
0
0
0
139
255
113
0
0
0
0
72
0
5
34
0
22
0
0
72
36
0
50
42
0
9
0
0
0
129
0
60
3
0
25
41
3
0
0
6
0
34
6
13
55
0
0
0
0
37
0
0
0
11
0
0
0
0
8
0
27
0
0
0
0
18
50
17
0
0
35
3
0
33
0
30
14
7
32
0
0
0
43
0
0
2
0
9
14
0
10
32
0
0
25
15
6
27
0
3
9
0
0
45
0
36
0
13
25
5
11
0
0
0
23
0
21
1
0
6
18
1
0
0
29
0
14
0
0
0
0
0
14
5
0
5
0
0
2
15
3
4
0
18
0
0
0
3
2
0
0
4
2
22
0
11
0
0
0
19
29
105
134
101
45
0
0
0
0
0
0
0
0
0
2
65
0
0
5
31
0
17
0
0
35
10
0
89
0
0
0
89
0
0
98
0
95
0
45
0
0
16
0
16
67
0
0
0
0
54
30
32
0
0
6
213
21
0
22
23
0
5
0
12
0
83
0
0
6
28
3
0
0
22
0
16
0
0
0
0
0
0
14
11
0
15
0
0
0
18
0
15
0
2
23
0
11
0
0
0
0
0
0
0
0
0
0
33
0
23
11
32
0
0
7
0
10
0
27
0
0
32
10
7
0
0
0
33
21
29
5
7
4
0
3
0
0
13
6
0
0
1
18
0
5
0
21
0
0
5
10
0
0
8
0
2
0
3
0
7
0
0
24
12
52
30
74
12
62
0
0
0
0
0
10
0
0
30
2
0
4
52
50
3
21
50
38
71
0
7
84
95
45
0
4
0
0
49
0
0
11
0
8
0
24
29
0
8
0
0
58
36
0
62
0
0
27
0
0
0
0
9
5
0
0
5
0
10
0
2
0
38
0
0
5
0
0
0
8
5
15
0
0
5
6
3
0
16
0
0
0
45
201
221
12
0
0
0
0
0
46
0
0
0
0
0
255
255
0
0
0
0
0
0
0
0
0
11
41
96
31
13
0
0
0
0
60
10
0
17
0
22
0
0
213
38
0
0
13
0
122
24
0
0
28
0
0
0
77
59
22
43
0
0
0
93
148
105
55
101
44
52
70
0
0
91
18
143
132
0
0
26
0
0
0
174
88
0
20
0
0
36
170
132
0
0
0
0
255
0
0
116
0
0
38
0
0
233
205
60
0
10
0
0
11
14
0
11
0
0
0
48
0
0
0
0
0
0
0
0
21
147
0
0
0
0
0
28
0
7
28
17
37
0
0
2
32
0
0
0
22
38
15
20
2
0
2
49
23
0
18
26
2
0
0
0
12
0
0
5
0
0
12
28
0
0
0
14
0
0
14
2
24
0
44
0
9
28
1
29
0
12
0
0
0
18
0
0
0
0
2
0
5
1
0
0
0
0
3
0
16
5
0
9
5
0
2
0
17
20
0
0
30
0
0
12
15
0
2
6
17
13
0
0
0
10
9
0
15
5
20
4
0
9
0
25
0
1
18
0
4
0
5
14
0
0
12
0
0
23
0
6
0
14
46
90
125
98
71
0
0
0
0
0
0
0
0
27
0
0
0
67
0
11
0
34
0
0
0
13
44
0
0
169
0
0
0
0
50
0
45
0
0
53
0
0
64
0
25
0
0
32
111
41
0
0
38
203
0
0
18
28
0
0
0
40
0
52
0
10
0
3
51
14
4
10
0
34
24
17
0
48
0
0
0
10
0
0
7
9
0
0
2
26
0
16
22
0
24
19
0
32
0
34
19
0
41
42
8
18
0
30
0
14
0
0
30
8
0
0
38
41
0
0
0
3
20
0
0
49
41
31
9
0
25
0
0
0
0
10
2
13
0
0
0
0
14
0
3
13
0
0
2
10
10
10
0
19
0
16
0
0
6
20
31
30
30
1
11
0
0
0
0
0
12
0
0
12
56
9
6
0
11
0
0
0
17
0
0
43
0
52
92
111
48
0
75
0
28
0
0
9
0
4
0
0
0
0
0
0
12
0
41
41
8
41
0
0
20
16
0
6
0
45
17
30
0
34
8
0
31
8
1
6
18
0
0
23
2
2
15
0
0
0
0
26
11
0
0
0
0
0
12
141
136
0
0
0
0
0
0
0
0
0
86
0
0
110
255
127
0
0
0
0
0
3
42
0
0
0
0
1
69
0
49
0
0
0
0
25
0
8
13
0
0
0
120
79
93
13
0
0
14
18
0
0
21
0
0
0
0
168
71
31
17
0
0
40
97
60
92
204
132
164
123
88
72
55
18
150
0
0
0
13
90
26
0
0
128
38
0
0
0
8
13
51
0
0
0
0
186
88
0
203
57
0
115
0
0
44
255
214
0
0
0
0
0
0
40
0
0
4
0
86
8
14
0
55
0
53
0
0
74
71
0
7
12
0
50
22
0
0
13
0
6
0
32
41
0
10
10
24
0
0
3
0
19
0
38
0
0
0
0
0
12
0
23
0
20
0
45
30
5
0
42
23
0
23
0
44
8
35
0
1
0
0
49
0
0
7
0
22
0
0
12
18
18
9
0
10
4
0
0
0
30
11
0
31
0
33
20
15
0
0
0
30
0
0
20
0
6
1
0
4
18
0
0
22
7
0
0
0
0
3
13
0
0
26
3
0
14
0
36
0
0
26
0
0
0
7
0
16
6
0
0
11
21
0
17
13
0
0
0
5
0
15
1
15
31
91
155
117
61
0
0
0
0
0
0
24
7
14
0
0
0
14
0
0
23
9
1
66
91
0
0
159
0
0
57
0
101
0
72
0
0
91
0
45
60
0
59
0
0
0
0
10
0
0
53
210
0
0
0
63
0
0
12
0
0
68
0
0
0
0
25
6
20
7
0
0
0
36
0
0
0
21
37
10
21
49
20
0
0
0
0
22
7
0
8
0
0
13
0
4
21
16
1
0
5
40
0
3
0
0
0
17
2
19
0
1
10
0
0
0
25
36
0
0
0
0
0
45
37
11
34
0
26
0
16
0
11
0
19
0
0
14
5
3
0
13
0
9
4
0
0
0
0
9
13
11
13
4
0
17
14
81
28
8
0
0
0
0
48
4
0
0
0
0
19
0
0
0
0
9
22
19
19
19
26
32
0
0
0
15
89
121
26
5
38
0
22
32
0
31
8
26
0
26
0
14
0
0
4
0
11
0
0
0
19
0
0
0
0
0
0
0
6
0
0
0
0
0
0
0
5
0
4
0
0
0
17
0
0
22
0
15
0
0
8
0
0
11
74
72
37
27
0
0
0
0
0
18
0
19
0
74
17
0
105
128
81
0
0
5
0
77
36
68
0
0
0
14
0
0
43
56
79
0
0
28
172
0
0
21
0
41
0
0
0
48
9
0
0
31
40
0
0
62
149
0
0
0
0
65
218
23
0
47
0
0
0
0
0
0
0
97
0
0
50
68
171
71
0
0
0
0
63
75
8
0
0
63
68
0
0
0
0
51
0
29
0
37
0
11
132
255
43
0
189
62
0
0
136
255
236
0
0
0
26
0
28
0
0
10
0
92
40
0
0
2
0
31
8
0
77
117
0
0
0
0
34
2
0
0
21
38
0
0
0
0
0
0
0
3
2
0
16
5
38
0
0
18
12
1
13
25
46
0
85
0
8
0
37
0
0
0
0
50
0
3
0
0
51
0
33
0
6
27
38
24
16
12
11
0
0
21
25
0
0
11
0
10
0
0
0
0
0
0
0
43
2
13
0
0
0
0
29
6
0
0
4
0
0
0
6
3
0
2
0
0
6
0
48
0
5
0
0
0
0
0
0
0
8
0
0
6
0
23
15
0
0
0
0
11
12
0
11
17
0
0
0
4
0
9
15
3
2
0
0
8
3
16
47
92
136
96
42
0
0
0
0
0
0
0
0
19
0
0
0
0
50
0
0
44
0
0
0
158
47
0
1
0
72
0
53
0
20
37
0
12
84
0
4
0
38
53
0
89
0
0
34
208
0
15
0
43
0
0
23
0
7
17
0
0
0
0
12
47
0
0
0
12
13
10
0
21
0
0
35
0
0
0
0
0
0
0
0
0
14
0
5
0
7
17
33
0
0
0
0
0
32
0
51
0
0
2
1
0
6
8
0
0
4
0
37
0
0
0
0
46
0
0
25
50
37
2
0
0
3
0
14
0
14
0
0
0
11
0
2
3
0
0
0
0
9
0
8
18
13
22
6
17
0
16
0
29
30
60
0
0
0
0
0
0
0
0
0
0
5
30
44
0
8
0
9
0
0
31
0
0
0
0
0
7
2
0
91
129
35
21
13
0
16
17
0
0
0
2
9
35
0
0
0
0
0
55
11
23
0
0
54
14
0
23
0
10
13
12
0
0
1
16
33
31
16
15
7
3
7
13
6
8
11
0
0
0
0
15
10
0
0
16
15
122
82
44
0
0
0
0
4
0
3
0
0
0
0
204
0
94
233
138
0
0
0
0
0
14
0
0
0
12
11
28
0
5
0
0
109
0
0
65
119
0
0
0
0
24
0
0
0
126
0
62
0
7
26
10
0
108
121
0
0
0
0
0
139
171
0
99
63
0
0
0
0
0
0
0
0
0
119
41
137
0
0
93
0
0
0
85
34
0
0
0
161
118
0
24
0
86
0
0
3
52
48
0
172
193
0
0
0
78
0
0
0
27
255
136
0
0
0
0
52
54
13
39
0
93
5
0
0
37
8
0
0
0
50
123
0
0
19
0
16
28
0
5
0
41
25
0
0
59
51
0
0
0
2
0
37
0
0
0
12
0
0
10
17
0
27
0
8
0
27
0
0
10
71
3
0
28
0
0
0
0
71
16
1
11
0
11
0
12
53
13
0
31
3
0
8
0
7
35
0
22
0
27
17
0
45
0
0
31
0
32
0
6
17
0
0
16
0
28
0
0
38
0
0
0
10
0
12
3
0
4
0
13
0
0
0
29
0
22
0
8
0
26
0
0
0
0
0
22
5
3
8
0
14
0
13
13
0
0
2
9
0
0
0
21
0
0
0
5
0
0
0
23
41
99
136
115
51
0
0
0
0
0
0
32
0
0
0
0
30
0
9
49
0
103
0
98
30
0
0
0
62
0
85
0
0
51
0
16
40
0
20
0
72
0
0
149
0
0
27
202
0
26
0
39
5
0
58
0
6
17
0
0
31
0
0
29
22
0
0
19
0
0
19
0
9
42
10
0
8
0
0
51
11
21
0
5
0
1
13
0
0
0
0
0
45
0
0
0
0
10
0
0
0
36
0
2
3
0
0
35
11
0
10
49
0
0
0
0
0
0
0
22
0
23
9
21
6
5
0
0
10
0
0
12
0
0
6
0
4
0
29
0
0
0
15
0
0
0
0
24
25
10
11
34
18
48
0
0
0
0
0
35
6
0
0
28
0
37
0
27
0
0
6
14
0
39
24
18
0
0
2
16
13
24
89
128
0
0
36
35
23
0
6
0
0
1
26
31
0
35
0
1
0
23
5
2
0
0
9
0
0
0
0
0
0
0
29
0
0
0
0
0
0
0
27
12
0
0
0
22
0
7
0
22
0
0
0
0
18
44
71
35
0
0
0
36
0
0
9
30
0
0
0
0
74
25
0
255
215
0
0
0
0
0
0
0
12
13
0
0
0
9
13
0
0
0
74
61
0
175
42
0
0
0
62
12
40
0
0
145
0
0
0
0
8
0
0
198
0
0
17
0
0
0
0
189
48
13
0
37
20
0
0
0
0
124
0
0
44
79
93
0
0
117
99
0
0
0
0
0
12
0
0
85
72
0
11
0
30
15
0
0
1
0
56
138
0
0
0
42
0
80
0
0
0
255
0
0
0
0
27
0
0
0
6
140
0
0
0
0
0
0
0
0
38
170
0
0
0
0
51
0
2
0
0
39
12
0
0
0
39
0
11
16
55
0
12
0
5
0
0
0
65
0
0
0
0
20
11
0
0
25
53
1
0
0
34
25
0
0
0
0
35
8
0
20
0
41
0
0
0
0
0
9
25
24
0
0
17
9
0
0
0
11
0
16
22
0
6
5
8
0
36
0
20
0
0
2
0
17
0
10
0
0
18
55
26
2
0
0
0
0
0
29
0
0
11
0
0
10
1
0
0
13
35
18
28
21
17
0
11
10
0
7
0
0
2
0
6
0
29
15
21
3
0
8
0
10
0
0
0
16
0
0
12
5
57
101
127
85
55
0
0
0
0
0
0
12
12
0
21
0
56
7
0
88
0
110
103
0
59
0
86
0
63
0
3
34
0
51
59
0
17
0
0
37
0
162
0
0
75
169
0
6
24
42
0
0
62
0
0
3
0
0
0
5
24
0
20
0
0
22
27
11
10
12
0
0
0
52
0
21
0
0
32
0
0
29
0
0
30
0
26
0
1
0
0
1
0
9
0
13
0
0
41
0
0
5
29
0
9
17
0
27
2
0
0
0
0
0
0
0
0
12
29
32
9
13
8
11
0
4
11
0
0
3
0
3
7
9
10
2
0
4
14
0
13
5
0
7
9
11
33
27
0
31
42
0
0
0
0
0
0
0
0
19
0
0
0
14
0
0
0
16
16
15
0
28
0
0
4
0
21
0
0
0
84
133
4
0
8
11
0
18
35
2
0
0
0
20
0
0
0
3
0
53
28
0
20
0
23
0
31
0
0
15
0
0
22
5
7
8
12
0
0
0
10
2
20
16
0
0
2
25
0
0
21
0
0
54
4
0
0
10
0
0
13
5
0
28
22
6
0
0
0
0
240
0
0
255
187
0
0
0
0
0
53
0
0
0
0
0
0
35
0
0
0
0
18
4
94
149
0
0
0
0
0
0
0
0
0
145
47
27
0
0
34
0
22
188
0
0
0
0
0
0
0
0
43
180
76
16
95
45
0
0
119
35
0
0
14
168
34
0
0
23
177
147
0
0
0
16
71
30
0
0
157
12
10
0
13
0
0
0
96
0
0
148
170
40
0
201
0
0
69
70
0
203
255
0
0
13
2
0
0
37
0
85
0
0
6
35
30
0
0
0
65
45
0
14
0
0
11
0
0
11
0
0
0
0
0
0
0
0
38
0
0
0
0
1
0
0
13
0
0
12
17
25
0
35
0
0
0
55
29
0
0
0
0
0
0
0
0
0
0
0
0
29
0
2
0
32
19
0
25
32
0
18
5
0
0
0
0
5
9
0
0
14
0
0
0
18
29
0
4
0
26
0
0
16
0
0
14
0
32
0
0
0
0
16
0
0
9
14
11
3
0
13
16
1
0
0
14
16
0
0
0
0
0
26
0
0
15
0
0
0
0
9
24
0
0
0
0
0
0
0
17
0
8
12
26
13
0
4
30
0
10
0
19
23
61
120
152
58
0
0
0
0
6
0
0
0
68
0
101
0
0
64
0
71
45
0
5
0
81
0
31
0
0
43
0
63
19
0
30
0
43
52
0
112
0
0
40
121
0
0
0
23
0
0
86
0
0
0
0
0
5
22
0
3
71
0
0
10
0
0
0
0
21
16
0
0
0
0
31
19
10
0
3
0
12
5
28
0
0
0
43
0
0
6
0
18
0
30
13
19
0
0
0
39
0
0
0
0
24
0
0
15
22
0
0
0
0
0
0
2
33
18
6
14
0
7
0
0
11
0
9
0
6
10
0
4
0
0
8
0
0
0
5
0
2
0
29
9
26
14
38
73
33
0
0
0
0
0
0
37
51
87
22
35
14
10
31
0
21
0
11
32
0
34
0
0
46
0
36
31
0
0
86
139
33
0
17
0
1
52
24
0
0
39
6
0
29
13
27
0
0
15
53
16
2
0
17
0
0
0
0
6
4
30
0
0
29
8
8
12
19
0
0
0
0
0
22
0
5
2
0
0
0
0
0
11
0
22
0
12
0
0
33
0
35
0
0
0
0
0
0
119
117
0
203
255
0
0
0
6
18
14
12
0
5
44
0
0
67
6
0
0
0
0
0
0
179
200
0
0
0
16
10
0
0
0
0
119
82
54
0
0
0
0
142
234
0
0
16
45
0
0
0
0
0
114
209
94
170
116
42
0
4
0
0
10
76
241
0
0
14
0
0
139
133
0
0
0
14
130
0
0
20
191
75
0
0
35
0
22
108
13
29
50
30
255
7
0
0
0
0
142
0
0
255
104
0
0
12
0
0
0
6
78
0
22
0
0
0
0
0
0
96
11
0
5
10
0
38
38
0
0
0
52
34
0
0
21
50
0
31
0
0
5
0
62
22
7
3
23
0
8
17
4
0
0
9
59
9
25
51
0
0
0
45
35
0
4
10
11
3
17
2
84
31
24
0
1
29
0
0
0
0
5
9
0
21
12
19
25
13
0
27
41
0
50
0
0
18
12
0
0
0
1
22
0
0
19
8
0
0
0
23
0
27
11
0
0
0
0
0
0
36
2
0
0
18
41
0
8
17
0
13
0
0
9
0
9
15
7
0
25
0
0
0
0
0
0
4
30
0
0
0
11
0
0
0
3
0
0
0
8
0
0
0
1
23
17
79
120
102
68
0
0
0
0
0
0
55
0
106
39
0
107
0
53
111
0
0
0
49
0
77
0
0
32
0
0
50
0
2
13
69
5
0
97
0
0
88
69
33
0
0
0
0
0
89
0
0
23
10
0
0
23
0
0
13
17
0
4
0
0
8
0
7
0
10
3
0
11
0
0
0
3
26
25
4
0
0
0
14
0
19
0
9
0
0
25
0
0
0
22
0
12
0
0
0
0
22
9
37
0
47
4
0
0
0
0
0
0
0
34
29
47
11
10
4
0
0
3
0
0
6
0
3
1
13
6
0
0
0
9
5
0
15
17
0
30
7
28
49
57
20
46
0
0
0
0
0
16
18
6
6
7
0
6
27
0
0
0
5
0
18
0
0
25
0
0
59
0
39
11
24
19
87
138
6
0
0
44
0
3
4
9
4
33
0
0
0
0
0
7
21
27
0
0
0
0
19
0
48
15
0
5
6
2
28
0
0
0
8
4
9
0
17
0
4
14
0
0
0
0
31
16
6
0
0
0
5
0
0
9
5
18
0
0
20
33
28
5
0
0
0
255
0
0
255
255
0
0
0
62
0
0
0
40
0
26
0
11
0
0
0
0
0
0
0
0
174
123
0
0
0
24
0
0
26
0
0
124
130
85
0
0
0
10
151
98
0
0
57
0
0
0
0
0
0
0
0
0
8
205
128
73
0
0
80
193
153
210
0
0
78
0
0
0
154
101
0
9
0
73
53
0
0
92
154
58
0
0
45
35
47
0
0
0
0
137
179
0
0
0
0
102
255
0
205
255
0
0
0
11
0
44
2
99
0
2
0
30
0
0
0
0
196
79
0
8
2
0
5
33
51
0
0
29
0
0
0
7
54
0
0
0
134
84
0
0
0
0
0
18
0
2
0
45
0
18
0
0
0
0
0
31
5
0
57
0
15
3
0
0
0
33
0
0
0
0
13
0
0
0
31
26
0
27
2
0
39
0
4
0
0
23
1
9
0
0
0
0
0
7
22
0
30
0
0
0
0
31
0
3
4
21
9
0
14
14
0
13
31
30
31
0
9
0
3
0
8
0
0
0
0
13
0
0
0
7
0
4
0
0
0
7
0
0
0
0
16
0
10
0
2
8
0
34
0
20
0
10
1
26
0
0
0
10
10
2
0
0
25
66
95
132
42
0
0
0
0
0
0
0
20
2
0
0
45
39
89
0
0
18
0
0
50
0
3
52
0
0
50
4
0
0
31
0
0
55
0
43
142
33
0
6
0
3
0
0
37
0
9
24
0
9
0
2
0
22
0
42
0
22
0
14
3
7
19
13
14
0
4
2
42
32
0
0
23
0
0
57
23
0
10
0
43
5
0
47
11
23
0
25
9
0
0
6
0
12
0
3
39
0
45
0
0
27
44
34
13
9
0
0
0
28
36
19
22
5
18
0
0
4
2
0
13
1
8
0
0
0
0
2
0
6
11
16
8
24
0
0
9
46
16
75
0
0
0
0
0
6
0
21
12
0
0
0
56
9
0
23
0
28
21
7
11
0
3
0
5
9
15
0
0
19
10
0
85
140
34
7
18
24
0
0
0
14
22
0
33
9
0
0
0
0
0
0
0
8
0
43
0
0
0
0
0
14
0
0
37
0
15
5
5
11
38
0
14
0
0
15
0
23
0
18
0
0
0
6
1
26
0
16
9
6
7
11
16
15
12
0
0
0
48
0
62
255
0
0
255
216
0
0
13
0
0
21
5
0
36
25
0
13
12
45
0
12
217
46
0
0
88
29
0
0
0
0
0
0
0
0
45
106
170
6
0
0
0
148
92
0
0
0
80
14
0
0
0
118
0
97
0
0
0
0
64
0
0
0
254
108
0
0
0
0
81
90
0
0
0
170
36
0
10
0
84
0
0
0
54
148
0
0
2
4
48
21
0
0
24
0
226
212
0
0
0
0
0
0
0
248
139
0
0
28
0
42
61
0
0
50
0
21
0
16
0
0
153
0
7
0
0
0
18
1
0
11
0
62
0
11
0
0
0
15
0
0
31
23
0
0
28
0
16
0
0
12
0
0
0
0
20
10
0
35
23
60
37
0
0
0
21
0
0
0
14
84
0
0
31
2
0
67
31
33
0
0
0
0
12
0
8
0
22
0
0
22
0
0
0
0
25
23
0
0
18
0
29
4
35
0
7
9
0
38
0
16
0
0
32
0
0
0
0
0
11
0
4
0
4
14
0
0
0
17
43
4
4
4
29
6
8
0
0
17
11
0
21
0
0
0
24
0
15
7
0
5
0
16
0
6
0
1
0
2
0
2
16
5
0
0
7
0
0
23
37
85
137
77
0
0
0
0
35
0
38
33
0
0
84
26
55
0
0
44
17
13
49
0
0
68
0
108
41
0
0
13
74
4
0
81
0
15
186
2
10
6
0
0
0
0
44
0
0
0
0
23
20
6
0
0
1
11
0
0
13
28
0
0
1
0
6
0
32
0
19
0
15
0
8
35
0
0
0
12
60
0
0
0
27
0
0
0
18
31
4
0
0
0
0
55
19
0
0
44
27
0
32
0
0
62
0
0
0
0
0
51
20
33
0
11
11
0
15
0
7
0
0
0
15
2
12
5
5
2
0
4
0
0
13
23
0
21
21
15
49
0
0
0
0
0
9
0
0
0
1
5
3
11
0
17
2
52
0
0
0
0
0
0
45
0
56
8
5
0
0
0
24
0
86
135
0
0
0
11
34
18
0
0
0
19
0
10
0
86
0
36
17
52
33
10
21
7
20
0
0
0
0
30
21
0
11
4
0
15
0
0
0
1
0
14
10
0
12
6
0
0
0
7
11
4
0
0
0
13
15
0
0
0
8
13
6
0
0
47
112
0
255
70
0
0
213
52
0
3
0
0
0
43
0
0
0
0
0
26
0
0
3
0
201
187
99
0
61
0
0
0
0
0
0
0
0
72
140
189
103
0
0
0
75
33
0
0
16
0
0
0
0
0
102
125
50
10
0
0
0
0
3
0
114
122
110
0
0
0
0
0
0
12
42
0
0
0
155
47
41
0
0
0
0
0
0
99
64
0
0
0
8
96
0
0
166
0
0
255
210
0
0
0
0
0
75
0
255
0
0
0
0
7
0
2
0
0
0
0
0
0
0
0
121
0
44
0
0
0
26
0
0
30
0
34
0
21
0
13
0
50
0
0
0
87
62
0
0
14
0
50
10
0
26
42
29
0
42
28
0
0
35
23
51
15
4
12
0
21
0
0
0
47
0
58
0
2
0
0
1
0
0
28
12
6
23
3
20
0
22
0
0
20
10
0
0
12
2
6
7
9
0
9
0
0
5
0
0
53
0
26
2
33
0
16
2
0
0
9
41
14
0
12
1
0
0
1
7
0
15
0
0
9
31
0
0
5
16
0
10
18
16
0
0
21
0
5
0
6
25
0
14
8
0
32
0
11
9
0
10
24
0
10
1
0
7
0
0
10
0
1
0
37
83
122
115
0
0
0
0
22
37
0
0
0
72
87
93
0
0
75
0
0
73
0
0
99
0
16
36
0
0
0
36
0
0
80
0
44
187
0
46
11
0
8
20
11
58
0
76
7
2
0
0
17
10
0
21
0
31
0
2
15
0
21
0
18
13
0
0
30
0
11
0
5
0
21
0
0
0
0
0
0
47
0
24
0
4
8
20
64
0
0
54
0
34
0
15
25
4
8
39
2
12
0
20
1
0
0
0
0
0
25
48
21
0
16
0
1
7
8
0
0
0
0
13
8
0
0
0
8
4
0
6
9
22
37
5
13
15
0
0
0
0
0
6
0
0
0
40
20
0
23
35
33
0
17
0
6
0
44
23
5
13
0
21
0
10
12
34
0
19
0
0
18
91
136
25
0
46
5
0
0
0
24
16
0
21
0
0
0
0
0
0
21
0
0
18
41
0
0
0
0
0
0
0
0
6
17
0
0
24
0
8
0
0
0
0
11
10
0
16
0
0
0
3
0
33
22
2
0
10
14
9
0
5
0
13
0
0
45
0
0
255
0
0
86
59
0
0
0
13
10
18
0
0
17
0
0
8
0
0
2
0
0
0
60
165
158
85
55
65
61
76
24
7
35
120
123
120
27
0
0
22
0
65
0
0
56
210
0
0
0
0
23
129
143
0
0
0
0
0
0
94
93
131
48
0
9
52
0
0
116
51
0
46
32
0
0
19
23
0
22
36
0
45
11
127
0
99
0
22
0
11
138
66
0
0
0
0
84
247
145
0
0
8
0
147
0
255
203
0
0
0
50
3
63
38
20
31
32
29
0
0
0
127
0
26
0
0
8
73
35
0
32
0
31
0
0
0
53
0
33
0
0
17
0
4
0
0
3
15
0
0
0
0
21
32
0
0
33
0
0
22
2
3
18
0
0
0
47
10
0
0
111
0
21
28
0
50
4
16
0
0
17
0
0
0
0
24
18
0
0
0
0
13
0
40
0
17
0
0
12
6
0
0
3
12
26
0
33
6
0
37
0
0
0
19
25
0
1
0
0
3
0
0
10
0
21
0
17
0
12
6
0
0
0
0
0
0
0
12
13
0
0
0
2
0
5
0
0
0
0
10
19
0
0
13
0
0
23
0
0
0
0
0
0
12
0
2
0
7
0
6
8
8
59
102
118
14
0
0
0
47
0
0
0
26
34
35
0
0
39
0
0
5
0
0
9
0
13
50
0
0
0
74
0
0
112
0
96
227
0
35
0
0
0
0
18
82
0
22
0
0
33
0
6
0
2
0
0
32
0
0
30
0
27
8
0
16
7
0
14
0
11
21
0
0
41
8
20
0
22
0
0
24
0
8
21
14
8
0
0
0
0
15
0
0
0
55
0
38
0
6
41
14
0
13
0
0
0
0
0
33
0
54
21
5
1
22
0
0
0
14
21
2
0
0
1
8
11
0
2
10
9
3
29
31
31
0
25
0
0
0
75
0
0
0
0
0
25
74
0
0
32
0
0
0
3
0
0
0
0
3
0
0
0
0
37
0
0
0
0
28
0
0
0
86
134
20
0
0
10
0
59
0
47
10
16
9
9
46
9
22
0
21
24
0
27
0
0
22
0
0
0
38
0
0
21
11
10
14
32
19
0
38
10
20
0
16
0
1
0
18
0
8
28
0
13
0
5
3
22
0
0
9
12
0
2
2
0
0
74
0
104
255
0
0
3
98
6
0
0
0
0
0
3
30
58
23
0
0
10
15
0
0
0
0
0
0
58
66
207
252
220
147
117
113
111
188
122
0
0
0
0
74
0
29
0
13
132
9
0
0
0
78
133
169
27
0
0
15
0
0
0
228
48
0
0
0
64
13
0
0
0
0
71
0
32
0
0
0
69
11
0
68
0
0
22
151
0
36
8
68
0
0
2
157
0
0
0
0
0
42
254
0
0
0
0
38
0
0
255
0
0
0
49
11
0
0
7
21
0
0
2
0
0
171
0
0
0
0
0
33
0
0
46
0
16
11
0
0
47
0
17
0
0
44
0
0
34
0
0
0
0
0
0
0
11
50
0
30
33
30
0
10
53
0
71
0
0
7
2
31
0
0
89
0
0
0
4
0
0
20
17
4
0
2
6
0
24
39
0
17
4
30
0
0
4
0
0
0
30
0
6
8
13
53
2
4
0
0
0
0
0
8
0
0
0
0
0
0
24
12
0
4
4
0
28
0
22
0
25
0
0
0
18
0
0
18
29
6
1
0
14
0
0
13
0
3
6
15
7
0
5
0
0
0
0
8
1
0
8
0
16
0
1
14
0
4
0
12
0
14
0
0
0
4
12
64
104
144
0
0
0
0
0
0
0
18
83
57
0
0
0
0
56
21
18
0
67
0
87
14
0
48
0
72
0
0
0
0
83
183
0
30
20
0
23
0
22
20
0
43
0
7
20
0
0
13
25
26
14
19
2
14
8
0
0
0
0
0
20
0
0
6
13
0
27
0
4
0
16
0
28
31
10
0
0
0
0
22
4
0
38
4
0
7
0
6
0
0
14
0
5
4
50
0
10
17
45
0
0
0
0
21
12
29
21
14
0
0
0
14
0
14
3
0
0
9
6
0
0
7
3
0
0
19
13
37
40
0
12
0
0
0
0
59
0
0
0
6
4
51
6
0
6
0
0
0
45
0
0
0
3
4
27
0
23
36
0
8
23
56
0
10
9
4
13
91
130
3
0
25
9
4
0
0
37
0
11
13
9
0
0
27
0
13
12
0
17
18
15
33
0
8
0
0
0
0
6
0
27
0
29
0
0
29
0
19
0
5
0
8
0
15
0
0
0
0
9
0
0
1
0
14
0
0
18
0
1
5
0
0
119
41
208
161
0
234
0
164
3
0
0
43
13
0
0
0
0
0
1
8
50
34
0
33
0
0
0
0
0
0
0
0
0
29
87
141
107
82
15
0
27
85
51
151
0
0
0
0
0
0
0
0
45
154
149
64
0
0
0
0
0
0
74
255
0
8
0
0
23
14
0
2
0
0
7
114
41
49
0
0
0
116
0
46
14
0
0
77
0
17
0
84
6
0
0
150
33
0
0
0
0
218
255
156
0
0
0
0
45
0
255
195
0
0
65
11
2
0
0
0
24
0
23
0
0
166
0
3
65
0
0
92
0
0
0
0
11
0
0
0
0
0
0
61
0
17
0
17
8
23
24
0
0
0
0
0
1
49
0
11
81
0
0
29
20
0
119
0
0
31
0
58
0
0
86
0
0
0
44
0
14
6
0
12
0
3
0
0
0
24
19
50
38
0
6
0
41
24
14
13
0
0
0
4
6
0
0
10
0
6
8
0
37
22
12
15
40
18
21
15
0
17
0
6
0
4
10
0
15
0
22
0
0
0
11
0
0
0
0
25
0
0
0
39
0
0
0
0
3
22
0
0
7
0
1
0
0
0
0
0
0
0
16
12
0
0
0
12
0
11
0
19
1
0
2
3
8
0
41
102
141
10
0
0
0
0
0
0
58
54
0
0
11
0
67
0
0
0
45
0
74
0
0
115
0
86
0
0
0
0
98
150
0
59
12
0
0
0
11
5
0
5
12
0
8
0
0
24
0
0
0
4
14
0
19
12
41
0
24
17
0
0
22
13
13
0
0
33
14
8
0
0
20
0
26
0
15
0
7
7
0
0
37
0
110
0
0
0
21
12
0
29
22
16
44
0
5
0
0
0
0
0
0
14
16
42
21
2
26
17
0
0
0
0
9
2
5
0
3
1
4
0
14
0
7
1
28
17
0
21
52
0
0
0
0
0
48
0
57
67
26
0
28
9
49
15
13
0
10
0
0
27
39
0
26
0
7
0
4
18
0
0
0
0
0
0
15
94
126
0
0
40
3
0
12
7
18
0
6
0
0
33
0
6
0
8
19
0
0
0
0
14
17
0
0
0
0
11
0
18
43
1
0
7
0
6
9
23
40
12
24
10
0
0
0
51
0
0
18
0
22
34
1
15
21
0
39
0
0
0
0
73
134
140
153
0
0
136
0
44
0
74
6
29
0
0
28
0
36
0
0
0
0
0
0
32
0
0
0
41
5
0
0
0
0
0
0
0
0
0
0
0
0
5
0
69
0
0
0
0
0
0
134
105
116
152
75
0
0
0
0
0
0
0
143
146
0
0
0
0
0
81
29
0
0
0
0
35
36
54
0
0
0
0
9
10
45
66
0
0
10
3
0
0
101
0
10
164
104
0
0
0
0
47
206
172
170
0
0
0
59
0
166
255
0
0
0
0
25
53
7
2
15
0
0
0
0
127
19
0
0
0
0
0
0
0
40
49
3
38
2
16
95
17
0
43
0
64
0
46
0
0
0
43
0
13
12
5
0
125
0
0
6
0
0
65
0
21
99
0
0
0
0
3
0
0
115
4
15
0
64
22
0
2
0
5
2
33
48
0
7
2
42
0
0
0
0
0
13
0
9
9
10
11
0
0
5
0
16
15
19
0
4
21
0
0
0
0
0
0
0
0
0
0
0
1
0
25
15
0
17
0
12
0
23
20
16
0
3
10
0
16
1
0
3
1
8
12
13
0
6
1
0
0
28
0
2
24
23
21
11
19
0
0
9
0
0
18
10
0
5
0
0
15
6
14
0
4
9
0
16
44
106
127
24
0
0
0
0
0
18
63
0
0
21
0
26
0
0
0
34
0
32
0
0
56
0
86
0
0
0
0
119
132
0
56
17
0
0
4
60
0
8
0
29
0
0
0
0
0
0
34
2
9
0
0
1
0
0
0
0
30
0
4
0
0
14
0
0
0
0
0
1
0
28
0
0
0
0
27
0
0
54
0
24
0
1
16
3
0
0
0
6
0
0
0
5
20
0
0
14
0
0
0
36
39
40
30
0
4
9
0
9
15
16
3
13
0
0
5
11
17
0
22
0
0
19
34
19
24
38
0
7
0
0
0
0
0
0
0
0
26
0
24
0
0
0
8
40
16
0
0
0
0
0
0
29
0
83
0
0
0
0
0
40
38
0
0
0
96
124
0
23
0
0
28
0
0
20
29
8
0
18
23
12
6
26
0
0
0
10
0
0
0
0
18
0
0
0
24
0
20
0
0
0
17
27
16
0
0
1
13
0
0
8
20
0
9
6
0
0
0
0
10
0
0
0
19
12
11
0
0
0
111
57
183
54
0
0
47
0
111
0
0
30
75
21
6
4
0
0
8
0
15
0
0
0
0
0
32
96
112
0
0
0
0
0
0
0
0
0
0
0
47
0
18
0
0
3
90
139
147
197
164
189
105
117
27
0
0
0
0
0
0
11
94
218
71
0
0
0
40
0
0
132
0
20
0
0
0
87
57
34
0
0
17
0
0
9
0
42
0
0
74
0
0
136
27
0
142
202
6
0
0
0
0
112
140
255
71
0
0
150
0
0
255
63
0
15
27
0
12
0
0
45
0
31
0
0
111
39
0
10
0
4
54
2
0
11
0
35
0
12
1
0
0
0
26
0
34
0
40
0
0
0
12
0
39
0
0
0
144
0
107
0
0
0
10
0
0
15
34
0
2
0
25
23
0
70
59
0
13
48
10
4
0
0
4
0
0
31
30
48
0
0
0
0
0
43
9
24
8
0
4
0
14
0
0
0
7
0
0
0
0
5
2
6
0
2
2
0
31
0
9
0
24
0
6
18
0
0
4
9
0
25
0
0
0
0
0
0
0
0
4
0
2
12
0
0
0
19
6
0
26
0
0
11
0
0
0
0
0
4
0
11
0
0
18
0
0
0
17
13
0
0
1
0
0
0
0
12
0
16
15
40
111
125
33
0
0
0
63
35
121
0
36
95
19
74
27
19
44
38
2
73
0
43
53
0
127
0
49
0
0
118
156
0
31
56
0
1
10
26
0
33
0
13
4
0
29
7
51
0
6
0
0
54
0
20
0
29
29
3
5
0
0
28
0
0
0
0
21
37
19
22
5
0
0
13
6
25
22
8
0
0
0
0
0
34
0
0
0
20
0
13
40
29
0
33
1
0
0
25
1
0
0
0
21
20
15
0
10
10
1
11
0
0
1
0
0
11
3
0
20
3
0
0
6
0
0
11
28
0
28
0
0
0
0
0
0
39
13
3
20
27
0
0
0
0
0
0
25
0
0
28
27
46
0
8
0
0
36
0
0
0
0
22
0
0
31
46
102
127
0
26
0
0
40
0
0
2
5
0
1
10
9
28
0
0
33
3
29
0
8
29
2
10
15
0
0
0
44
0
0
0
1
0
19
3
2
0
0
21
1
0
1
0
11
0
7
3
13
3
8
9
8
15
20
0
9
0
0
19
0
0
91
28
200
0
0
25
93
0
26
0
16
0
23
19
14
5
19
0
92
0
0
38
81
0
38
31
0
6
61
0
0
16
0
0
23
80
0
21
14
32
0
5
0
0
0
0
0
0
0
0
0
0
0
0
0
0
1
0
0
0
0
47
98
227
34
0
0
0
114
0
0
123
0
0
0
0
0
0
59
116
49
0
8
0
0
10
0
49
55
4
0
0
0
89
94
0
0
254
53
0
0
0
0
0
139
174
253
0
0
227
0
0
255
248
0
0
0
0
0
0
0
11
0
0
0
0
121
0
28
0
0
0
15
0
0
10
0
12
4
0
0
0
7
0
14
0
38
0
48
0
24
0
0
2
15
0
6
0
114
0
20
19
0
62
0
22
9
34
90
0
0
0
0
0
0
13
1
0
0
47
25
0
29
0
10
0
25
4
12
22
0
0
0
0
0
27
0
21
0
0
61
7
0
1
6
11
2
0
16
26
0
7
17
30
0
47
16
0
0
14
21
4
12
0
16
0
13
0
15
0
0
24
6
32
0
22
0
24
0
19
30
16
0
18
0
0
25
0
2
0
19
0
9
8
0
29
0
24
0
0
0
0
2
4
1
0
1
0
0
0
0
13
13
0
0
17
7
0
0
2
0
0
45
106
123
0
0
0
0
0
87
0
0
26
0
11
0
0
45
37
47
55
0
20
0
0
87
0
8
0
0
167
108
0
8
31
0
0
0
19
0
0
6
37
1
0
0
0
0
0
24
19
0
37
14
0
0
0
0
0
0
7
0
34
7
0
49
5
0
0
36
0
12
13
4
0
0
0
0
36
0
0
46
84
0
0
0
15
0
0
0
6
0
0
0
13
8
0
0
5
0
0
0
30
33
24
23
4
2
6
0
3
0
0
4
0
19
0
0
1
0
0
0
8
9
24
8
34
33
53
6
0
0
0
0
0
0
3
16
19
24
0
27
55
0
29
5
16
0
12
0
9
0
0
8
11
7
13
0
0
10
0
0
48
19
0
7
36
94
129
37
0
0
0
0
0
14
31
5
9
8
6
3
17
0
0
6
27
14
0
0
0
0
0
0
0
0
0
0
0
11
15
43
0
0
0
4
0
0
0
0
9
21
11
0
0
16
0
2
15
0
33
0
0
32
0
0
38
0
21
0
0
147
88
201
0
0
189
0
255
0
0
0
0
108
0
0
12
2
21
28
6
27
0
0
0
65
0
0
42
0
4
0
0
0
0
118
140
53
0
3
0
0
42
0
38
43
58
0
0
0
9
0
0
0
0
58
0
0
0
0
0
0
0
178
144
29
0
0
0
26
0
0
55
27
18
2
22
0
0
0
77
46
0
0
0
0
0
0
31
38
61
5
0
0
0
113
61
0
171
69
97
0
0
0
0
212
0
255
118
0
255
4
0
70
255
0
0
51
32
85
11
30
30
34
0
24
0
127
0
13
0
54
0
29
0
33
30
20
29
7
0
30
38
28
16
36
0
32
0
78
0
0
0
0
3
0
9
0
0
158
0
24
0
0
11
0
29
24
19
32
55
0
1
0
0
0
0
85
0
0
48
44
0
21
0
0
0
44
0
13
0
0
0
0
42
50
0
0
8
0
0
0
0
3
5
0
0
0
0
19
0
0
18
0
0
0
3
0
0
8
11
0
0
0
0
0
2
0
0
19
18
22
4
0
0
14
28
0
0
23
0
0
12
0
0
3
1
34
0
0
0
8
10
32
0
0
1
0
6
3
1
5
4
0
17
0
32
0
0
0
14
1
11
0
10
0
9
10
4
0
0
0
9
15
50
115
150
0
0
0
0
74
34
0
0
0
72
0
0
0
0
48
0
0
60
0
54
89
0
0
0
0
189
80
0
0
59
0
0
37
37
0
0
0
0
40
3
5
15
0
7
0
6
0
9
23
0
15
0
0
0
0
0
11
0
0
0
0
24
1
28
0
0
20
0
0
12
0
23
0
0
3
1
0
8
4
0
12
31
0
20
0
25
0
16
16
24
5
13
48
0
8
0
0
12
21
15
0
8
22
0
0
11
0
5
3
0
2
0
19
12
16
0
13
16
0
4
3
0
20
10
0
0
0
20
0
0
0
37
11
0
7
0
11
0
3
42
0
17
1
0
0
10
20
0
57
0
0
4
32
0
8
16
0
0
0
0
12
0
95
121
37
0
49
0
0
17
19
10
9
8
6
2
0
9
0
0
14
0
33
13
21
0
75
27
0
0
0
42
22
0
0
0
13
7
44
16
17
15
0
16
19
20
0
0
0
0
0
0
0
0
0
3
10
0
0
0
17
5
0
11
0
0
116
154
190
0
0
0
0
255
1
0
0
0
0
0
0
19
0
25
0
30
40
49
50
0
17
49
0
76
39
57
0
0
0
0
123
0
0
0
7
0
0
0
0
0
0
25
26
0
58
0
0
0
11
21
0
35
80
15
2
0
0
0
141
0
47
103
0
0
0
0
41
82
0
16
93
0
56
0
0
5
155
0
27
84
0
0
7
0
0
53
17
0
52
0
32
123
0
0
57
89
30
5
2
0
159
0
202
251
0
12
0
0
0
255
94
0
0
0
0
0
0
0
37
9
0
0
205
0
22
0
16
0
102
0
55
0
35
32
15
3
44
0
3
0
4
0
0
0
77
0
19
76
31
50
67
0
17
0
188
0
31
9
0
21
9
12
0
1
23
42
0
0
38
50
0
4
78
0
0
70
41
0
84
10
0
0
0
29
0
0
0
0
19
26
26
17
0
14
0
29
45
0
0
0
9
20
16
6
5
9
13
0
0
0
3
14
0
22
0
1
0
3
28
0
11
1
10
0
0
0
0
0
2
9
5
18
0
9
7
0
0
27
0
0
11
0
29
0
2
0
0
0
8
15
14
5
0
10
12
0
0
5
0
2
1
0
4
12
0
6
2
0
3
0
0
2
0
1
0
3
25
0
7
17
35
129
154
0
0
0
45
96
0
41
0
69
0
0
68
0
26
0
0
19
29
73
0
0
0
0
0
231
44
0
0
39
0
0
0
5
0
8
52
5
0
0
0
0
25
18
10
3
0
18
2
0
27
1
0
14
33
11
3
0
16
40
0
0
0
2
0
30
0
40
13
0
0
5
0
8
0
3
0
9
20
0
0
1
0
0
0
0
0
6
0
20
0
38
2
0
0
0
0
24
27
31
6
13
0
0
0
8
0
11
0
0
0
7
0
1
8
0
2
0
1
19
21
13
7
37
0
0
0
0
0
0
0
35
35
20
12
13
5
24
9
14
0
3
0
0
38
20
19
0
9
134
3
12
4
0
40
18
0
0
0
8
0
0
96
103
0
0
0
6
10
3
0
0
0
0
21
0
27
9
0
0
20
20
1
25
0
31
0
0
0
0
0
0
8
21
21
0
2
0
12
0
0
0
19
18
7
0
4
11
0
28
0
9
3
0
0
29
0
0
3
0
0
4
13
2
0
0
0
144
201
0
0
0
79
255
0
0
36
0
57
0
27
0
0
20
0
8
0
0
13
0
36
91
8
29
0
0
29
0
0
0
0
0
18
0
0
0
0
28
52
104
0
25
34
0
15
19
0
11
0
0
0
0
67
0
0
0
28
0
0
0
27
155
43
0
0
0
0
37
0
0
8
0
73
0
0
0
93
79
0
0
0
0
0
24
33
31
24
0
43
4
0
41
0
0
125
0
146
85
135
0
79
0
0
102
69
0
0
0
0
255
255
0
0
4
34
40
21
0
41
0
0
0
159
0
0
31
8
0
109
0
11
15
0
3
0
0
0
0
0
0
17
0
0
36
0
0
0
4
5
0
17
0
0
0
34
0
0
13
0
0
49
20
0
26
6
31
0
14
0
0
0
0
47
0
42
49
14
0
45
0
7
19
0
0
0
32
31
28
6
4
0
0
6
0
0
0
4
0
13
0
8
0
5
4
0
35
19
0
17
7
0
26
0
6
0
8
4
32
0
0
7
0
2
30
0
12
28
0
6
6
0
0
0
11
14
0
29
17
0
0
0
0
5
0
0
0
5
0
0
0
0
0
0
6
2
0
12
0
9
4
0
10
0
14
0
3
27
0
7
0
0
7
13
19
0
2
9
0
0
18
3
66
156
110
0
0
0
53
0
0
0
22
0
1
1
63
51
0
11
36
0
77
0
0
0
0
0
213
18
0
0
0
0
4
0
47
0
0
0
7
0
35
26
25
0
2
5
0
0
5
22
0
0
23
0
1
10
0
1
7
0
0
9
17
1
6
0
0
0
0
16
5
11
0
0
8
30
0
0
0
5
0
14
24
0
0
12
1
5
21
13
12
23
0
0
0
0
0
20
27
25
13
0
20
4
4
0
6
0
0
3
11
0
3
0
15
0
12
19
11
16
0
22
0
0
22
0
6
0
8
51
18
2
40
8
17
0
0
0
13
0
0
3
0
0
0
13
3
54
36
3
0
0
7
0
0
0
0
0
0
9
27
0
24
101
89
0
0
0
48
17
8
0
57
0
0
26
4
26
0
0
11
44
25
4
0
0
0
0
0
0
0
0
0
40
0
10
21
40
0
18
0
4
7
0
0
16
0
29
0
7
11
1
12
22
0
2
0
27
14
43
10
1
25
2
17
0
0
0
100
251
0
26
0
0
255
0
0
0
0
0
0
42
0
0
26
0
37
0
0
0
0
0
19
52
0
0
46
80
16
0
0
0
30
12
0
0
0
0
0
104
66
4
0
0
0
0
4
0
9
0
0
0
0
199
42
0
0
0
0
0
0
0
105
45
81
0
0
0
53
0
0
0
0
82
12
0
0
0
147
38
0
0
0
0
53
17
22
7
0
0
43
0
16
0
0
112
0
104
0
0
33
146
0
0
0
255
66
0
0
0
86
255
0
0
0
0
14
0
6
0
0
0
0
199
0
0
0
44
0
43
0
14
0
0
36
1
25
0
9
68
0
43
0
0
133
0
0
10
32
0
0
0
0
11
0
8
9
0
10
0
0
5
8
54
54
0
37
0
0
0
31
0
0
96
0
0
30
49
0
54
0
0
11
0
0
11
4
8
0
14
0
41
0
0
20
28
17
0
10
0
0
62
0
0
0
0
51
0
0
20
52
3
0
22
0
0
13
0
31
0
0
0
27
0
0
8
5
0
0
0
9
7
14
0
9
0
0
9
15
0
15
2
5
11
7
0
51
13
0
12
28
0
0
0
0
0
15
1
27
0
0
0
11
0
9
0
9
4
0
6
17
0
0
12
0
0
2
0
0
0
5
0
24
67
157
51
0
0
55
0
0
0
0
15
0
0
64
0
0
0
32
0
82
0
0
0
0
36
196
4
0
0
20
0
18
23
17
0
32
21
0
0
0
0
3
0
3
0
26
0
9
0
0
17
0
0
0
14
0
12
0
30
0
8
0
14
6
7
3
0
7
0
0
27
9
11
25
0
0
20
20
44
0
0
14
0
18
0
0
2
0
31
0
7
0
27
0
0
0
35
34
22
0
0
1
23
0
0
0
9
14
0
8
19
0
9
20
0
0
0
2
3
21
46
16
17
0
0
0
0
0
11
0
40
0
7
0
34
0
0
2
12
0
0
0
8
0
29
0
17
0
0
0
0
14
0
0
50
9
22
48
0
21
38
2
102
71
0
0
0
8
0
0
0
0
0
31
0
4
16
0
6
12
39
50
0
25
16
31
0
22
0
0
0
0
0
23
0
0
0
0
28
13
4
0
8
23
7
0
0
12
0
0
13
0
0
15
4
29
0
0
0
0
18
0
0
0
1
0
80
4
0
0
48
0
0
102
0
0
0
0
74
24
14
15
0
0
0
21
14
6
12
0
0
24
12
0
0
0
28
36
0
0
0
25
0
11
0
0
0
0
61
23
80
0
0
29
0
25
0
0
0
14
0
0
236
78
0
0
0
0
0
0
0
100
64
86
89
0
0
20
16
54
46
0
40
0
0
0
0
5
89
69
15
0
0
20
55
104
8
0
0
32
0
71
86
0
48
17
89
0
0
7
158
0
0
0
255
255
0
0
0
0
255
170
0
0
0
0
0
32
0
0
0
0
200
0
0
13
0
0
96
0
7
0
10
73
0
0
0
0
0
0
0
41
3
38
18
0
4
1
0
0
44
0
0
0
16
48
0
88
0
0
0
0
9
67
0
71
63
13
0
48
0
0
78
34
0
28
74
0
89
0
0
0
0
4
38
20
38
0
0
0
2
28
1
0
17
13
0
39
12
0
0
14
0
16
0
0
19
0
12
0
0
0
24
5
19
0
0
0
0
5
14
0
0
0
0
17
29
0
8
0
0
0
0
0
28
9
0
4
17
17
0
0
2
14
0
21
0
0
0
10
0
19
0
13
5
0
0
4
0
16
0
22
0
15
0
1
0
11
11
3
0
10
12
0
0
9
31
14
9
3
4
0
32
102
177
0
0
0
0
9
0
0
32
0
0
34
26
0
0
0
0
30
0
0
0
0
60
186
21
0
16
31
0
14
0
2
18
0
18
12
0
26
0
26
0
45
4
13
0
22
22
0
0
0
0
19
0
14
0
0
22
0
0
11
0
17
0
19
0
0
15
35
0
0
9
15
0
0
16
0
0
0
10
15
0
0
13
6
15
15
6
0
13
0
11
0
0
0
37
42
25
12
15
0
0
3
0
0
0
11
7
0
0
0
0
2
7
3
24
0
25
0
16
0
0
0
0
0
0
30
0
0
27
22
20
0
0
0
3
0
0
0
0
14
0
12
33
0
0
5
3
26
16
0
0
0
12
0
0
0
0
0
8
4
104
60
0
0
8
43
5
39
6
20
0
0
0
26
22
0
6
18
0
0
0
0
29
28
11
0
0
0
0
0
0
7
3
48
19
15
30
20
0
0
0
0
6
42
0
5
0
13
0
5
6
0
8
2
24
11
24
0
0
7
0
0
0
0
152
76
0
7
154
0
112
0
0
10
7
6
0
0
69
0
0
0
0
55
0
12
0
0
12
195
6
0
0
3
2
0
33
13
0
3
0
1
0
0
0
96
90
0
130
0
0
86
30
57
0
0
63
0
0
0
127
92
0
0
0
18
0
0
4
59
48
0
106
7
0
0
45
0
51
0
1
0
0
0
65
0
91
103
0
0
0
65
1
139
22
0
51
0
0
113
13
0
18
44
43
11
0
174
140
0
0
0
255
255
53
0
0
0
255
255
0
0
0
0
21
66
0
0
0
0
184
0
0
18
0
0
51
0
0
0
0
28
0
0
7
22
0
0
0
0
0
96
3
0
0
0
16
0
0
0
0
0
61
43
0
1
0
82
33
47
6
67
0
19
40
0
0
22
0
0
31
0
0
0
100
0
109
0
0
47
0
16
40
0
12
22
0
0
0
5
0
17
0
5
0
0
2
0
6
23
1
0
7
0
0
6
11
0
33
4
1
12
8
0
0
16
15
0
0
0
20
8
5
15
0
0
40
0
12
7
17
11
0
2
0
7
0
31
2
0
3
0
0
0
1
15
30
0
0
17
0
0
1
24
6
0
0
0
0
9
0
0
16
12
4
0
0
0
7
0
7
0
0
0
0
0
0
4
4
0
5
38
108
136
0
0
0
0
0
0
35
0
1
15
70
0
0
26
55
45
0
0
0
0
105
166
0
0
0
12
0
66
21
0
19
0
0
0
15
2
0
19
0
0
0
12
0
23
0
0
0
0
16
9
6
0
0
20
29
0
0
11
8
2
0
0
35
0
0
0
0
5
45
0
11
0
32
6
52
0
0
0
12
0
0
3
0
0
21
34
0
25
0
0
0
0
57
21
12
0
15
3
8
7
0
0
3
16
0
18
0
6
0
1
0
1
25
28
36
0
10
27
0
2
0
13
0
0
43
24
32
32
6
0
3
2
10
39
4
10
12
0
0
0
0
33
0
4
5
14
0
26
20
0
26
0
22
0
0
0
15
3
104
51
0
0
11
22
0
5
0
14
0
0
10
11
29
0
8
5
11
0
12
0
19
14
19
50
0
0
0
0
0
13
0
0
14
0
0
14
0
15
0
20
4
9
1
0
17
0
0
7
0
0
0
6
6
0
12
17
0
0
0
89
0
0
150
242
0
25
235
0
94
0
0
0
0
0
7
0
62
0
20
20
0
58
0
10
0
0
180
35
0
0
0
45
43
0
21
5
0
0
0
35
0
0
20
13
48
50
75
0
0
91
56
27
0
0
0
15
0
0
0
219
8
0
0
46
0
0
67
53
0
0
36
165
0
0
0
0
46
0
0
0
0
0
110
0
4
120
2
0
0
86
0
0
0
7
0
2
0
108
53
0
0
56
103
33
0
180
42
0
0
0
0
255
255
0
0
0
255
255
0
0
18
0
0
29
0
26
14
0
182
0
0
50
0
0
85
0
30
36
9
51
13
0
13
31
8
46
0
25
1
29
0
0
50
47
17
32
7
0
9
0
67
42
0
0
0
0
20
0
28
14
15
0
52
4
0
8
0
0
108
27
0
0
84
0
49
0
26
69
2
24
58
20
0
7
0
2
7
12
2
19
0
1
0
13
0
0
18
0
11
0
0
20
0
0
1
0
0
4
12
0
0
6
7
0
0
3
0
20
7
7
0
17
0
11
42
0
15
0
1
0
0
0
0
0
0
4
11
0
0
7
17
26
18
0
0
9
7
46
0
5
0
4
0
0
1
10
5
10
0
0
6
7
1
0
0
12
7
1
14
0
15
10
8
0
0
0
0
10
17
14
57
165
61
0
0
0
15
0
12
0
32
68
17
0
0
0
48
74
0
0
0
0
116
121
0
0
0
7
0
0
0
11
17
0
42
3
22
15
14
1
24
16
7
1
0
0
35
24
0
11
0
0
20
30
0
0
4
7
0
42
0
13
12
0
13
0
11
2
32
0
0
0
2
16
0
0
9
1
43
3
6
0
4
7
50
26
0
25
16
16
0
17
0
0
37
17
16
15
12
10
27
0
7
0
0
0
0
0
0
0
21
0
0
19
9
25
0
0
37
0
0
0
0
0
0
0
34
16
0
0
0
0
0
37
0
0
0
2
0
14
1
10
0
14
24
54
4
0
0
0
0
12
0
0
14
17
38
0
0
0
101
40
0
0
19
0
0
48
10
0
6
0
12
22
0
0
0
25
10
11
22
3
21
5
16
39
0
0
0
5
0
36
1
43
25
0
14
0
8
12
0
6
25
5
0
0
0
0
10
0
0
7
27
0
0
41
0
28
0
11
0
0
1
0
104
255
0
0
119
0
0
88
0
25
0
22
13
0
6
9
0
0
0
86
0
28
0
0
218
0
0
0
2
71
0
0
0
38
0
0
0
15
0
0
40
9
81
51
0
0
0
104
120
53
3
0
23
0
0
0
9
214
91
0
0
0
0
0
36
134
0
0
0
60
136
0
0
0
0
73
0
94
0
0
40
0
0
158
42
0
0
117
73
0
0
33
0
0
0
106
65
0
108
37
98
0
0
91
32
0
0
0
0
157
255
54
0
0
255
255
0
0
0
0
4
22
0
0
0
0
191
0
0
46
0
22
41
0
0
2
0
10
0
57
0
8
36
0
0
0
0
33
0
0
45
3
0
0
7
0
0
0
33
80
0
0
29
0
65
21
40
0
0
0
33
0
0
0
0
0
63
0
0
23
43
0
60
0
26
0
0
0
0
0
0
4
0
0
0
6
2
0
0
7
15
23
25
16
25
0
0
0
0
8
0
0
1
0
6
6
32
0
2
0
35
0
0
9
15
0
0
0
0
0
0
1
1
0
15
0
28
0
18
13
4
0
6
21
0
8
36
0
15
0
13
0
0
3
0
33
0
0
0
8
5
0
11
0
0
6
0
0
3
0
0
11
0
0
0
0
11
6
0
0
8
0
0
27
0
0
0
10
11
81
142
0
0
0
0
0
15
17
0
19
0
0
0
0
32
74
0
0
0
0
157
82
0
0
0
0
13
38
0
24
0
0
0
0
5
0
50
0
0
0
0
20
1
10
21
0
17
0
24
0
0
0
11
29
10
0
0
3
0
0
0
15
15
3
0
5
21
0
3
15
0
48
0
0
0
0
19
0
0
0
13
0
5
0
2
0
0
0
45
0
0
0
21
7
24
2
9
6
9
3
10
3
8
9
20
0
0
8
16
7
0
0
0
40
10
0
0
0
0
13
21
43
0
2
0
56
11
32
0
7
28
3
25
12
19
5
0
9
12
28
26
44
0
0
0
0
0
5
0
18
0
17
0
29
23
7
15
18
104
37
0
0
0
25
5
40
0
4
24
22
33
12
0
3
10
18
2
0
0
23
0
16
30
2
0
0
0
0
8
22
0
0
5
6
15
27
0
0
20
0
0
0
25
36
13
2
3
8
0
13
3
12
0
0
6
0
0
21
21
2
7
0
0
255
8
0
0
0
6
151
0
0
53
0
0
27
20
0
20
0
14
61
0
0
0
53
216
0
0
21
25
0
0
144
50
0
32
4
1
0
0
0
20
9
114
47
0
0
0
0
136
0
34
0
0
25
0
0
0
92
143
20
0
0
0
0
0
204
0
0
0
11
187
81
0
0
0
82
62
9
0
31
0
0
0
75
0
54
0
40
127
0
0
21
27
0
33
65
0
0
145
23
91
0
46
0
0
0
0
0
0
0
255
199
0
0
204
255
67
0
0
0
0
0
0
1
0
0
138
0
104
82
0
36
88
0
0
9
35
9
0
0
0
0
0
0
0
54
51
0
0
0
6
10
0
57
83
0
10
0
50
0
0
0
27
19
0
23
4
65
0
41
98
24
0
0
0
0
147
0
0
54
0
0
74
0
44
0
0
0
14
23
0
11
8
53
4
18
0
27
10
1
0
0
15
0
7
0
15
16
5
11
19
9
10
14
0
0
0
0
17
0
0
0
50
0
0
20
4
11
0
14
0
0
5
0
3
3
3
0
0
0
2
0
15
0
0
33
0
10
0
4
5
0
5
6
0
0
17
9
10
11
14
0
13
15
0
15
21
11
0
0
12
6
2
0
0
13
0
0
1
4
14
0
4
0
2
0
1
2
1
37
107
160
0
0
0
0
26
0
0
0
0
0
0
0
103
0
0
0
0
0
172
69
0
29
0
18
7
11
0
30
0
36
14
0
23
14
0
0
0
9
0
14
0
0
15
0
0
0
0
34
35
0
7
0
0
27
0
0
0
19
10
0
0
0
0
59
0
0
0
35
0
0
0
46
18
0
98
0
25
0
2
0
23
0
3
0
1
0
0
0
0
34
10
35
0
6
6
7
2
0
0
0
0
10
14
0
2
0
0
4
17
18
8
27
31
18
0
0
0
0
10
0
0
0
0
16
7
0
0
0
9
0
0
0
0
0
0
10
5
0
14
5
23
0
0
0
0
47
0
9
0
0
5
0
0
0
27
0
102
38
0
0
0
10
19
35
15
0
0
11
33
12
0
0
24
0
24
0
4
0
0
28
16
35
0
0
0
0
0
0
2
21
17
21
6
5
0
7
6
11
11
2
0
0
12
4
14
0
0
0
0
15
29
29
11
0
20
0
3
0
11
0
0
255
0
12
63
0
182
255
0
0
15
0
10
0
33
0
0
0
54
0
0
0
10
189
63
0
0
0
28
11
0
0
80
0
57
0
18
27
8
0
43
80
84
62
40
0
0
0
105
0
28
0
0
16
0
0
0
16
101
103
0
0
0
0
0
235
19
0
0
0
25
42
101
0
0
0
162
0
14
0
0
0
0
0
0
61
0
3
152
0
0
12
76
34
34
0
0
0
87
0
78
29
48
45
0
0
0
0
0
0
0
167
0
0
226
255
166
0
0
0
3
4
0
9
0
0
128
0
0
0
0
59
48
0
16
0
7
49
6
0
0
55
0
5
17
18
63
85
16
0
0
35
2
46
53
0
0
23
29
0
15
0
12
0
32
0
0
7
9
0
0
51
0
2
0
0
3
0
0
51
0
36
72
0
0
0
4
0
8
21
0
0
0
0
0
0
0
0
0
2
0
0
3
0
45
0
0
0
28
0
0
5
3
0
0
1
8
0
18
5
0
16
8
25
0
25
0
23
3
9
14
18
0
7
0
0
0
0
0
0
8
5
21
33
0
0
0
0
0
5
0
11
16
0
27
0
0
0
0
0
0
0
0
0
0
7
0
0
27
0
0
0
1
2
0
14
8
11
0
0
9
0
8
0
7
1
25
25
0
11
69
141
90
0
0
0
0
0
2
255
2
0
0
1
89
4
0
0
0
10
205
23
0
0
0
47
0
15
27
0
32
0
9
0
0
0
0
10
14
23
0
32
3
41
11
0
40
10
0
0
3
0
0
0
27
0
9
26
0
10
0
24
2
0
10
0
0
0
0
11
0
35
1
0
29
0
4
0
23
0
23
20
0
0
0
0
0
0
0
0
0
19
0
20
0
10
3
10
17
0
0
9
0
11
0
0
11
0
0
9
3
17
21
25
35
0
0
0
0
0
0
45
0
35
30
22
0
0
0
16
22
2
0
0
0
0
0
23
37
0
34
3
0
29
0
0
26
0
0
0
22
13
23
3
12
21
1
23
100
35
0
0
0
0
0
0
1
0
30
18
22
45
0
10
12
0
36
0
18
0
1
5
84
10
14
0
0
0
0
39
38
25
0
7
30
12
0
8
0
17
18
10
0
15
0
0
0
0
39
30
7
0
0
15
0
0
0
36
3
0
0
0
0
10
0
140
148
0
255
255
0
0
9
0
15
53
0
42
0
0
33
7
0
0
167
50
0
0
0
0
0
22
26
0
22
0
16
0
29
0
0
0
0
14
109
57
0
0
0
0
84
0
112
0
0
38
0
0
0
0
0
126
128
24
0
0
0
172
19
0
0
0
0
69
79
10
0
0
79
2
0
21
34
12
0
0
0
17
10
79
117
0
0
15
115
0
55
0
0
13
5
0
165
52
53
45
98
0
0
0
0
0
0
183
69
0
205
241
250
0
0
104
0
31
0
23
0
3
107
3
3
26
0
45
29
0
0
2
14
0
0
0
0
11
0
3
0
0
9
143
0
0
68
0
8
0
60
0
0
10
48
0
0
0
22
3
54
25
24
25
49
0
29
41
0
0
12
0
45
0
78
53
0
29
33
0
5
17
2
10
19
22
8
0
15
16
0
8
37
0
47
4
4
19
0
20
1
0
0
0
10
2
0
6
0
6
5
54
0
0
0
7
7
0
8
16
0
0
0
0
23
0
12
0
2
12
0
16
0
23
13
18
0
0
0
3
0
23
3
9
23
10
29
0
0
8
18
0
0
9
16
19
45
7
2
1
0
15
4
0
10
6
2
1
0
0
1
3
0
2
0
6
21
0
0
0
1
5
0
21
3
1
29
84
172
0
0
0
0
0
0
0
2
0
0
25
79
0
0
0
0
0
139
0
29
0
0
29
0
32
1
28
0
0
0
0
22
0
0
0
0
17
0
0
0
0
39
0
0
0
14
0
0
0
8
0
0
1
13
0
0
39
0
9
0
3
4
27
13
16
0
14
0
2
5
0
24
31
0
1
12
0
0
25
0
3
19
0
9
14
3
0
0
13
0
0
8
16
16
5
0
0
0
9
0
5
13
0
4
0
12
9
18
27
51
0
29
0
0
0
0
1
0
0
0
8
59
0
0
17
0
0
31
17
0
25
17
0
0
26
13
0
0
13
0
0
9
0
39
0
0
23
25
0
2
0
0
30
0
41
102
35
2
42
2
3
0
0
74
0
27
19
0
16
0
28
0
16
40
0
8
18
57
8
38
1
0
0
4
0
0
0
0
21
0
25
0
4
0
16
0
24
0
0
0
0
0
6
0
44
0
0
9
0
5
0
0
0
6
0
0
14
42
22
11
0
0
255
205
0
25
0
0
0
0
15
30
47
0
13
0
0
0
11
0
25
120
0
0
1
0
2
0
0
0
74
0
0
26
0
41
9
0
0
65
24
105
69
58
0
0
0
151
0
31
38
0
31
7
0
0
0
0
0
145
115
0
0
0
64
95
0
0
0
14
66
103
55
0
0
4
62
0
23
31
133
60
51
0
0
10
63
35
0
0
21
140
16
32
0
0
144
0
4
170
60
24
0
154
133
0
0
0
16
0
153
255
0
171
218
255
0
0
32
25
9
0
0
0
0
91
29
0
16
0
83
111
0
34
19
0
34
0
5
22
35
10
0
0
0
24
118
0
0
0
23
4
35
0
0
4
19
29
0
0
12
19
22
61
6
0
0
22
5
0
18
0
0
0
0
71
0
0
26
0
35
0
0
43
12
0
13
11
0
0
0
31
0
0
0
17
0
0
0
26
0
0
13
0
18
17
0
1
0
13
13
0
0
23
13
0
14
1
0
0
0
0
0
0
0
23
0
0
0
3
9
0
29
0
0
0
22
0
18
0
5
0
11
0
0
0
0
0
0
0
10
1
32
0
0
0
0
0
0
0
0
0
11
0
10
0
0
16
0
0
19
27
7
7
12
0
0
0
5
16
0
31
0
0
13
0
0
4
0
12
42
166
114
0
49
0
27
0
17
19
10
0
31
9
0
0
0
0
111
148
0
58
0
0
29
0
45
24
0
13
0
24
14
14
0
0
4
0
0
0
5
0
10
0
0
12
0
10
0
15
0
8
0
8
0
8
0
26
2
0
5
31
0
0
4
0
9
19
17
0
33
13
12
0
0
2
4
0
16
0
0
0
0
33
0
4
12
25
23
20
30
2
0
0
0
11
0
16
8
8
17
0
0
18
0
7
18
15
8
17
32
5
7
0
0
0
0
0
9
6
11
22
0
0
0
12
0
2
5
5
26
1
5
10
21
17
0
8
3
0
0
41
0
1
0
0
0
0
18
5
0
0
0
17
0
0
18
99
31
0
0
0
20
0
0
0
0
0
0
0
28
0
0
0
6
5
0
9
5
0
0
56
45
0
0
0
0
0
5
0
53
13
12
0
14
0
0
0
13
0
28
5
0
23
0
0
0
0
0
0
0
18
37
21
0
9
30
0
1
0
7
36
0
0
255
116
0
0
0
0
0
0
0
33
0
0
0
10
0
102
0
0
98
0
0
0
0
0
2
0
30
0
0
41
0
0
27
0
10
0
0
0
39
109
67
0
0
0
0
18
68
44
52
0
9
23
0
0
45
0
0
23
124
105
105
0
0
185
0
0
0
0
34
0
39
21
15
0
0
81
31
0
52
0
117
0
0
26
0
10
0
0
0
107
80
0
0
90
89
0
31
112
33
0
0
0
100
20
0
0
0
0
54
255
0
44
200
255
0
0
0
0
0
0
5
0
0
103
43
0
10
0
29
38
0
1
0
16
18
0
0
0
14
0
0
24
0
69
23
0
11
2
43
0
14
0
0
0
0
7
0
0
61
46
0
21
0
0
18
105
6
33
104
0
38
0
0
0
0
55
0
0
56
0
22
30
0
6
0
47
14
0
0
16
0
25
6
42
0
26
0
22
8
6
0
0
54
14
0
0
47
0
0
36
16
0
0
0
48
13
15
0
15
85
14
20
0
15
10
2
18
14
0
0
3
0
48
0
24
2
0
0
15
0
25
0
27
12
4
7
0
22
14
0
19
0
6
2
22
0
17
2
11
0
23
2
15
29
0
0
7
0
0
0
0
7
0
0
20
0
0
8
0
11
0
11
5
0
0
11
0
3
17
93
179
0
0
0
2
4
7
10
0
2
22
0
0
0
0
0
158
64
0
83
0
0
44
0
23
0
4
14
0
7
0
13
0
25
1
6
8
0
17
0
31
22
18
16
0
9
18
0
0
30
0
15
0
3
0
0
33
0
19
40
5
14
0
32
4
5
4
0
0
0
27
13
0
23
17
0
32
0
0
0
0
0
0
35
0
6
7
2
24
12
16
2
0
11
0
0
0
0
0
3
0
3
0
6
0
0
12
17
17
24
11
0
0
0
0
0
18
7
9
13
0
0
0
3
0
32
16
0
0
0
7
0
10
14
32
20
17
0
0
0
6
1
32
0
0
5
4
8
0
17
12
0
8
42
0
104
34
0
0
0
0
0
0
102
46
166
19
6
25
0
8
0
0
5
0
9
14
17
21
57
60
17
0
0
0
0
0
24
7
26
18
0
3
16
10
14
0
4
11
0
6
0
0
3
0
0
41
10
10
7
0
9
0
0
0
0
0
16
21
3
0
0
255
25
0
66
0
0
0
41
20
3
0
24
0
0
81
0
0
26
29
0
50
0
0
0
52
0
9
64
0
0
0
0
7
0
15
0
0
0
34
102
138
0
0
0
35
23
112
0
0
0
0
10
0
0
34
0
0
0
0
104
134
0
0
118
32
18
0
0
101
0
0
48
71
0
0
180
0
0
0
45
85
0
0
0
0
29
27
0
0
72
54
0
27
124
7
0
97
0
0
36
0
0
0
96
0
0
23
0
0
255
0
0
208
255
0
0
59
54
39
0
8
0
49
118
12
0
2
0
32
83
0
0
17
26
13
0
5
28
0
42
0
32
0
50
14
0
0
11
0
0
0
0
0
0
20
0
0
0
0
10
0
41
0
68
11
31
0
36
62
0
0
0
0
15
5
83
0
0
64
21
0
0
25
0
0
26
0
0
13
0
6
16
6
0
0
0
0
0
32
0
0
0
0
0
42
0
3
0
0
0
0
0
29
0
16
0
0
24
0
0
0
39
0
0
12
0
11
2
8
0
18
10
0
0
0
7
0
29
26
5
0
16
0
0
0
0
0
0
0
11
11
0
0
0
10
0
0
0
13
0
0
0
17
0
0
3
28
0
0
0
0
0
5
13
6
0
0
7
0
0
2
16
10
9
18
0
6
1
20
43
155
129
0
0
42
0
15
50
0
0
10
5
45
11
0
0
185
0
2
147
0
17
0
0
38
0
15
13
0
22
0
0
0
0
19
0
1
11
0
0
0
0
5
0
0
14
0
23
0
0
28
0
0
20
11
0
9
0
0
0
17
0
0
0
0
2
0
0
24
21
0
0
65
0
0
0
0
9
9
3
0
8
0
26
7
2
0
0
30
0
0
6
1
3
15
7
4
0
1
2
0
0
9
5
0
0
4
53
5
0
27
0
0
0
17
4
0
0
9
6
49
8
0
0
9
0
9
0
0
11
10
0
18
0
3
0
0
0
21
9
0
0
0
0
19
0
19
4
9
0
46
18
0
0
28
101
38
22
26
0
18
17
0
0
0
0
37
13
8
27
13
0
24
20
24
0
10
0
16
28
3
0
0
37
0
0
0
11
24
8
37
0
0
39
0
0
35
0
0
7
2
3
32
0
5
0
0
1
2
0
11
4
17
4
6
24
13
40
0
0
0
0
64
0
0
204
0
0
0
0
8
29
15
0
0
0
21
0
8
92
6
0
53
0
13
0
44
20
26
0
29
0
0
0
21
11
0
0
0
0
73
141
110
0
0
26
0
0
169
37
0
0
0
0
4
0
210
0
0
13
0
12
70
156
61
124
87
0
0
0
98
0
0
46
142
0
0
117
40
0
36
0
67
83
0
28
0
30
0
0
0
0
81
16
88
19
1
0
78
36
70
132
0
0
0
0
154
74
0
0
0
255
0
0
207
241
0
0
0
0
0
0
0
0
70
52
0
0
0
24
50
45
0
19
2
0
47
27
0
28
0
93
16
5
0
35
31
0
13
0
3
17
35
127
89
0
21
6
0
24
16
0
24
0
25
0
0
5
0
6
45
0
14
0
67
0
11
62
0
30
40
9
12
20
28
0
0
31
0
0
0
0
5
14
0
21
3
1
13
0
32
0
18
20
21
13
0
10
5
0
7
0
0
7
15
0
0
38
10
56
0
0
0
0
22
0
8
10
0
0
8
5
0
32
0
15
0
23
0
5
0
0
0
8
5
1
0
7
0
4
41
0
0
0
16
0
14
0
2
15
7
0
2
0
12
2
0
0
1
6
12
4
0
0
11
5
6
0
16
9
0
2
0
0
0
0
8
9
0
0
0
22
85
203
0
0
0
0
23
57
0
7
0
54
0
0
0
0
238
0
0
114
0
0
0
18
25
0
0
19
0
25
0
0
38
0
19
0
17
0
28
5
28
20
0
24
0
0
10
11
43
0
26
23
0
0
25
0
0
4
41
0
13
11
0
1
0
37
11
17
3
0
0
0
0
0
11
3
0
14
6
20
10
0
0
19
0
18
20
0
12
0
2
0
2
4
10
0
11
0
0
8
14
0
6
0
25
24
0
22
31
14
10
0
0
0
36
0
10
33
26
0
0
0
0
0
30
3
0
0
4
0
10
0
5
0
33
0
28
0
0
10
0
33
55
0
5
16
56
0
18
0
1
11
0
5
25
105
34
0
0
1
0
41
0
33
1
0
39
0
0
37
0
18
0
0
8
12
0
51
23
98
0
0
0
24
0
0
21
0
0
23
29
0
0
22
0
21
20
6
1
35
0
0
4
0
12
0
0
0
21
16
37
0
0
0
0
0
0
11
0
33
0
0
0
0
255
255
0
0
3
0
12
33
0
18
0
0
0
0
17
32
0
8
0
0
44
0
0
0
0
4
90
0
92
11
0
0
0
0
1
2
104
93
105
0
0
0
0
0
94
34
0
12
0
16
0
0
5
7
0
46
0
0
0
27
40
26
106
56
27
0
175
54
0
0
30
77
0
0
80
0
28
0
7
0
0
0
35
63
0
0
0
0
80
27
0
15
0
60
71
0
100
165
0
0
0
0
231
121
0
0
0
255
0
0
233
198
0
0
53
0
12
0
0
0
101
0
81
0
0
26
153
96
0
0
0
37
0
0
0
47
0
0
0
7
0
119
0
0
28
0
4
0
28
0
0
0
35
0
0
45
10
27
58
35
37
22
0
0
0
61
99
0
32
0
0
0
34
50
0
79
28
0
0
0
10
0
16
2
0
13
0
15
0
0
0
39
7
0
12
3
0
8
0
0
0
17
9
0
1
0
0
30
0
0
0
2
13
21
0
22
0
45
0
6
0
39
0
0
0
0
9
20
0
0
0
1
7
7
0
2
15
0
15
0
58
0
0
15
0
14
2
3
0
0
0
38
0
0
37
0
0
14
0
11
24
5
4
12
0
1
3
9
0
23
0
0
0
0
20
5
0
11
0
2
12
6
4
0
5
0
0
25
44
181
52
0
0
4
13
0
0
0
0
45
0
0
0
0
255
0
4
58
0
0
37
8
10
10
28
0
0
18
23
45
0
0
0
36
0
0
0
13
2
0
3
24
0
1
0
6
0
0
0
0
0
0
0
0
0
0
0
0
1
3
1
18
4
5
0
0
0
0
37
29
0
0
0
0
0
2
0
0
0
30
37
23
6
1
1
0
0
11
5
1
2
1
9
0
8
0
0
0
5
4
0
15
4
12
24
14
37
6
0
0
0
0
22
0
0
0
56
9
0
15
4
24
39
0
0
20
0
0
0
17
15
0
0
0
21
0
0
0
24
0
0
22
0
0
36
0
16
0
15
0
21
33
0
103
31
0
13
0
0
9
0
33
0
9
51
0
0
18
8
0
2
24
31
10
15
69
1
0
0
0
0
0
0
0
22
8
12
53
18
13
2
35
0
1
3
3
21
0
3
0
25
11
4
9
0
0
12
0
0
0
10
18
0
45
15
20
41
6
0
13
0
0
255
7
0
58
8
13
6
0
11
2
6
15
49
50
53
27
0
0
22
0
0
43
0
18
33
0
0
0
0
0
36
39
0
0
0
61
141
63
89
0
0
0
0
0
42
125
0
12
0
0
0
80
30
0
0
0
15
0
0
0
0
0
41
0
0
0
64
146
0
0
48
105
0
0
10
74
6
0
88
0
0
0
62
31
0
7
2
0
107
0
4
16
56
119
0
87
104
77
71
0
0
0
87
0
0
0
0
255
19
0
218
145
0
0
0
22
0
6
0
0
84
10
84
0
0
0
142
115
0
0
31
24
12
0
0
85
0
0
0
46
0
140
0
0
0
0
0
19
47
0
0
45
39
0
0
31
15
27
51
1
0
0
0
0
7
40
65
0
0
0
0
0
31
11
0
14
12
0
6
37
47
1
31
0
26
31
0
22
0
12
0
22
0
0
17
11
0
37
0
0
10
40
0
0
20
0
0
0
14
23
0
28
0
4
0
0
0
3
10
0
18
5
20
12
4
5
9
0
0
35
0
32
5
0
14
0
0
21
0
0
34
16
0
0
32
5
0
0
1
26
22
20
0
15
0
0
15
0
0
0
2
0
5
14
7
24
0
8
0
13
1
22
0
0
0
24
0
13
4
4
0
0
0
0
7
9
1
18
5
109
164
0
0
0
14
22
0
0
33
0
0
0
0
0
152
0
27
45
33
0
44
13
0
23
19
0
11
0
41
0
0
17
19
0
6
31
0
0
4
0
4
12
7
30
13
23
3
26
1
53
21
40
0
28
22
26
5
29
0
6
0
0
0
29
8
0
0
28
0
0
0
3
0
34
5
8
18
0
19
2
7
13
0
7
20
0
19
0
6
6
0
16
0
2
6
11
0
18
0
0
0
0
10
15
18
36
6
0
0
0
37
0
28
8
0
34
7
0
0
2
9
0
18
0
1
0
0
9
3
20
17
0
1
0
0
0
0
0
0
27
0
28
0
3
39
0
31
0
0
0
25
0
0
111
36
10
29
69
0
0
0
0
0
10
2
38
0
34
11
21
0
11
0
0
2
1
0
42
25
0
0
3
11
0
25
3
0
0
4
0
0
0
15
13
13
0
1
26
19
0
0
0
14
7
0
11
0
12
16
36
0
0
0
0
3
7
0
0
0
104
0
0
255
0
0
0
0
47
64
0
0
0
0
0
0
12
19
0
0
7
76
15
19
0
6
8
5
26
37
26
71
0
0
0
0
0
0
115
108
1
27
0
0
0
0
0
35
109
12
55
0
0
0
106
12
0
0
7
35
72
8
0
0
4
46
0
0
0
0
202
34
0
0
73
34
3
0
34
30
0
0
30
0
0
70
6
8
0
0
0
109
0
66
112
0
0
0
211
110
0
124
2
0
0
0
0
8
0
0
255
40
5
235
17
0
17
0
31
49
27
10
0
132
0
136
0
0
0
106
22
0
31
0
25
0
5
0
23
25
27
0
45
0
20
0
0
0
0
0
0
4
0
0
18
7
0
24
5
8
40
31
0
0
0
25
15
17
56
18
0
0
8
0
0
120
0
14
0
0
0
0
0
10
0
0
0
14
0
0
0
0
12
0
19
0
0
0
0
9
0
6
0
0
0
7
29
4
0
19
10
1
0
22
16
0
0
20
0
10
13
0
0
0
0
0
0
6
25
6
17
0
0
0
8
0
0
0
0
13
20
13
15
0
0
0
0
3
7
0
1
4
0
7
16
0
17
0
0
0
6
0
0
3
12
0
18
0
0
2
5
0
8
0
6
0
0
13
9
0
2
0
7
2
0
14
11
2
0
0
0
27
57
189
83
0
0
0
28
0
4
0
33
0
0
0
60
105
0
76
0
0
0
5
0
0
0
4
2
20
0
17
0
0
0
0
0
32
8
0
63
0
0
46
0
0
11
0
1
0
0
2
16
0
16
0
6
0
0
0
31
0
29
0
0
18
0
0
26
0
0
0
27
0
0
0
0
5
0
20
9
13
0
13
0
2
1
0
0
2
6
18
0
6
5
0
11
0
0
2
0
0
10
23
3
19
2
20
8
0
0
0
0
14
0
39
0
0
9
9
0
0
23
0
28
21
12
0
2
3
0
20
0
2
12
14
0
0
30
8
15
18
0
0
55
0
16
67
0
31
0
0
0
44
0
34
105
33
0
0
0
17
29
33
0
13
0
36
19
0
0
25
0
11
17
14
32
0
33
0
38
0
0
0
0
0
0
0
16
9
39
48
0
3
7
10
0
6
22
0
0
0
0
0
0
14
0
34
7
16
11
9
0
0
25
11
0
22
0
13
0
0
255
0
0
90
0
0
0
14
43
0
0
0
0
0
6
44
26
0
0
0
0
24
0
0
9
0
3
0
0
4
0
2
0
45
0
0
0
17
119
69
34
66
0
0
0
0
0
26
139
58
0
0
0
0
107
16
39
0
17
9
25
2
0
0
0
0
14
88
17
0
106
81
0
0
103
85
38
0
82
83
0
0
79
49
0
32
0
0
21
0
0
74
0
28
40
0
0
0
119
101
0
31
168
0
0
36
0
0
0
0
255
22
124
134
0
0
0
0
0
0
0
0
0
111
11
154
0
2
11
51
47
0
0
18
34
0
32
45
0
0
0
0
0
22
75
0
54
0
0
0
26
0
0
53
24
0
0
50
28
0
5
0
0
0
0
35
60
39
41
41
0
0
0
0
0
151
0
0
24
6
45
25
0
0
0
1
9
0
0
0
0
4
7
0
6
0
10
7
29
0
19
12
0
0
0
3
0
0
9
13
0
0
0
0
15
31
0
51
0
22
0
20
0
9
9
9
0
0
0
5
0
0
17
0
16
12
0
16
42
0
0
6
0
12
11
18
0
0
0
12
0
29
0
6
0
0
30
0
0
20
0
6
0
3
0
1
9
0
18
0
9
0
5
3
1
0
0
0
0
17
0
0
3
0
0
0
3
2
3
1
0
11
18
110
186
0
0
0
3
0
0
0
35
0
0
0
115
73
0
35
15
0
13
0
51
0
0
0
9
0
0
36
43
7
21
19
13
0
0
0
10
0
0
0
0
0
0
22
0
21
17
22
11
1
6
15
0
13
0
4
24
0
13
9
0
0
0
0
0
0
23
38
18
0
0
0
0
39
22
23
7
15
16
0
0
16
0
27
0
5
0
6
0
20
0
0
0
7
0
2
4
0
9
0
29
10
24
0
37
26
0
0
0
14
19
0
16
0
0
38
0
0
20
0
0
0
0
0
11
0
8
26
0
30
0
0
11
0
3
1
0
14
1
0
48
0
6
27
0
1
5
0
0
97
0
44
101
31
0
0
13
0
0
87
0
0
15
28
0
9
0
13
6
23
0
0
0
0
0
3
60
12
0
0
0
0
0
0
17
22
16
0
0
21
10
18
0
7
0
0
0
14
0
0
18
16
0
0
0
10
0
12
12
0
0
0
12
15
0
22
0
24
255
0
74
160
0
4
0
18
66
0
0
0
0
0
109
48
0
20
8
0
0
113
0
0
0
0
14
13
48
79
0
1
4
20
0
0
0
83
124
64
3
2
0
0
50
0
0
0
2
25
3
0
0
0
101
0
0
0
0
55
120
42
0
0
0
12
60
0
0
0
57
183
0
0
0
81
0
0
0
67
66
0
45
40
45
7
13
0
55
41
5
70
26
39
18
0
46
122
39
114
0
0
171
0
0
13
0
0
0
0
255
29
154
0
0
0
5
0
0
2
6
0
0
102
0
21
0
0
45
36
60
0
0
23
50
0
0
0
0
13
16
0
0
31
37
0
58
35
0
0
0
0
0
21
1
0
0
92
0
0
29
0
0
11
1
45
0
5
17
40
0
0
0
0
0
71
0
0
34
0
0
26
11
40
0
0
0
0
9
10
0
64
0
33
0
0
3
11
0
0
18
31
0
0
6
31
0
0
12
13
0
0
46
0
0
0
0
5
20
0
0
7
24
0
21
1
9
6
0
7
0
24
0
5
4
0
3
0
10
31
0
0
14
0
7
0
13
5
3
0
9
0
5
10
2
0
15
0
54
0
0
0
13
3
0
0
2
5
2
0
0
0
0
0
22
0
3
10
0
14
13
0
7
0
0
0
0
0
7
1
2
12
11
63
221
0
0
29
81
0
0
11
33
0
0
0
194
57
0
30
0
0
63
0
44
17
29
25
0
0
0
5
0
0
0
0
0
20
0
0
25
0
31
3
0
48
0
0
0
0
21
0
11
0
0
0
14
21
0
4
0
13
12
18
0
3
27
0
0
1
0
0
0
0
0
0
14
27
12
26
0
8
10
0
9
0
0
0
0
0
0
8
7
10
3
3
0
0
0
1
5
28
0
11
23
7
6
0
21
0
0
12
0
0
0
0
0
5
12
0
0
13
18
35
25
0
46
16
0
9
25
7
0
41
0
4
0
8
8
0
0
0
17
0
20
0
0
29
0
0
0
45
0
0
15
17
103
33
13
0
16
0
0
0
0
2
10
30
17
0
0
0
5
0
0
23
25
10
0
16
55
43
0
0
0
0
0
0
0
31
13
0
23
0
13
3
0
24
23
4
10
0
4
20
0
2
0
6
6
7
0
7
4
51
0
28
0
5
0
5
0
35
201
0
40
194
0
0
0
57
25
11
0
0
0
49
23
0
6
0
0
2
13
47
0
46
85
0
0
54
5
0
0
0
0
0
0
0
22
34
16
64
0
12
0
0
0
30
0
0
0
69
0
1
0
0
153
0
0
38
0
0
0
0
68
0
0
0
11
0
28
0
0
59
17
0
31
148
0
26
20
8
14
0
8
0
20
86
58
0
12
17
0
106
73
0
0
0
0
58
68
186
62
31
197
55
0
0
0
0
0
0
255
26
170
0
0
95
198
0
0
53
0
0
5
61
0
92
0
21
26
14
91
0
0
6
31
0
0
0
19
28
0
0
54
5
0
0
70
0
0
8
0
0
4
16
14
0
0
0
0
0
21
0
19
30
0
9
0
21
8
33
7
0
0
0
43
70
0
44
12
0
0
38
0
14
0
22
15
0
15
35
0
10
0
0
0
0
0
19
0
0
0
2
5
33
0
0
0
0
0
0
35
0
0
0
33
8
0
0
12
0
0
0
31
0
0
0
22
0
21
0
0
15
0
0
20
10
0
1
0
0
27
0
45
0
4
0
0
13
0
0
0
0
5
0
0
10
0
14
1
0
2
0
5
0
0
12
0
0
0
4
0
9
24
0
0
0
11
0
0
0
0
0
0
0
0
0
0
0
6
5
6
0
2
33
150
161
0
0
32
10
0
0
20
0
0
0
234
40
0
0
42
0
97
0
0
22
0
14
14
20
10
18
7
20
9
16
21
23
11
23
0
0
27
0
0
0
0
11
8
13
21
0
1
22
1
0
8
16
6
28
40
0
0
0
0
9
12
23
0
27
6
0
0
0
0
16
20
29
7
11
3
15
14
0
14
0
15
0
0
7
0
0
12
13
0
0
0
4
10
0
6
15
8
0
19
17
8
0
9
0
0
1
0
5
11
16
5
0
0
0
14
25
0
0
0
0
0
0
0
0
2
0
28
0
32
14
0
0
0
11
27
22
0
20
24
0
18
12
14
0
0
0
4
13
22
9
98
30
0
0
0
0
0
0
0
0
31
36
59
0
0
23
0
26
4
12
6
0
14
6
0
0
0
0
0
0
0
0
0
0
19
7
45
0
0
2
0
0
0
25
0
3
0
0
13
5
0
16
0
18
0
22
0
10
0
2
0
0
29
2
0
0
214
0
36
0
117
0
0
60
0
0
15
0
39
70
16
0
20
65
0
0
47
0
0
0
0
0
0
48
46
0
0
0
0
30
0
0
191
0
0
139
0
32
0
1
67
13
41
41
3
86
0
0
0
65
153
0
0
2
5
22
1
0
99
18
0
23
42
0
6
0
0
96
55
0
71
136
0
2
56
45
9
33
0
0
47
0
49
0
0
0
0
186
45
0
52
0
25
12
63
0
0
3
255
216
67
11
2
0
0
43
206
0
68
0
0
245
251
0
0
7
0
0
107
108
3
78
0
54
66
0
9
0
0
26
7
0
65
47
0
0
13
3
21
12
0
6
0
0
99
0
0
0
0
53
0
0
0
0
0
21
53
0
19
0
37
17
0
27
29
22
31
0
0
0
65
22
33
20
0
0
0
0
11
14
0
0
8
0
0
0
0
4
55
0
12
8
0
12
30
28
0
0
22
0
0
18
1
0
16
8
0
0
5
0
0
0
60
0
0
10
24
0
0
0
9
8
0
0
20
0
30
0
0
29
0
10
0
18
6
0
0
0
23
0
6
0
10
0
0
0
27
0
8
0
5
0
0
0
16
0
4
8
0
0
32
0
16
0
8
20
0
0
5
1
6
0
21
0
3
0
0
20
8
19
0
55
0
0
0
5
11
0
4
24
102
202
0
0
0
0
0
26
20
0
0
0
185
17
0
0
28
0
39
0
0
11
0
0
0
0
11
0
17
0
21
0
0
0
0
5
0
0
8
9
21
0
0
9
12
4
0
4
0
34
0
35
0
0
7
0
0
9
1
0
0
28
0
0
45
54
0
0
0
0
0
44
43
21
0
18
16
4
6
0
8
0
0
0
0
0
5
0
0
0
0
12
0
4
0
0
0
0
2
13
7
47
0
7
11
0
0
0
0
0
35
0
0
24
28
17
0
12
5
0
9
62
39
5
24
28
0
41
34
0
1
0
0
0
1
0
0
0
0
33
0
0
5
0
0
32
4
0
24
0
0
0
94
31
1
20
32
12
0
0
0
36
0
19
37
0
0
0
17
16
0
18
25
19
51
30
25
3
0
0
0
9
5
0
43
13
23
0
18
9
0
0
29
9
13
0
12
12
0
20
0
11
0
10
2
25
0
0
11
0
0
8
0
2
0
0
0
0
134
78
0
0
0
0
0
37
23
0
26
0
17
9
2
0
0
0
15
0
0
16
14
0
0
0
82
0
13
0
0
37
0
0
0
51
221
22
0
130
0
114
0
0
0
0
0
0
0
6
0
50
0
54
97
0
0
53
36
0
4
1
43
0
0
10
85
0
0
14
0
80
16
0
0
181
0
0
61
143
0
50
21
0
0
0
0
0
0
0
58
156
0
3
12
0
77
18
97
0
0
0
144
122
125
78
229
61
0
153
83
0
0
0
98
255
255
0
0
17
51
0
0
53
0
69
0
10
47
0
13
0
0
51
0
0
55
41
0
20
39
0
0
15
8
7
10
0
26
14
0
48
0
2
0
35
0
2
6
27
1
0
3
0
19
67
0
0
53
28
26
0
0
0
123
0
0
5
22
4
12
21
22
0
11
0
0
21
17
25
0
0
9
0
0
29
5
0
0
0
0
10
0
0
34
0
28
9
3
0
24
0
0
0
18
0
0
3
2
11
0
2
0
2
0
3
0
10
0
0
0
5
0
0
2
3
0
11
19
2
0
15
0
0
8
0
1
3
27
0
8
3
0
27
7
0
0
15
3
0
0
0
21
0
26
0
0
2
0
0
8
0
12
0
5
0
23
12
0
0
1
4
7
0
7
2
0
4
0
0
0
13
10
10
46
203
0
0
0
0
0
4
0
0
0
0
156
17
0
0
35
0
12
76
0
17
20
8
0
0
24
0
0
14
0
0
0
47
0
0
47
11
0
18
15
0
0
0
23
1
0
20
0
9
0
11
0
7
24
0
4
0
0
0
0
27
37
0
8
2
0
2
3
0
0
25
28
20
8
6
0
3
9
13
12
1
9
3
8
0
14
6
0
9
0
0
16
13
16
5
4
18
9
14
2
38
0
12
0
0
0
1
14
2
0
3
4
0
0
33
0
0
10
3
4
0
12
0
0
4
14
25
0
0
12
0
19
0
0
0
24
0
3
0
0
33
40
36
7
0
21
12
3
0
42
14
87
30
0
0
0
0
0
0
0
0
63
23
9
10
10
0
3
19
6
2
18
0
15
38
33
28
0
0
0
0
0
0
13
0
41
20
0
38
0
29
0
0
11
0
13
0
0
0
7
0
0
11
0
0
19
0
0
0
1
16
0
30
0
0
0
0
144
29
0
0
0
15
5
21
28
0
0
53
8
5
0
0
43
0
0
0
46
22
0
35
29
22
9
1
3
0
4
0
0
0
30
156
170
0
46
158
0
35
0
0
3
20
30
0
0
23
75
0
0
52
22
0
15
25
7
0
9
2
20
0
2
27
12
0
20
7
0
51
14
0
0
30
1
0
66
85
69
74
34
0
0
0
0
0
0
0
112
117
0
0
0
0
25
0
126
22
0
0
119
93
105
0
0
54
112
161
59
57
0
0
156
255
255
0
0
0
0
0
65
59
0
39
0
29
78
0
65
34
0
13
0
8
39
56
0
0
0
17
0
48
0
0
13
0
0
62
0
0
0
0
0
13
0
46
10
49
0
34
33
0
0
8
0
4
50
17
81
0
0
0
41
0
17
0
4
0
0
16
30
0
36
26
0
25
10
0
0
0
50
0
17
0
0
2
4
0
29
10
0
0
36
0
16
0
28
0
16
1
16
10
0
27
0
0
7
1
0
0
0
17
3
5
0
34
0
24
2
4
0
0
20
0
0
14
15
0
0
20
0
23
13
0
0
13
0
45
11
0
5
0
0
3
8
10
17
0
15
0
1
4
0
16
0
5
18
13
19
0
0
0
8
0
5
0
15
0
46
0
3
0
8
0
9
0
0
9
10
0
1
6
27
152
111
0
0
0
0
17
5
0
0
35
171
0
6
0
103
0
3
74
0
0
0
24
17
4
0
0
33
0
44
0
28
6
24
0
0
0
0
0
18
0
14
0
0
0
40
0
19
0
20
22
7
1
0
35
2
0
26
36
0
13
7
15
12
15
0
1
0
0
0
58
44
6
0
13
13
11
0
0
12
0
0
7
0
0
1
0
11
4
14
0
0
0
0
5
8
20
0
9
27
11
0
0
0
0
0
0
36
0
3
0
11
0
0
0
0
0
56
0
3
0
0
6
1
0
21
0
0
0
30
7
0
2
0
9
0
0
43
14
0
10
3
0
0
38
0
0
48
16
34
18
91
31
0
28
3
0
0
0
0
0
0
0
18
0
26
0
18
9
4
0
2
0
22
9
33
16
0
0
0
0
0
0
0
28
60
0
0
12
0
0
25
21
36
0
6
4
5
28
4
2
13
0
0
8
1
27
0
10
4
0
0
22
0
9
4
0
155
102
0
0
0
0
0
0
0
0
71
48
35
0
0
0
105
0
21
0
51
0
1
18
0
21
0
42
0
13
0
0
0
0
126
206
77
0
72
102
0
0
0
0
26
0
0
9
0
0
5
0
42
90
14
0
0
46
28
0
6
0
0
14
0
0
98
0
42
0
0
44
56
0
24
0
0
0
0
18
100
105
63
0
0
43
0
68
0
0
103
0
5
22
0
2
0
2
85
109
66
0
0
175
130
0
0
0
27
34
14
143
99
182
255
255
150
0
0
45
0
0
55
71
0
0
0
13
9
0
0
21
0
38
0
0
39
75
0
0
0
0
0
0
21
0
11
37
0
90
0
72
13
0
34
9
0
22
28
32
0
21
0
4
35
0
0
29
44
0
0
0
0
76
66
24
0
41
0
22
7
0
12
14
0
0
0
28
11
30
28
26
0
0
16
6
10
6
0
0
0
4
0
5
0
10
9
9
22
0
4
0
6
0
0
0
0
1
0
11
0
4
14
9
0
0
0
4
0
0
0
30
0
16
17
0
9
6
0
19
12
36
0
0
5
0
2
18
0
8
13
0
0
28
0
11
0
6
0
4
22
0
0
0
0
0
0
0
0
0
19
6
0
22
1
0
0
22
0
0
0
10
19
0
13
4
2
0
0
1
0
0
0
12
15
106
233
0
0
30
0
4
0
0
0
9
147
0
0
0
27
0
0
54
0
0
0
31
6
0
15
4
5
0
6
0
19
0
8
11
22
8
0
44
14
0
48
0
22
15
0
2
45
0
0
0
10
58
0
0
13
2
0
5
0
0
10
0
0
0
0
0
0
0
19
31
26
18
17
12
4
5
0
20
0
2
3
1
7
14
0
10
3
5
0
0
4
12
0
7
5
13
17
29
0
0
0
0
0
0
0
0
24
0
0
12
0
0
0
62
54
0
0
5
0
4
36
24
24
0
0
0
0
31
0
0
0
0
8
19
0
24
9
0
0
1
0
21
0
22
92
0
45
52
31
0
79
34
20
0
0
0
14
0
0
0
27
4
4
7
19
0
0
0
0
17
12
3
2
9
33
18
0
0
0
24
0
0
17
39
0
0
15
36
10
5
0
3
12
0
17
0
0
0
0
16
29
0
13
7
4
11
0
0
6
2
10
7
14
0
0
0
144
147
0
0
12
0
19
67
14
54
0
30
0
0
0
0
0
0
0
0
18
0
0
31
11
53
0
0
0
45
0
0
0
152
148
103
0
0
96
109
0
0
0
0
29
0
1
32
4
0
19
0
25
51
58
0
2
71
54
0
2
0
0
10
38
30
92
0
77
0
0
29
149
0
0
109
102
0
0
0
8
64
42
0
0
0
0
121
23
0
137
0
0
0
0
36
61
116
56
41
71
34
0
0
160
0
0
164
76
0
142
9
0
0
0
0
0
0
0
0
0
0
39
43
0
10
0
51
22
0
153
25
29
0
0
0
23
5
0
44
0
54
51
0
0
0
26
0
0
0
0
93
0
0
29
0
3
8
28
0
0
31
0
7
0
20
17
48
31
12
4
0
0
0
41
0
0
12
0
47
0
0
0
0
0
9
0
11
0
0
0
0
6
0
10
13
8
4
0
24
0
1
0
0
5
0
0
0
13
7
15
0
20
0
23
8
9
0
0
19
0
0
0
30
0
84
0
20
0
3
9
21
8
6
0
0
16
0
0
0
10
0
0
26
19
17
0
10
21
20
10
0
0
11
0
17
0
8
0
0
2
9
0
15
0
13
3
5
9
4
0
0
0
16
10
0
0
2
14
0
5
0
0
0
9
0
0
4
7
9
0
5
10
16
8
59
181
0
0
0
4
0
22
0
0
61
113
0
11
0
41
0
0
57
19
12
0
30
1
0
6
0
24
0
8
0
0
15
0
0
20
0
0
10
0
0
0
0
20
0
3
0
3
0
0
0
0
0
0
0
14
5
0
12
17
0
0
5
0
35
29
0
0
0
11
33
18
0
0
0
15
7
4
0
0
0
5
0
3
8
0
0
0
9
0
7
14
0
12
0
9
15
18
20
0
22
8
0
0
12
10
0
4
0
0
0
32
0
0
2
0
0
33
0
9
0
3
0
30
13
34
0
0
0
16
27
0
10
0
0
0
0
7
0
6
0
0
45
0
0
10
0
0
0
0
0
83
29
0
2
36
0
69
0
26
0
14
11
52
4
33
15
23
19
22
27
12
0
13
29
0
32
13
0
0
0
0
0
0
0
29
26
6
0
0
29
0
34
0
0
31
0
18
0
17
3
6
0
3
0
0
10
28
0
5
22
0
0
13
1
0
0
78
69
0
0
0
0
30
61
0
0
0
21
0
3
2
25
0
136
6
0
21
0
0
6
1
0
0
0
0
0
0
90
210
148
0
0
0
0
217
87
0
0
0
0
15
0
0
0
18
0
0
19
64
6
0
0
0
2
69
0
0
72
0
28
0
0
50
0
4
0
0
0
125
16
0
0
0
0
120
167
0
18
2
43
14
0
0
77
0
0
113
0
30
0
0
64
76
56
0
126
57
66
6
0
47
0
73
193
12
105
79
0
0
0
0
0
0
0
11
182
0
0
112
84
0
0
0
31
66
0
25
0
86
0
0
0
45
10
0
0
0
44
0
0
0
23
0
0
42
0
0
94
0
26
12
0
49
49
10
0
4
18
8
2
0
0
0
15
56
66
0
0
0
87
46
5
0
3
7
21
10
0
0
13
0
22
4
22
8
20
18
0
0
0
11
0
0
0
0
21
2
15
0
18
2
11
4
20
0
43
0
13
0
0
14
5
0
3
10
24
0
10
7
9
0
0
17
0
1
0
0
28
0
0
17
0
0
9
0
6
0
0
0
0
9
0
1
0
0
0
11
0
19
8
12
23
0
0
0
2
0
0
0
20
0
22
0
0
0
7
0
11
0
7
2
9
0
0
0
0
8
0
5
0
7
0
8
9
3
0
0
0
0
3
0
36
151
179
0
0
6
14
0
0
0
134
108
0
6
0
64
0
0
62
34
0
0
0
0
18
0
0
6
0
0
0
12
10
0
4
34
0
8
0
10
0
28
0
0
23
7
0
12
2
17
30
0
7
0
0
10
0
0
42
0
0
0
15
0
0
12
0
0
0
31
30
22
13
13
0
20
0
7
13
1
0
0
0
0
18
0
7
5
2
4
0
0
0
0
2
5
16
0
35
0
7
0
0
0
8
4
5
28
19
0
0
54
0
27
23
0
22
0
0
14
11
30
15
0
0
0
0
4
0
0
0
0
0
15
31
14
0
0
14
0
27
9
35
0
0
16
34
11
0
0
43
93
29
0
2
0
0
0
0
0
0
63
0
7
12
0
0
32
0
11
2
5
25
0
42
23
41
0
0
0
3
0
0
15
3
37
0
7
11
12
28
0
0
0
11
0
0
7
0
6
0
0
3
25
6
22
14
0
19
0
1
0
1
20
23
10
0
29
105
0
0
0
8
31
55
0
0
12
37
0
9
0
32
0
0
0
0
58
0
0
0
30
68
10
59
0
0
0
255
197
0
0
0
0
0
255
0
0
121
101
0
0
0
14
7
19
23
0
28
50
32
0
1
0
74
40
0
0
0
0
0
0
3
37
56
0
0
0
0
68
157
0
52
0
0
96
203
60
19
42
75
86
78
0
33
0
0
63
27
0
0
23
48
0
0
0
40
92
17
90
124
85
19
130
118
49
104
0
0
0
0
0
0
0
0
255
29
0
0
82
0
0
0
0
0
21
0
40
0
37
6
0
24
1
22
0
0
0
49
4
11
51
0
0
16
14
0
34
14
0
5
0
0
43
14
0
27
15
0
21
0
4
0
20
0
0
0
0
0
0
56
37
0
0
0
0
39
3
0
0
29
0
20
0
0
0
0
0
0
6
1
19
2
0
25
0
0
9
6
0
1
0
19
0
36
0
0
0
18
23
0
0
13
22
2
8
15
2
0
29
0
0
0
16
0
42
0
0
21
0
0
0
7
0
23
22
2
0
27
1
0
9
0
0
0
5
19
5
0
33
0
3
5
0
0
0
19
0
13
14
7
0
11
0
0
14
0
7
11
2
33
0
2
0
6
9
0
10
0
21
0
7
0
0
7
0
0
14
0
8
3
2
23
93
188
0
0
0
2
0
0
0
185
73
0
28
0
32
0
0
11
19
5
0
27
0
4
3
9
0
25
0
3
25
23
0
12
0
0
39
0
28
0
1
0
3
0
0
12
0
21
0
38
0
49
0
0
19
23
0
0
0
9
0
0
12
0
0
0
0
0
49
40
22
0
2
7
13
2
5
2
0
10
2
0
0
7
0
7
0
0
4
0
12
9
6
11
17
24
0
21
0
10
0
0
0
0
5
26
0
8
8
0
0
0
0
0
3
0
31
19
36
12
11
0
0
13
0
19
0
13
0
0
0
0
1
6
20
10
19
23
0
0
0
0
0
0
0
0
7
31
0
0
80
30
0
21
11
0
0
0
0
17
0
23
34
3
0
0
0
29
7
0
6
6
0
21
3
71
0
0
0
0
0
0
14
0
7
14
34
37
0
4
0
22
6
0
9
11
0
11
14
0
47
15
8
3
0
19
16
9
23
0
31
2
6
5
3
0
0
13
0
0
0
0
34
91
0
0
0
0
0
0
0
1
11
10
0
0
0
0
66
0
0
0
0
0
0
0
0
65
0
0
0
0
0
12
255
0
0
56
0
0
14
19
0
32
0
0
0
86
55
24
0
0
0
0
51
15
40
22
0
0
17
0
17
100
43
0
0
0
89
121
0
0
24
0
0
0
41
0
0
68
30
92
4
68
1
0
47
15
0
21
77
88
0
0
0
0
117
35
0
0
39
0
80
123
63
0
0
0
0
0
0
0
0
139
113
0
0
45
62
4
0
0
17
136
19
0
49
0
30
45
0
12
35
20
0
0
0
34
12
0
0
0
11
0
0
0
14
0
0
20
1
23
11
12
5
0
21
0
6
0
8
23
9
14
74
0
0
0
0
99
45
0
0
12
0
0
31
5
6
0
4
6
34
0
0
0
2
22
36
5
0
0
0
37
0
0
0
0
0
55
0
4
0
27
0
0
9
0
0
0
39
0
1
0
9
25
0
0
3
0
0
0
29
0
0
0
0
0
25
0
0
30
0
0
0
1
6
7
0
0
15
0
11
17
0
0
3
4
11
0
0
0
0
0
0
5
0
0
0
0
0
13
0
0
10
0
0
0
0
16
1
18
0
9
10
0
0
6
11
0
33
0
0
2
0
0
0
2
0
0
0
6
70
227
0
0
0
5
0
0
0
136
20
0
60
0
40
15
4
0
7
12
0
13
0
39
0
40
0
0
0
21
0
0
0
0
10
29
0
5
6
0
2
0
16
19
16
15
4
18
0
11
0
0
0
0
5
10
6
0
0
15
23
0
27
0
0
26
0
0
3
12
3
3
9
0
7
4
0
0
0
0
0
7
0
11
0
10
13
0
2
6
11
1
12
0
13
12
14
0
0
24
0
0
2
0
0
13
0
39
16
3
3
31
11
1
0
0
21
36
0
6
24
17
19
0
25
51
0
36
0
3
21
0
0
0
4
0
29
0
20
19
42
2
77
0
22
35
0
0
0
28
79
30
0
16
0
0
15
0
0
0
94
22
0
12
0
6
8
15
0
10
0
21
0
26
0
15
42
0
0
0
0
16
0
0
60
0
10
0
9
0
8
4
25
0
4
0
12
28
0
0
0
0
0
0
20
19
1
0
0
0
0
0
43
6
33
0
0
34
43
0
0
53
0
22
11
0
0
15
0
0
18
29
33
0
0
0
19
0
0
118
0
0
35
22
26
112
61
0
0
18
0
0
0
173
192
0
35
30
0
0
0
7
0
8
0
0
20
139
0
0
12
0
0
0
19
0
3
0
0
0
16
0
65
25
6
0
0
0
47
108
71
0
5
0
0
0
0
0
0
103
0
34
0
48
56
0
0
77
0
40
122
0
0
0
12
0
0
110
77
0
0
0
0
0
0
0
144
128
100
0
0
0
0
243
0
0
0
0
63
0
0
0
4
94
0
0
64
0
0
3
0
0
76
0
55
0
28
8
47
0
0
6
5
42
0
4
71
0
9
0
0
15
0
20
15
1
26
0
22
0
0
0
38
41
67
0
0
0
0
63
0
0
18
0
0
18
0
64
0
7
10
0
7
0
21
0
25
0
0
0
0
14
9
0
4
14
0
78
0
3
0
6
13
0
0
19
1
19
0
0
8
1
20
0
0
0
0
19
0
6
0
13
17
0
51
0
0
27
0
45
0
0
13
0
2
0
8
6
14
4
26
16
43
0
8
0
0
2
2
23
19
0
9
0
22
5
0
10
16
0
0
8
1
7
3
0
21
0
14
0
1
0
0
1
0
0
11
0
3
0
0
1
0
0
17
6
0
12
9
11
0
33
54
171
64
0
0
0
0
0
0
176
20
0
0
0
48
0
0
9
28
68
0
5
0
31
0
13
0
45
0
10
0
39
0
15
0
0
0
0
32
2
0
17
6
0
0
0
0
0
4
0
0
3
37
8
4
0
26
0
0
27
16
0
0
0
0
48
0
0
59
30
23
18
0
17
0
0
0
0
0
0
8
16
1
6
1
4
10
0
14
2
1
0
20
25
8
14
0
25
0
0
0
0
20
0
25
0
0
15
8
0
0
0
0
0
20
0
14
0
1
0
0
0
14
0
0
0
0
0
0
15
0
0
6
27
0
4
0
0
14
17
0
0
6
7
0
0
25
0
0
0
76
33
9
23
0
25
0
0
0
0
32
55
0
10
0
32
0
6
9
9
4
0
20
33
0
56
46
0
0
0
0
22
11
4
21
0
30
0
18
25
0
4
6
0
0
0
0
0
0
0
0
0
0
0
0
0
0
9
0
11
0
0
36
0
32
10
0
45
126
0
0
0
0
37
0
0
8
29
0
11
14
0
0
0
0
16
27
19
8
0
0
0
75
101
138
0
0
0
0
0
0
64
0
130
0
0
43
58
127
3
0
77
0
0
0
0
99
145
0
47
77
0
0
0
56
19
0
0
14
0
0
0
78
0
0
51
0
0
44
66
71
0
0
0
7
0
39
0
0
0
0
44
0
35
48
0
0
43
0
0
108
0
65
0
113
0
0
97
66
71
217
201
108
0
106
188
162
212
173
111
55
0
153
42
0
0
0
0
0
0
0
0
0
52
0
0
33
0
0
67
84
0
36
0
0
0
103
6
14
0
0
17
0
0
0
19
42
0
17
0
0
10
10
0
0
14
35
0
76
0
0
17
0
65
103
0
5
0
0
65
19
2
46
0
35
18
0
0
20
11
10
0
19
0
0
0
45
0
56
0
0
20
15
20
0
38
0
0
0
7
23
0
4
0
19
0
0
0
0
6
0
0
0
12
10
0
0
16
0
2
0
0
10
0
3
0
0
0
0
9
0
0
33
0
8
15
0
0
0
0
0
0
0
0
0
12
0
5
7
0
0
0
10
2
2
10
0
13
19
0
11
11
0
8
0
0
14
0
0
5
0
0
2
3
15
0
4
2
0
0
0
0
0
4
24
5
0
0
0
0
11
16
17
120
188
0
0
0
1
0
0
137
16
49
16
0
40
0
0
19
4
32
0
5
0
0
0
30
0
0
8
0
16
14
13
0
5
60
0
34
0
1
0
11
0
18
0
14
18
14
0
0
0
16
1
0
0
0
21
28
0
0
0
0
1
0
0
12
0
0
18
43
0
7
6
0
19
0
0
0
0
0
0
0
0
4
9
3
8
0
0
0
14
6
0
25
27
7
0
0
0
0
1
0
41
19
0
5
12
0
0
11
17
0
0
24
0
0
0
16
20
18
0
20
53
1
0
0
0
0
0
12
16
18
17
19
0
0
2
25
38
0
0
0
0
40
0
16
33
0
14
0
81
32
3
0
0
0
0
0
0
8
41
0
109
1
0
0
0
17
0
15
12
7
12
0
4
68
3
0
9
0
0
0
0
31
13
16
33
0
0
0
9
6
6
19
17
0
5
4
8
9
3
0
0
4
4
30
6
8
23
0
0
0
31
0
0
11
0
163
125
0
0
18
0
50
23
0
17
0
29
0
28
0
8
1
17
0
95
0
0
0
3
7
92
206
25
0
0
0
26
0
20
0
0
118
0
0
50
39
7
0
0
80
1
50
0
34
43
0
0
0
99
12
0
5
0
17
47
0
35
15
0
19
149
0
0
43
62
0
36
39
51
0
94
0
0
12
0
20
22
0
0
83
0
38
22
59
0
27
0
50
72
0
150
0
63
98
0
0
0
0
0
22
82
0
0
120
121
255
194
111
199
114
237
119
30
33
112
85
34
0
0
0
0
0
0
0
0
0
103
112
47
0
30
0
7
9
6
0
7
0
1
29
0
0
0
48
7
0
0
0
0
0
0
41
25
0
0
0
5
0
0
42
0
50
0
0
0
0
0
30
18
0
0
0
37
0
0
0
0
0
0
0
0
0
0
0
14
0
21
0
20
0
0
13
0
11
0
27
0
0
56
0
0
0
18
0
0
0
32
0
0
0
0
17
0
24
10
13
19
0
0
0
16
0
0
10
2
0
23
27
0
6
13
2
0
27
6
0
27
7
0
17
3
0
0
6
8
0
0
2
15
33
0
15
8
0
0
12
0
0
0
12
0
16
11
18
0
7
3
23
0
11
0
5
2
0
0
5
0
49
0
7
0
0
0
0
0
1
0
0
1
0
14
90
178
0
0
0
0
0
76
93
0
0
0
0
49
0
0
27
0
50
16
0
0
0
0
22
0
0
24
0
0
0
0
22
0
0
0
0
0
13
10
1
0
0
0
4
0
0
0
0
24
0
32
10
24
0
7
0
9
15
0
0
0
1
0
0
0
0
8
34
0
9
11
11
15
1
10
3
0
0
3
6
8
0
9
6
0
37
0
0
12
0
0
27
1
24
0
0
1
4
3
0
45
0
0
0
13
0
0
0
9
16
7
37
53
21
0
15
0
38
0
20
0
0
40
0
32
0
0
0
0
0
3
24
0
2
0
9
48
3
19
21
66
33
0
0
0
31
6
0
81
30
0
8
5
47
0
0
0
0
0
0
28
0
16
42
0
6
3
0
0
9
5
5
8
33
66
0
0
0
0
0
0
0
0
0
16
4
8
9
7
2
2
0
24
0
0
0
2
0
0
0
0
6
6
1
5
0
10
8
15
7
9
0
0
24
0
160
71
0
39
138
0
4
14
0
0
0
36
0
0
0
14
0
0
0
15
0
68
0
0
0
68
0
0
0
0
0
0
0
5
0
0
161
0
40
40
57
77
23
0
36
0
0
0
6
0
0
0
0
10
26
0
65
18
0
0
0
0
37
0
0
139
121
0
39
0
0
31
99
0
0
82
21
0
0
0
0
0
0
0
63
8
36
86
51
0
87
0
121
45
0
83
0
0
198
0
0
0
0
0
0
84
21
0
0
0
0
0
0
116
206
0
255
195
178
159
76
77
61
0
0
51
1
0
7
134
105
151
0
0
0
6
0
0
0
0
27
5
0
0
0
0
0
15
36
12
0
5
0
21
11
7
0
25
0
11
0
39
3
17
0
0
84
0
0
35
0
29
12
36
81
0
14
27
0
22
0
0
16
0
4
18
16
6
0
49
0
21
2
31
18
0
0
25
0
0
30
0
0
0
4
0
0
22
0
2
0
11
0
17
4
0
23
0
22
6
0
0
0
16
0
9
2
12
20
23
0
0
0
20
10
12
17
0
0
1
13
21
0
5
0
3
0
5
13
0
0
0
0
11
38
0
25
0
0
0
27
2
12
0
23
0
4
0
0
6
0
3
4
0
13
6
0
0
0
0
12
0
7
0
8
0
0
25
0
12
3
3
13
0
0
22
43
207
49
0
4
0
0
57
99
0
45
0
0
69
0
0
15
0
5
67
0
7
0
0
0
13
0
14
1
27
0
43
0
14
0
0
21
0
11
9
0
34
38
0
0
40
31
24
27
0
26
0
0
10
0
26
0
5
0
0
28
20
0
69
0
10
0
30
39
10
0
2
0
0
0
0
0
5
0
0
0
0
6
0
5
0
13
0
0
25
19
20
9
0
0
0
0
0
0
0
3
33
25
0
12
38
16
0
34
9
7
0
0
0
0
10
31
0
0
18
46
0
0
0
0
11
6
0
20
27
0
52
20
0
9
34
0
29
0
0
0
40
35
0
0
0
26
0
29
88
31
3
0
0
0
0
0
0
65
0
21
5
44
2
28
0
8
1
20
3
8
0
3
13
38
0
0
0
0
0
0
0
15
32
0
28
3
0
14
0
19
15
0
16
0
37
0
0
23
0
13
0
28
10
1
12
0
0
0
14
0
6
0
4
108
0
64
88
0
28
150
0
0
0
0
44
0
0
86
0
2
4
0
0
39
44
32
0
0
24
0
123
0
50
0
0
5
40
9
27
0
0
147
0
8
0
0
0
0
3
0
0
64
45
151
25
27
6
6
75
38
0
0
17
88
0
97
42
14
0
0
117
51
0
0
0
59
72
211
0
0
51
71
0
0
0
0
0
20
59
13
3
71
138
51
0
90
69
74
0
14
164
0
0
95
80
0
0
0
0
0
47
240
0
0
0
0
0
0
155
0
0
0
0
97
108
123
194
170
149
233
217
178
105
172
95
0
0
0
0
78
0
34
37
0
0
50
14
0
0
26
0
0
11
0
0
8
54
0
36
0
0
25
30
0
0
0
16
0
38
1
0
65
0
52
0
0
25
33
0
0
0
0
30
0
22
21
14
0
21
6
0
29
0
0
0
0
11
0
0
0
19
6
0
3
15
10
13
0
12
14
0
0
45
0
19
0
0
9
0
38
13
0
1
9
3
13
6
0
0
0
0
2
16
0
4
0
0
15
0
0
0
7
0
21
0
0
0
0
2
0
35
26
0
2
7
13
1
18
0
18
0
10
8
30
0
1
0
5
0
0
10
16
14
0
0
0
0
0
3
5
0
0
0
18
0
0
0
8
0
0
18
0
11
0
0
0
0
3
4
10
2
10
154
126
0
0
0
0
138
55
0
35
2
0
46
0
8
12
0
0
70
0
0
61
0
0
15
4
0
0
6
1
11
0
0
39
0
0
0
0
1
8
0
0
0
7
0
0
0
0
0
1
22
0
0
24
0
0
0
0
0
0
0
0
0
0
0
1
44
21
10
1
13
13
18
4
0
0
0
0
6
12
0
0
4
16
0
0
13
0
5
4
23
28
10
0
4
0
0
12
0
53
0
0
0
8
0
0
2
0
39
0
0
22
0
0
0
22
8
26
7
0
9
40
15
20
0
0
0
0
0
0
16
0
0
0
6
0
8
15
0
30
0
0
0
0
11
0
17
31
84
31
0
0
0
0
27
3
0
21
0
14
24
36
45
0
6
35
9
40
0
9
14
28
13
51
10
0
0
21
0
4
0
8
39
6
1
14
12
0
19
0
30
0
0
21
0
0
6
5
8
15
0
15
11
0
4
54
0
19
0
2
0
0
63
97
0
0
80
0
0
91
0
0
64
36
0
0
0
84
0
0
0
50
0
14
0
1
0
0
0
0
0
0
19
0
0
49
0
29
0
5
0
49
56
36
34
22
33
0
105
38
0
56
17
0
0
0
0
0
69
26
0
61
61
5
0
0
0
0
0
0
27
0
0
0
0
11
82
124
0
0
25
135
10
0
0
71
0
0
0
0
47
68
0
0
0
95
110
0
0
0
193
114
0
0
172
17
0
0
0
0
0
255
0
0
35
21
0
116
123
0
0
0
0
0
0
0
0
0
0
50
255
255
92
22
25
52
0
0
15
48
0
21
0
77
0
2
5
0
46
22
0
0
50
0
0
22
0
0
14
10
43
6
0
0
23
16
20
0
18
14
51
88
0
10
0
0
81
0
67
35
0
0
34
24
5
0
7
2
0
16
0
7
0
2
0
15
0
0
0
17
0
0
0
17
0
0
0
0
26
0
26
0
4
0
0
8
0
5
0
8
0
0
2
12
0
5
2
22
17
0
6
11
14
0
11
0
9
25
0
23
0
0
20
0
3
0
0
4
2
0
0
0
6
6
30
0
0
5
0
46
0
25
0
0
0
15
0
0
25
0
11
0
0
0
3
0
9
2
4
6
0
5
0
11
4
19
0
0
1
0
0
0
5
0
9
0
0
8
0
8
7
34
106
243
0
0
0
0
207
55
0
28
20
0
83
0
0
0
4
0
36
28
0
10
0
0
0
0
10
0
19
5
0
0
0
9
0
0
23
0
27
26
0
29
0
5
0
6
0
41
0
0
50
0
18
0
11
21
29
49
0
40
11
0
0
0
0
32
34
20
14
9
0
18
4
0
0
14
0
0
5
0
0
8
43
0
0
12
6
4
0
0
16
21
0
0
0
0
0
0
0
0
13
29
0
0
25
14
73
0
6
0
21
29
29
21
0
44
0
15
0
14
0
0
0
2
0
0
0
8
17
3
4
6
27
0
25
0
0
0
24
8
24
0
12
0
47
13
0
0
93
35
26
0
27
0
0
0
0
0
0
18
0
2
22
0
0
21
0
0
22
49
15
14
27
7
0
0
0
9
0
0
0
19
33
0
4
23
3
11
8
5
3
0
25
0
0
5
9
10
0
0
0
18
0
2
0
1
0
53
0
21
37
0
11
82
0
0
54
0
0
89
0
1
47
0
9
34
0
75
67
0
12
0
0
10
25
0
0
0
63
0
0
0
0
4
12
92
0
0
0
0
0
33
0
0
0
0
35
0
0
0
0
48
82
0
19
0
0
0
50
59
0
0
0
0
33
0
64
0
63
0
94
36
66
0
0
33
118
108
0
0
0
31
181
0
0
0
3
0
47
0
26
114
25
0
0
125
104
0
0
0
32
180
84
0
126
174
0
0
28
0
0
255
0
0
39
0
0
218
0
0
0
0
0
42
0
0
0
0
0
0
0
0
0
0
46
255
48
0
0
0
0
0
0
10
0
69
11
0
42
2
0
58
0
0
36
0
0
2
0
7
23
7
0
28
0
0
20
0
0
0
48
0
0
48
0
0
0
0
52
0
0
0
26
1
15
0
0
11
0
0
8
2
0
7
11
4
4
34
8
6
21
6
0
0
0
0
0
0
25
0
6
0
0
0
6
0
7
14
0
24
0
19
22
0
0
22
0
0
16
0
5
0
0
0
20
23
0
38
0
0
0
0
13
7
0
6
0
0
0
0
0
32
0
0
0
14
0
26
1
11
0
1
0
10
0
7
0
0
21
0
27
0
2
15
0
1
4
14
0
6
2
8
0
0
0
0
8
0
4
10
0
5
6
2
3
0
2
16
1
0
0
0
68
199
0
0
0
0
144
39
0
24
1
0
33
0
10
33
0
0
0
91
0
9
0
35
16
0
10
0
0
0
0
44
0
0
0
13
12
0
0
0
0
34
0
20
0
41
0
25
0
0
13
44
40
0
7
0
7
0
15
11
0
9
41
0
0
12
56
10
0
3
4
29
23
1
3
0
0
0
0
8
0
4
0
9
15
0
0
0
17
13
7
3
0
11
0
0
12
10
0
30
43
0
0
0
0
0
0
0
0
2
40
0
0
21
0
52
0
0
14
28
10
12
0
0
0
0
8
38
0
3
0
0
0
8
59
0
0
0
0
21
0
0
41
0
27
0
0
24
91
31
0
4
3
36
0
0
29
0
13
0
19
26
11
0
0
28
0
10
4
23
1
27
27
0
0
39
0
0
0
102
0
0
0
33
3
0
0
0
15
0
0
17
6
0
15
13
0
9
0
9
13
0
8
0
13
19
0
8
21
20
0
0
0
123
0
15
21
0
0
0
0
0
8
0
39
13
0
0
0
4
0
8
0
7
0
0
43
0
0
61
0
0
18
53
9
0
0
12
0
61
50
21
31
0
3
0
23
0
0
0
0
37
0
0
0
0
74
0
23
32
0
0
27
0
32
0
0
0
0
10
51
0
0
0
0
57
164
76
7
0
0
0
173
106
0
0
29
29
25
0
0
39
89
0
0
93
44
104
76
0
0
6
130
0
0
204
3
0
0
0
0
255
10
0
9
0
139
102
0
0
0
0
55
0
30
0
0
30
0
19
0
70
0
0
0
108
105
221
54
0
0
3
41
20
0
53
0
0
0
0
14
66
0
0
45
0
39
0
0
17
15
0
0
29
0
0
10
4
9
41
74
6
19
0
0
79
11
37
24
0
13
30
19
5
9
1
1
19
1
0
14
15
0
9
32
0
2
0
0
0
9
0
0
36
0
17
0
40
0
5
28
0
42
0
21
0
0
5
0
14
0
0
0
1
17
0
3
0
2
0
28
18
6
0
9
0
0
11
0
0
38
11
15
2
16
0
4
0
0
19
0
0
8
10
0
21
0
9
0
0
9
7
0
19
0
6
0
1
21
0
6
0
0
0
0
0
0
3
4
13
0
20
0
18
2
0
13
3
8
0
0
3
6
0
0
0
5
0
0
3
0
12
46
200
89
0
0
0
208
18
0
57
0
0
70
0
44
0
0
6
0
76
0
0
0
0
0
0
60
0
26
0
0
17
0
0
24
0
3
0
0
5
0
20
0
17
0
0
0
0
24
2
0
0
0
12
12
0
0
0
0
11
0
0
0
0
0
35
0
9
21
14
6
20
0
0
6
0
0
0
2
7
0
8
10
4
1
0
15
0
9
12
36
13
4
0
0
2
0
20
0
0
9
30
16
9
6
29
0
15
10
0
0
20
0
20
0
31
10
0
16
0
0
13
0
0
0
0
0
2
0
30
30
10
14
0
17
12
0
54
7
0
35
0
0
0
0
34
26
0
99
33
0
0
0
0
0
10
0
0
0
15
31
34
1
29
35
1
11
30
0
0
0
22
0
50
17
38
0
0
0
0
0
70
26
0
7
5
0
23
20
9
7
6
4
0
8
0
0
19
13
0
0
0
30
0
14
0
0
3
0
17
0
0
2
127
0
20
47
0
13
52
0
0
6
25
94
0
0
35
0
0
0
29
0
65
45
22
0
14
4
0
0
0
0
0
34
0
0
0
0
0
0
7
92
0
54
0
0
0
0
40
46
8
0
7
77
0
0
79
40
58
42
0
54
8
0
0
0
0
1
117
0
0
0
0
0
12
147
0
82
0
0
0
0
236
79
0
0
0
0
0
0
91
37
54
37
0
0
25
144
83
0
0
45
98
55
20
121
0
0
15
0
212
113
0
0
0
136
5
0
64
0
0
63
44
70
33
0
0
0
113
21
0
0
26
0
0
0
255
127
0
21
4
0
0
0
36
0
30
11
14
28
1
0
14
13
0
0
22
5
22
9
0
24
16
0
0
6
0
4
12
50
0
42
0
0
76
0
43
2
0
18
29
30
0
7
0
0
0
18
0
22
0
6
0
0
0
56
18
0
0
16
0
0
20
5
21
0
0
8
0
0
0
25
0
16
2
0
29
5
0
41
3
0
15
6
0
0
5
5
3
0
10
0
14
22
10
0
12
0
0
12
8
7
0
29
0
14
4
7
23
0
0
14
25
0
0
7
46
0
0
0
0
0
20
0
7
17
0
21
0
0
0
42
16
0
11
0
10
0
7
0
16
21
0
1
0
0
0
0
5
14
26
0
10
0
3
1
4
0
5
17
6
21
119
175
0
0
0
235
0
0
54
0
0
60
0
15
10
0
27
0
14
0
0
0
44
0
0
0
0
5
20
0
0
0
1
0
12
0
24
0
0
22
13
0
42
2
2
39
7
0
6
0
30
0
23
0
10
0
26
0
38
0
0
5
41
0
5
6
21
29
6
0
18
13
10
7
8
0
0
12
0
0
0
6
0
17
0
22
9
0
12
22
0
0
0
0
18
0
0
0
0
7
6
0
1
0
10
1
0
0
0
0
6
0
12
0
19
45
20
0
0
0
42
0
0
0
13
0
36
0
28
0
2
19
0
25
0
0
2
46
0
0
30
0
2
50
0
0
7
99
39
28
0
15
30
26
24
0
0
28
63
0
2
14
0
0
6
12
2
7
4
0
32
4
18
38
0
0
0
0
64
0
16
20
11
12
15
0
8
0
3
18
18
0
14
22
12
3
9
0
0
0
12
0
0
27
25
0
10
0
21
22
0
6
161
0
0
82
0
15
11
0
25
0
0
144
0
0
36
15
13
13
14
0
56
0
0
0
23
0
0
15
70
80
17
19
0
0
40
5
0
0
5
0
0
37
0
119
0
28
62
0
0
0
0
0
0
0
3
0
24
151
0
0
0
0
36
25
0
12
151
0
0
0
0
54
99
0
0
129
146
0
0
0
64
175
0
0
0
53
169
0
70
91
7
0
60
0
0
0
0
105
77
0
0
83
33
126
67
0
0
0
155
255
0
0
0
67
0
0
0
0
31
53
0
0
30
48
0
0
119
0
0
30
36
28
31
0
21
52
0
49
0
0
25
6
0
0
0
0
0
0
0
5
20
0
8
0
8
23
0
9
28
12
0
0
26
0
17
24
38
54
0
29
0
0
71
0
57
0
0
21
3
0
11
0
0
0
0
39
0
40
0
73
0
13
0
0
0
0
14
0
10
0
41
11
5
0
0
0
0
85
0
4
0
31
0
0
28
0
0
1
0
0
4
0
0
5
0
10
0
29
25
0
3
0
0
38
26
0
4
15
0
8
20
0
2
0
0
0
0
0
0
0
9
0
0
0
0
4
28
0
5
0
0
0
2
0
0
4
2
8
0
5
0
0
14
0
0
0
0
0
0
23
5
0
5
0
0
0
0
0
0
0
8
10
0
0
0
0
0
20
0
22
101
240
0
0
0
206
0
18
56
4
0
57
0
16
31
0
14
0
0
0
31
0
1
24
0
37
0
30
47
27
0
0
37
0
6
9
0
0
0
28
0
3
0
0
0
0
14
0
18
0
12
0
0
0
2
6
19
20
0
0
22
0
0
0
0
36
8
2
34
14
12
0
11
7
3
0
0
0
0
8
20
14
9
0
0
11
0
0
21
18
22
0
0
0
0
6
37
0
0
0
0
0
50
0
15
0
0
48
14
0
2
0
27
42
0
0
46
9
0
0
15
0
64
0
2
25
8
15
0
0
0
45
0
0
0
9
39
0
0
21
0
0
11
0
0
0
0
96
38
16
3
42
0
0
0
0
0
0
3
10
3
78
0
0
18
4
1
6
4
0
43
0
27
2
0
0
0
0
15
0
2
38
0
31
0
0
25
5
4
0
2
0
0
0
0
2
0
7
0
7
19
0
46
0
22
0
21
15
19
0
0
51
122
0
0
119
0
29
0
55
22
0
0
5
0
0
7
24
0
0
0
18
50
5
12
0
10
0
0
2
0
3
0
89
0
0
8
45
0
0
27
57
0
12
0
11
0
43
52
0
0
0
11
52
5
1
0
0
43
210
0
0
0
0
0
6
9
27
57
0
0
0
0
88
69
0
0
52
190
34
0
15
0
43
113
70
0
0
120
0
0
0
0
132
50
0
16
22
0
0
0
116
85
68
106
28
181
0
0
0
11
255
0
0
42
7
0
0
29
0
2
47
3
0
0
118
0
0
59
0
0
42
0
9
0
0
0
0
0
51
0
19
14
0
0
0
0
1
0
79
27
18
7
0
14
11
0
2
7
15
19
0
0
29
0
36
0
0
0
28
0
40
0
0
87
0
35
44
0
42
46
9
0
23
0
2
6
9
9
0
0
8
0
4
0
0
22
18
17
0
49
0
21
0
11
37
25
17
0
10
0
0
12
5
0
0
5
0
18
0
34
0
5
0
34
0
15
0
8
2
0
9
0
32
18
0
12
17
17
23
0
8
0
0
0
26
36
17
10
0
0
17
0
0
32
4
0
0
8
0
21
0
17
9
0
0
0
0
11
10
0
10
0
20
8
0
21
4
12
1
0
8
0
0
0
20
1
0
12
0
0
26
0
0
17
2
0
7
6
0
0
11
55
194
0
0
0
158
0
15
5
0
3
34
0
76
0
13
8
0
10
37
21
0
14
0
0
13
0
0
0
19
0
4
0
0
0
26
0
24
0
8
4
24
0
0
25
12
0
0
16
5
0
0
0
22
38
0
0
19
7
0
45
0
16
0
0
9
19
40
12
17
25
3
23
0
22
0
0
23
0
7
5
4
6
18
9
4
6
31
0
0
0
0
4
5
0
5
0
0
0
38
41
0
38
34
0
9
23
0
0
29
22
0
39
16
1
1
0
0
0
0
0
0
0
5
8
28
0
41
5
0
9
15
0
0
0
31
30
0
4
30
7
44
3
0
0
46
13
99
33
0
0
3
0
0
0
16
0
0
27
8
13
24
0
7
3
4
6
22
0
26
12
0
17
0
2
0
0
0
0
0
0
26
0
34
0
0
13
21
0
0
20
0
1
15
2
20
0
0
0
0
23
0
31
0
40
12
13
7
13
0
14
67
69
0
0
163
0
0
0
33
0
0
62
0
29
0
16
0
0
0
0
10
63
0
0
0
0
0
44
85
18
31
0
0
0
0
54
0
0
0
54
0
0
0
0
42
32
40
0
23
2
39
4
0
0
42
0
35
0
68
0
0
0
11
5
0
0
37
88
0
0
0
48
219
61
0
0
0
82
165
17
0
0
0
57
201
37
0
0
0
0
0
0
197
96
6
0
0
53
0
0
0
33
9
38
3
146
148
0
0
25
244
0
51
0
0
0
0
0
119
79
0
66
0
0
0
0
39
109
0
56
9
0
28
8
4
0
33
0
102
0
13
0
64
0
48
0
0
0
0
0
0
0
1
53
26
0
7
1
32
0
0
18
5
0
0
0
12
68
27
4
0
0
0
0
0
0
0
0
0
20
0
9
0
0
0
0
0
0
9
7
28
0
7
2
0
0
0
8
0
9
0
21
13
0
0
0
15
15
0
5
6
16
0
0
5
0
0
42
10
6
0
0
0
26
0
1
0
0
0
33
42
0
0
5
0
0
6
0
0
9
10
6
18
16
4
0
0
0
43
0
0
19
0
8
21
5
0
0
1
0
12
24
8
0
11
0
14
12
15
12
9
0
0
10
0
18
0
0
0
0
0
1
0
0
11
0
0
31
0
5
1
8
5
6
0
6
0
14
11
0
0
23
184
136
0
0
114
0
39
38
0
0
61
0
31
13
0
27
0
0
0
0
0
1
5
0
0
0
0
0
24
0
12
0
9
16
0
0
26
3
6
0
0
0
15
0
37
17
3
27
16
0
12
0
0
0
0
15
0
10
2
0
0
3
0
0
0
0
0
54
38
3
0
18
7
0
0
0
0
1
1
14
0
2
0
0
0
13
22
44
0
14
0
4
0
7
5
0
4
24
0
6
0
23
0
0
12
0
0
0
0
3
3
16
0
0
0
0
0
5
0
26
34
21
0
0
0
0
0
4
0
35
0
0
0
11
0
0
8
0
0
0
0
51
0
0
27
0
91
37
0
0
0
20
21
0
0
25
0
12
43
0
59
0
28
23
32
0
0
0
0
31
16
24
68
0
0
0
34
0
0
0
68
3
19
14
5
0
0
12
12
2
3
0
4
0
0
11
19
20
0
0
0
33
0
0
0
0
0
19
0
0
43
31
0
62
186
0
0
60
60
0
0
89
4
0
0
45
0
0
0
0
59
2
0
0
0
75
136
159
110
0
0
13
0
0
0
0
0
0
20
42
0
0
12
0
56
0
0
0
0
85
0
0
63
0
33
0
10
0
0
191
0
0
10
6
0
8
39
29
0
0
0
89
135
0
8
0
0
0
60
78
0
0
0
0
249
130
0
0
107
194
0
23
109
0
96
95
0
0
0
0
0
0
0
31
0
39
191
16
0
0
102
0
0
0
0
0
1
0
0
43
0
9
0
27
5
0
27
4
0
99
0
0
24
0
9
0
0
0
83
0
9
0
79
0
0
0
13
0
9
9
31
0
0
53
0
0
2
0
56
0
24
0
0
18
11
18
41
40
0
0
0
0
29
2
39
17
2
0
9
41
0
7
33
5
0
41
17
40
0
0
5
4
0
0
0
23
19
0
15
23
0
5
6
2
0
7
0
1
0
5
0
62
0
0
30
0
19
17
0
0
0
2
0
20
0
0
22
15
0
24
0
6
12
23
0
0
0
0
5
0
39
0
0
0
0
0
19
0
3
0
54
9
0
5
0
0
9
13
0
8
0
0
25
0
15
0
2
0
0
3
14
0
0
26
7
10
2
0
6
0
9
1
12
4
23
0
14
4
0
0
0
1
0
0
0
0
4
0
0
0
31
4
100
196
0
0
104
4
43
5
11
24
8
0
12
57
12
2
17
20
0
24
16
12
1
7
27
4
5
0
3
13
37
7
0
15
0
21
0
0
12
0
18
2
0
0
0
0
0
30
0
14
33
0
0
7
28
7
0
0
1
3
9
0
0
0
0
0
0
0
0
24
10
13
0
4
0
0
13
7
0
22
0
2
5
0
0
13
25
24
0
0
0
0
0
29
0
0
23
21
0
7
0
3
17
0
50
0
0
0
22
14
40
0
0
15
9
27
0
9
0
0
0
0
28
30
8
0
0
20
36
0
0
19
0
0
9
0
17
0
48
36
0
25
0
8
5
32
84
43
21
1
0
15
0
4
0
0
0
12
0
6
9
0
8
15
14
0
51
30
21
10
0
18
0
26
0
0
0
4
0
0
0
32
0
6
7
29
0
6
8
4
39
0
6
10
24
0
0
9
0
0
17
47
0
4
0
15
0
47
0
0
23
58
27
12
46
0
0
133
64
0
0
109
0
11
0
44
0
37
10
0
0
0
0
8
20
155
86
0
0
0
0
18
0
0
12
0
32
0
35
40
0
0
139
0
0
8
0
0
0
37
25
0
16
0
32
0
0
10
0
255
0
0
0
0
22
17
0
5
50
0
0
135
0
0
67
0
49
0
125
169
0
0
0
0
0
237
179
80
170
20
0
170
0
0
145
41
50
97
93
143
0
13
0
98
76
0
97
97
0
14
191
0
15
204
255
0
0
0
73
21
41
0
0
69
0
0
111
2
0
71
0
14
0
0
6
33
0
17
30
0
0
0
23
0
1
9
25
10
12
15
0
0
0
54
0
0
9
0
0
0
0
0
3
0
11
0
0
80
0
0
0
0
25
4
0
0
8
10
23
3
0
0
15
0
13
5
0
4
0
41
24
0
24
0
45
0
9
0
10
0
0
0
0
14
5
0
15
15
8
0
12
0
0
9
1
20
0
0
9
20
0
24
1
3
0
12
1
12
0
20
0
1
0
2
20
35
4
22
37
0
22
10
0
11
6
0
0
4
0
0
32
0
0
1
0
10
5
18
0
0
0
0
27
0
16
13
3
0
0
14
3
0
0
0
24
0
15
0
9
11
0
0
8
10
0
0
0
11
0
3
4
5
12
4
0
0
0
10
6
1
4
0
68
229
0
0
49
0
7
18
0
37
12
0
10
8
0
17
26
31
17
0
17
11
0
0
0
37
0
17
32
0
9
0
0
0
0
27
0
0
26
0
0
5
14
24
0
6
12
0
6
0
0
14
0
11
0
0
0
0
0
2
47
5
0
6
20
0
0
0
8
1
4
19
0
0
9
0
5
12
0
48
0
8
3
13
3
0
1
14
7
0
0
20
0
5
0
0
0
0
0
61
0
20
36
0
0
0
0
9
47
0
1
3
22
43
0
9
0
7
0
27
4
32
30
0
0
0
15
10
17
0
0
0
0
61
0
5
17
0
47
0
0
13
14
56
10
8
85
44
16
28
68
24
12
0
16
0
0
2
0
60
14
27
3
8
25
1
6
0
22
0
2
55
0
22
0
0
0
8
4
0
33
23
2
0
0
35
0
10
22
0
0
0
25
10
0
9
3
0
9
0
0
18
23
0
22
14
0
55
0
0
5
61
66
25
0
0
0
205
67
0
0
65
0
0
0
1
29
0
0
19
0
0
81
130
114
39
0
0
0
0
0
12
0
28
0
0
14
9
16
12
0
0
2
0
4
0
60
0
0
0
56
0
0
0
4
0
36
0
0
229
22
0
20
39
53
29
0
0
87
5
53
22
0
0
1
1
0
0
0
113
120
0
0
0
0
0
227
255
255
0
0
255
61
0
101
0
0
57
0
0
0
45
0
69
119
0
0
215
0
0
185
0
96
255
255
0
0
2
0
0
23
30
3
7
0
2
62
0
40
54
0
6
0
56
12
0
0
20
0
53
0
12
0
0
0
0
0
18
41
12
0
0
6
11
24
25
0
10
0
36
0
7
29
0
23
6
16
48
18
0
0
5
32
53
0
0
0
5
27
19
0
42
1
2
26
0
0
22
0
0
0
0
0
0
0
16
30
2
0
7
0
10
0
0
0
23
0
0
0
2
12
0
2
0
32
0
28
21
0
0
0
0
0
6
0
8
0
0
9
0
0
1
37
0
0
40
0
0
0
0
0
10
0
34
0
15
1
8
0
14
0
0
10
23
3
27
0
1
26
0
11
0
0
0
0
0
11
0
0
0
28
0
0
14
0
0
0
6
0
0
24
5
0
6
1
16
2
19
0
0
9
0
0
11
0
0
1
8
12
0
0
5
13
158
0
0
12
27
44
18
0
21
5
0
0
18
0
2
0
0
0
0
47
8
0
1
21
4
8
19
16
0
0
0
30
0
0
0
4
0
5
0
0
0
9
0
0
0
13
0
17
0
0
23
0
0
31
20
6
29
0
1
0
0
10
5
0
0
21
0
0
7
6
0
0
0
35
18
3
0
0
27
0
0
0
0
2
33
50
11
13
0
0
2
0
15
42
27
5
0
0
30
0
0
0
0
17
4
7
40
7
0
0
32
0
0
0
0
37
0
9
1
0
25
8
0
13
32
0
0
37
0
33
0
0
9
0
0
50
0
38
0
9
0
0
0
8
0
75
42
5
0
0
0
0
0
0
0
0
7
28
5
22
20
0
0
0
8
35
3
43
10
0
44
14
29
0
0
0
17
0
0
0
46
0
20
0
12
0
8
0
3
22
0
3
0
0
0
11
0
8
7
0
9
10
0
1
0
0
8
0
0
0
40
89
9
0
0
0
120
73
0
8
12
0
0
0
0
0
0
53
102
40
120
123
36
0
27
0
0
0
18
0
0
0
0
0
0
0
31
81
0
0
81
0
0
0
0
6
0
1
62
0
15
42
84
10
0
0
0
0
63
0
0
0
44
0
0
0
0
79
62
117
0
0
0
6
0
0
0
0
64
229
77
0
0
0
0
0
0
92
0
43
181
0
0
12
124
0
0
0
0
0
59
0
66
129
106
0
149
136
0
0
0
209
255
0
0
0
82
0
0
30
0
0
10
0
0
42
0
0
0
0
0
0
1
30
0
12
0
0
18
35
16
0
0
0
1
0
6
0
12
3
2
10
0
24
0
27
4
0
0
2
0
7
0
20
18
20
11
24
0
0
0
0
11
0
51
8
0
7
19
0
9
14
0
0
0
4
5
34
0
9
0
19
5
10
0
18
19
0
7
3
13
0
21
17
0
0
0
0
2
14
0
12
11
0
0
0
0
11
0
0
0
0
0
0
17
0
0
0
0
14
21
0
0
0
44
0
0
20
6
0
16
0
22
0
0
9
34
0
13
18
22
19
0
0
0
21
0
15
0
0
4
0
17
26
0
3
0
20
0
3
0
0
0
2
0
28
3
7
0
0
0
0
4
0
0
0
0
0
2
18
0
17
0
0
0
6
0
6
3
6
2
26
89
85
0
0
17
16
3
28
55
0
0
17
0
0
27
10
16
6
0
50
0
10
23
10
0
0
18
0
24
0
3
28
0
37
0
0
28
14
10
38
8
0
39
0
27
22
0
29
0
0
49
5
0
0
0
0
0
0
42
0
0
7
0
12
13
0
0
0
0
0
0
0
0
17
0
11
25
0
21
0
5
15
4
5
15
0
0
16
0
0
0
0
0
0
0
47
0
0
0
9
0
3
0
69
0
19
0
3
50
0
0
0
0
0
0
0
0
17
15
31
9
33
12
0
0
0
0
0
0
21
1
0
2
11
1
25
10
13
0
0
5
66
0
0
16
72
39
0
28
13
43
40
0
0
44
0
0
35
0
27
29
0
29
20
39
0
0
34
10
7
6
47
2
0
0
0
0
0
0
12
17
0
53
0
56
0
7
0
32
0
11
0
3
0
8
1
0
24
0
8
0
20
2
0
8
1
11
5
0
0
19
141
15
23
0
0
68
115
0
67
0
38
0
0
44
0
0
65
101
59
57
0
0
0
0
0
0
18
6
22
34
14
26
0
7
4
60
34
0
12
80
2
13
25
0
55
36
0
45
0
40
40
0
0
22
0
0
0
14
78
0
132
40
0
0
0
0
0
141
161
0
0
0
0
5
41
0
0
3
18
59
0
96
0
0
0
0
0
0
4
33
69
51
6
187
0
0
0
1
0
57
0
0
0
70
75
0
202
6
0
0
207
214
0
0
0
17
0
42
25
0
0
0
0
46
41
0
0
0
20
0
10
0
0
84
0
9
0
23
0
0
30
0
21
0
0
0
0
48
0
25
12
20
10
12
0
3
0
46
8
0
14
0
0
46
35
0
0
0
0
27
68
0
0
11
15
11
14
0
0
0
5
0
6
0
0
0
3
3
42
21
9
0
8
0
0
11
0
18
0
1
4
14
0
0
27
3
0
0
0
0
1
0
2
25
0
0
9
13
0
0
10
34
8
41
8
12
4
12
0
0
3
7
0
20
0
0
12
8
0
0
10
14
0
2
0
0
0
0
0
0
0
0
0
0
14
0
21
30
8
6
0
29
0
11
2
0
11
19
0
6
14
1
7
13
0
0
7
0
0
0
18
5
1
12
0
16
1
4
10
0
0
0
29
2
0
0
6
4
0
7
14
66
136
0
0
77
21
50
0
60
0
0
0
6
44
0
13
0
3
0
0
5
8
0
0
0
25
14
18
0
4
0
11
29
0
0
0
12
0
0
0
12
0
0
12
0
0
17
32
17
0
11
3
0
0
7
18
0
35
0
11
36
12
20
0
0
11
0
0
0
0
0
8
0
31
7
0
14
13
5
0
13
6
1
13
4
24
1
0
3
0
0
12
22
1
0
0
0
0
44
30
9
0
0
0
0
31
0
0
26
0
0
27
0
0
7
22
0
50
18
0
0
27
0
3
0
19
12
8
7
0
0
47
0
13
0
4
0
7
0
19
17
54
0
4
0
69
40
9
0
0
0
0
59
1
0
0
0
0
0
50
11
0
0
14
0
0
21
1
10
11
0
0
59
0
0
2
0
11
0
10
28
14
0
0
10
0
29
0
17
0
0
0
0
0
2
19
0
35
0
0
20
1
0
31
0
7
2
11
0
0
0
175
53
45
0
20
76
174
0
22
38
0
0
42
0
25
0
0
0
0
0
0
0
0
59
10
0
39
0
0
29
0
0
17
0
0
61
0
0
106
25
39
0
0
0
0
0
24
21
0
0
33
0
93
50
60
0
1
44
68
48
0
0
0
0
13
1
16
167
39
0
0
11
0
0
14
0
0
80
10
30
0
0
161
0
0
0
0
0
0
0
0
64
131
209
44
23
0
0
0
0
0
0
0
0
232
0
94
168
46
171
199
55
0
5
51
12
0
40
70
0
41
0
7
66
0
10
99
0
31
0
9
46
0
0
10
0
50
0
4
0
14
0
3
0
40
35
0
0
1
47
0
0
0
8
0
20
0
4
0
0
0
9
15
58
47
24
0
0
12
36
74
0
15
0
13
11
0
24
38
0
23
0
44
3
0
4
3
0
0
0
10
0
0
0
26
44
0
20
0
0
9
0
0
3
7
0
0
34
0
0
17
0
1
0
33
0
9
14
7
4
0
0
0
0
0
0
18
0
0
15
4
9
17
0
13
0
0
0
0
21
3
22
0
36
12
20
0
14
6
0
5
0
0
0
4
0
24
0
0
0
0
0
0
3
0
20
0
1
0
8
0
0
7
0
0
5
8
0
0
0
0
7
1
9
0
7
0
0
5
0
5
0
4
0
0
4
16
11
0
0
9
50
121
0
0
51
56
20
0
38
0
0
20
2
36
0
16
0
18
0
0
21
38
0
17
15
0
6
20
23
22
9
4
19
0
4
33
0
0
0
35
0
12
28
0
13
0
0
18
41
0
0
22
15
41
0
32
0
31
0
9
0
3
0
0
17
14
0
5
0
17
0
0
18
25
1
11
20
5
13
3
2
0
13
19
15
8
34
0
3
0
0
0
12
0
18
26
53
30
0
35
0
37
0
0
30
3
44
29
0
8
66
16
0
0
0
6
0
8
7
5
22
0
15
0
0
0
14
0
0
0
25
0
0
0
2
10
2
0
0
1
30
0
36
40
0
63
37
0
26
0
29
0
1
28
0
0
38
31
41
56
12
8
0
60
0
15
5
21
1
0
39
31
0
0
0
0
0
10
5
26
10
0
1
0
16
2
0
20
0
2
0
6
13
0
0
9
0
0
0
10
0
4
20
0
34
21
23
14
0
0
0
151
80
0
0
0
128
0
0
18
0
0
0
51
0
47
0
50
0
0
2
0
0
14
0
4
2
33
0
0
72
0
0
0
0
0
14
0
0
73
0
39
0
55
0
66
0
97
0
38
0
26
33
0
0
8
0
30
0
48
0
0
22
0
0
0
0
53
152
0
0
0
0
0
0
0
56
0
94
67
57
30
0
123
132
0
0
121
0
0
0
0
0
0
0
169
187
0
0
0
30
0
103
47
0
0
37
0
197
75
168
48
0
0
0
0
0
0
47
0
0
0
0
0
109
0
0
10
0
0
6
2
2
9
0
0
0
0
0
39
0
44
0
6
0
43
0
0
0
18
22
17
22
12
3
0
15
16
50
39
8
0
0
10
17
0
0
0
0
0
13
18
0
0
38
26
0
0
13
0
0
0
0
1
20
1
0
0
0
18
0
1
0
0
8
0
15
0
0
0
2
0
0
15
0
16
11
10
16
0
19
0
24
2
0
11
0
32
0
32
0
8
7
10
0
0
0
8
0
23
0
0
0
8
0
0
8
13
8
0
0
0
0
0
1
0
11
3
0
0
2
0
26
9
21
8
2
0
12
0
13
12
6
6
15
0
24
0
19
10
8
0
0
39
3
0
0
13
2
0
7
9
0
0
14
0
12
0
0
0
14
0
0
14
10
0
9
0
0
0
0
2
30
93
30
0
5
60
51
0
43
0
0
0
0
86
0
24
13
30
0
9
11
15
0
2
3
6
7
0
0
31
0
24
0
0
16
40
0
44
0
23
3
0
34
10
38
0
0
0
0
0
0
36
0
0
0
0
0
45
0
16
0
3
3
0
37
0
0
0
1
78
0
0
26
29
0
8
29
0
16
0
0
16
12
10
1
0
2
0
0
0
18
5
28
5
13
0
20
0
0
12
0
19
0
37
49
0
7
0
0
0
0
0
0
2
20
0
0
0
19
27
9
0
52
24
59
18
33
24
0
45
18
0
38
2
29
0
2
0
0
12
0
8
0
0
9
59
39
3
0
42
35
0
0
12
0
0
8
15
39
28
17
3
11
0
0
0
0
20
0
0
36
28
34
0
13
0
0
0
0
6
0
26
2
0
0
0
0
7
5
18
0
8
9
3
1
6
0
0
5
0
0
0
16
0
0
11
0
0
6
0
0
94
112
0
0
0
126
0
0
53
0
0
0
0
0
0
0
0
0
8
0
0
0
46
0
0
0
16
0
46
92
19
0
0
10
133
0
0
34
14
0
0
0
0
0
0
10
43
0
0
0
0
17
61
0
8
78
102
0
0
0
0
0
0
14
0
14
201
39
0
0
26
11
0
0
0
0
87
87
8
28
94
0
0
241
0
0
65
40
34
0
0
0
0
0
252
182
0
0
0
0
0
48
19
0
55
0
0
1
144
0
0
0
0
55
28
0
17
0
0
0
0
0
53
67
8
0
2
33
0
0
70
0
0
13
0
35
0
0
76
0
0
0
0
11
0
10
0
32
26
4
0
0
19
7
10
0
0
31
0
0
31
40
34
45
0
10
0
0
40
52
0
6
15
0
20
0
0
41
9
20
0
0
58
0
0
0
14
0
23
0
0
9
0
10
0
0
0
11
37
0
19
23
0
0
0
0
18
0
0
0
6
0
0
0
21
0
28
0
0
2
49
0
0
18
0
38
14
0
16
0
0
4
14
0
9
0
26
0
0
2
4
0
17
0
0
8
1
0
0
0
0
0
0
0
3
14
0
12
11
0
0
44
0
0
0
0
0
14
0
0
0
0
10
0
0
13
8
2
3
0
8
0
9
0
0
0
2
4
0
15
0
10
0
13
0
11
0
0
0
2
8
14
63
87
0
4
55
0
0
68
0
0
0
20
75
0
0
0
1
0
19
0
6
0
23
0
2
11
27
6
0
0
0
29
27
0
7
0
58
0
1
3
0
0
0
12
10
0
0
13
13
0
0
0
19
8
7
0
13
1
0
29
6
15
0
0
29
7
0
0
8
0
0
35
14
0
22
4
7
21
0
13
14
8
16
11
14
14
0
0
0
5
0
25
0
0
13
20
10
0
51
1
10
0
0
0
7
67
0
3
12
67
0
19
10
0
19
12
0
12
0
9
0
8
0
3
0
0
0
0
28
0
0
0
0
22
10
6
0
29
64
36
0
14
9
0
61
39
5
12
0
0
0
0
25
0
0
19
36
27
22
1
0
0
0
5
0
17
28
0
0
11
0
0
0
0
13
0
0
12
8
28
16
0
50
11
32
24
0
13
13
8
7
0
0
7
4
11
0
19
0
11
0
0
0
9
0
1
33
22
0
0
74
158
0
0
20
142
0
4
138
0
72
0
53
0
32
0
0
0
21
0
83
0
0
10
5
0
0
0
0
32
0
0
17
103
10
0
28
51
0
0
0
79
28
0
0
163
52
39
0
10
0
0
18
0
0
0
0
0
4
48
22
14
0
0
0
84
111
0
0
34
0
0
0
0
0
0
43
96
0
0
168
82
0
0
159
0
0
3
32
0
50
0
0
0
124
255
177
0
0
0
0
131
65
65
77
0
0
0
255
56
0
0
0
29
0
0
98
57
0
0
0
0
0
6
0
0
11
0
0
0
24
0
0
38
8
26
0
2
0
21
30
0
40
1
0
0
0
0
0
3
1
11
1
2
0
21
0
0
20
0
0
0
42
75
0
0
0
0
56
5
0
0
46
2
8
6
0
12
0
27
0
0
21
0
0
42
0
0
23
0
5
28
0
0
16
0
11
11
0
0
0
0
0
12
17
0
15
0
19
33
6
0
0
8
0
0
24
3
0
0
28
0
0
0
38
0
0
12
0
0
13
15
16
9
2
0
13
0
19
14
0
23
19
0
0
5
14
2
32
4
12
17
0
39
0
0
13
19
0
0
1
5
0
7
18
23
13
19
0
0
27
0
0
0
23
0
0
9
7
1
0
0
17
0
0
25
11
0
0
7
0
0
0
0
0
0
9
0
17
0
0
11
41
93
0
0
67
0
0
32
0
0
0
0
114
0
0
3
16
1
0
10
0
40
19
1
34
1
11
0
32
20
0
34
36
0
8
6
0
0
8
0
39
36
21
29
0
17
28
0
0
0
0
0
0
10
32
27
29
18
35
25
0
37
14
0
0
0
21
0
0
0
24
27
21
4
1
0
3
16
0
20
0
0
27
3
0
0
0
4
0
28
0
9
11
20
0
0
35
0
0
0
4
0
13
47
0
0
0
19
0
0
0
12
15
16
54
41
12
6
11
0
0
0
0
37
0
0
0
0
21
0
19
49
18
32
0
3
0
0
7
10
0
0
4
14
52
37
0
29
0
16
0
0
0
0
0
0
55
0
9
4
2
8
17
34
27
0
27
27
23
32
0
0
0
0
0
0
19
6
0
37
0
0
1
6
0
49
5
0
0
16
3
3
13
0
1
0
0
0
18
13
7
28
3
0
21
10
0
0
0
0
14
109
0
0
0
129
0
0
62
0
0
0
18
12
0
19
0
0
0
0
0
48
0
0
8
0
41
0
0
0
0
0
0
76
0
0
61
76
5
0
0
0
0
0
11
24
32
8
0
0
0
0
49
0
0
0
41
38
6
0
2
0
26
0
0
79
170
0
0
0
57
45
0
0
0
0
0
123
42
4
0
232
0
0
52
109
43
0
0
0
0
0
0
0
0
0
109
21
0
0
0
7
97
123
156
0
18
0
177
178
0
0
0
39
0
44
29
6
0
93
0
33
41
0
4
21
0
5
0
6
24
0
0
0
0
0
0
11
2
12
0
15
13
0
0
0
0
11
28
0
7
26
0
0
0
0
46
6
16
0
7
32
61
0
0
0
0
0
7
12
0
0
58
43
6
0
0
18
0
0
0
0
0
6
0
18
2
2
0
19
4
12
0
0
10
12
0
43
0
39
13
3
0
0
0
0
23
0
0
0
30
17
0
45
0
23
0
0
0
11
0
0
6
0
0
0
0
47
0
3
0
22
0
0
82
0
6
3
27
21
0
13
0
21
0
0
0
0
13
24
0
0
6
0
0
0
0
0
0
17
0
5
0
37
1
0
0
11
5
0
0
0
0
19
9
0
0
0
7
0
6
11
6
7
5
7
0
0
0
23
17
13
0
33
0
6
11
0
10
0
0
21
18
107
38
0
49
0
0
0
15
0
53
0
140
0
0
3
13
0
0
42
0
0
0
3
0
0
0
2
0
0
27
0
0
0
5
0
31
0
5
2
28
0
0
20
0
0
0
17
20
7
43
0
0
19
0
0
13
0
0
0
0
16
0
14
2
0
14
0
0
0
8
5
8
0
12
0
13
12
0
0
8
16
32
37
0
8
0
0
0
7
1
32
0
0
0
0
0
0
5
0
4
38
19
22
4
8
3
0
0
2
37
0
0
0
46
0
0
0
23
0
0
13
30
0
0
29
0
36
0
0
15
0
18
0
0
6
31
0
7
0
8
0
0
53
53
35
0
2
0
0
38
43
0
0
0
8
24
0
19
11
0
0
19
9
0
34
0
0
53
3
8
10
0
0
32
0
0
0
5
28
24
23
7
15
0
25
0
24
0
0
9
0
0
9
10
0
10
3
0
0
15
0
9
0
0
20
2
11
0
0
38
11
0
0
0
119
0
26
32
0
0
2
0
0
0
0
27
26
103
28
0
6
49
0
99
0
0
12
0
51
0
0
64
39
0
0
49
0
0
0
26
17
33
0
97
0
0
71
0
21
22
0
30
0
0
66
44
3
0
0
0
0
0
0
30
101
52
0
0
0
11
44
63
0
0
0
0
0
52
58
0
255
78
0
0
0
36
85
24
0
0
0
14
18
94
0
0
58
0
0
0
0
175
10
0
32
70
0
157
192
0
0
0
30
0
0
28
15
0
35
0
0
10
0
0
0
43
9
96
0
0
0
0
0
4
60
0
0
0
26
13
0
0
11
0
22
28
18
21
0
10
0
31
0
47
6
0
0
5
22
19
49
25
19
0
0
0
47
33
3
0
12
58
12
8
35
18
0
0
14
0
0
43
6
2
0
0
9
19
2
0
0
6
0
6
6
5
8
22
0
3
0
8
0
0
6
9
0
2
0
0
0
0
30
0
23
16
0
3
8
0
5
22
5
0
0
23
6
0
10
0
29
0
0
0
0
0
0
0
0
6
23
0
0
0
7
0
13
0
0
0
2
0
9
0
8
0
22
4
0
0
7
0
5
0
13
0
6
13
9
0
5
9
2
0
0
0
0
8
23
0
0
9
0
0
7
0
6
0
1
0
0
0
24
0
16
0
0
0
0
13
0
7
92
80
0
0
0
21
21
11
0
0
0
0
0
0
35
12
0
0
37
0
23
0
0
9
0
4
0
4
25
6
18
33
25
0
0
58
17
17
0
10
4
0
9
14
8
26
0
51
0
23
32
16
12
0
34
0
0
0
14
0
0
0
4
0
0
0
3
0
10
33
16
26
0
12
17
19
14
0
9
8
12
0
29
0
0
0
17
5
0
37
0
22
39
0
0
72
0
36
0
0
11
0
12
10
0
1
0
0
0
14
0
35
43
30
26
15
0
0
0
46
28
0
0
19
1
0
1
0
36
19
0
26
0
0
11
23
0
71
0
47
22
0
0
59
36
0
20
19
10
1
0
0
0
0
0
5
0
0
20
76
36
6
5
0
0
17
29
0
21
57
40
0
0
0
0
0
0
17
0
15
0
0
5
0
0
8
0
0
15
0
0
0
6
0
4
14
0
7
32
5
8
3
33
0
17
13
28
0
0
52
0
85
0
0
6
0
59
0
0
0
0
0
45
12
18
81
0
7
0
0
0
0
0
2
0
0
0
0
30
0
32
55
0
0
0
35
21
58
0
0
0
0
0
27
0
0
149
0
0
1
0
19
7
22
0
0
0
0
77
0
0
0
0
33
0
0
55
0
9
0
0
216
71
53
42
21
0
67
109
0
98
182
0
0
0
0
4
176
77
0
0
23
44
0
0
0
0
0
14
0
0
253
0
0
0
81
0
164
0
0
0
32
0
4
0
26
0
0
0
4
20
25
40
0
14
35
0
0
0
37
58
0
0
9
18
8
0
0
71
0
2
0
1
0
0
7
0
13
0
0
22
0
0
0
0
38
22
0
8
50
55
14
0
0
0
48
22
5
0
2
57
4
0
2
0
8
0
0
0
36
0
5
0
0
2
2
0
0
0
17
16
1
0
34
0
0
0
0
0
5
0
0
19
2
0
47
8
20
20
0
0
0
0
0
17
13
0
0
0
0
5
0
11
30
0
0
0
29
20
0
3
0
0
0
43
7
5
0
20
0
0
5
0
24
0
0
10
0
9
8
0
0
22
6
0
0
3
0
0
6
33
0
3
0
21
0
17
14
0
3
21
0
0
0
0
2
13
1
5
0
8
0
16
0
16
0
0
15
0
5
0
0
10
0
0
8
8
14
0
1
14
0
61
124
0
0
0
0
0
32
4
0
56
0
0
0
0
3
18
0
0
0
60
0
3
14
0
54
0
0
0
0
30
4
0
0
13
0
12
10
0
0
79
0
5
0
15
11
0
0
0
0
7
17
32
5
0
0
7
0
29
0
0
0
0
0
0
0
0
0
20
34
0
4
0
8
0
0
0
3
26
32
12
19
0
0
0
10
0
8
2
0
0
0
15
0
29
0
0
17
63
12
42
0
0
49
0
0
0
0
0
30
0
12
0
0
0
0
4
3
26
0
0
0
0
22
0
15
0
0
0
46
10
4
0
0
0
0
57
0
0
6
0
0
11
57
35
0
52
0
0
0
3
0
26
14
0
0
17
65
26
46
0
5
20
0
19
4
7
28
0
9
25
0
0
0
0
0
0
50
23
0
11
15
0
0
0
2
16
2
17
29
0
3
3
5
0
0
0
16
7
0
23
0
0
15
0
20
0
1
0
42
0
7
0
0
9
41
160
14
0
0
43
0
0
0
66
9
0
0
0
0
0
39
0
0
4
0
25
0
11
44
74
0
0
0
41
44
2
0
14
38
12
0
54
14
0
0
112
0
0
12
24
0
0
4
0
14
0
0
48
0
0
0
0
109
0
0
0
0
131
37
0
1
196
160
20
44
0
0
126
32
9
209
1
0
0
0
0
23
229
74
0
0
95
0
0
13
23
0
0
0
0
255
0
0
111
110
91
255
0
0
20
0
6
57
7
28
0
0
0
48
32
0
0
34
20
0
0
52
0
4
0
0
2
2
0
0
0
10
36
0
8
0
22
9
8
82
11
16
29
13
0
12
0
3
0
32
0
0
24
35
11
31
0
0
0
16
16
0
0
0
44
8
0
23
0
6
5
24
0
10
0
38
0
13
19
24
9
20
16
0
0
3
13
35
14
0
0
0
10
1
22
16
9
0
0
16
0
12
4
0
10
33
6
0
18
0
0
0
31
0
0
6
0
2
8
0
0
46
0
16
2
30
18
0
0
0
43
0
0
2
25
7
0
58
0
18
5
0
0
2
2
5
0
0
15
0
2
1
0
0
0
0
17
4
3
0
3
20
0
0
0
1
1
0
0
0
0
18
0
5
15
0
12
0
1
0
2
1
0
34
0
9
0
19
0
2
5
0
0
2
5
0
39
145
0
0
0
12
21
42
0
63
110
0
0
12
0
0
0
0
0
0
23
0
14
0
0
4
40
0
0
7
5
0
14
0
16
0
4
13
14
0
0
0
5
23
57
0
28
16
30
0
9
16
0
44
35
16
19
0
37
0
0
0
2
0
0
0
22
0
49
31
13
3
0
18
24
15
15
9
6
0
5
0
0
12
0
4
11
0
0
33
0
18
42
0
12
0
0
0
0
2
0
24
0
13
0
0
22
19
0
47
0
15
89
0
0
4
0
0
16
0
10
29
30
0
0
12
0
0
0
9
28
0
0
12
29
56
0
0
39
0
0
9
0
57
34
0
0
0
0
0
8
0
87
0
0
0
0
64
22
7
0
4
25
0
19
15
14
26
0
29
53
35
0
0
0
7
0
14
20
1
0
45
0
1
31
0
11
0
6
0
6
3
8
9
17
0
0
2
12
0
3
8
8
18
15
0
5
21
0
51
18
13
23
0
0
26
89
7
0
0
0
0
0
56
88
0
27
38
28
13
16
13
0
83
0
1
0
0
4
85
0
22
20
0
59
32
17
0
0
0
21
30
0
56
0
0
52
0
29
0
0
4
0
0
23
0
19
20
36
0
11
27
0
21
0
0
0
8
255
0
0
0
0
180
66
86
0
0
58
68
0
141
209
47
0
0
0
0
30
160
84
0
0
37
0
0
34
0
0
41
255
255
0
0
0
0
1
120
0
0
0
0
17
1
29
0
0
0
0
51
0
18
0
1
0
41
20
45
0
13
0
0
0
0
52
27
0
0
10
19
0
0
0
0
16
0
0
2
4
11
0
0
22
0
7
0
6
32
101
16
0
0
0
0
0
70
0
0
17
17
0
23
0
14
0
0
26
14
0
5
0
0
1
0
67
0
6
0
9
7
0
0
0
17
0
15
0
3
40
0
22
0
0
6
0
0
0
4
0
0
0
26
0
10
19
2
26
0
22
0
0
4
29
0
21
0
0
7
0
8
0
22
0
3
0
0
0
22
0
0
2
0
11
0
2
6
0
0
3
0
0
0
5
6
0
9
31
0
0
42
3
14
0
0
0
0
17
7
6
0
10
5
0
4
0
6
0
0
0
0
0
0
7
7
0
7
0
16
0
11
0
0
0
5
0
0
0
11
0
0
8
7
19
135
79
0
0
26
3
59
0
11
62
0
0
40
17
38
20
0
30
0
26
0
0
0
21
0
27
4
10
0
0
0
20
0
0
14
0
27
0
26
0
0
0
6
0
30
0
30
8
0
0
0
22
0
16
8
13
0
0
0
1
37
54
1
0
0
0
0
23
11
6
21
0
1
17
0
5
11
6
24
0
15
0
13
19
0
0
4
2
27
22
0
0
0
0
0
2
53
50
29
26
24
9
0
0
0
0
9
15
33
0
0
42
6
0
0
17
0
26
8
0
1
1
0
15
0
26
0
16
0
0
0
0
40
0
1
0
8
2
0
0
0
6
60
33
0
0
21
9
30
44
0
0
0
0
0
45
37
36
3
0
0
17
13
0
7
14
3
0
0
19
19
0
0
0
33
0
4
42
0
11
0
0
17
12
0
0
40
0
0
30
6
2
0
0
0
12
0
0
12
6
0
0
8
0
9
4
53
9
0
0
134
0
0
7
0
115
0
0
54
18
5
0
70
57
0
0
0
0
1
0
21
0
0
0
0
0
0
49
70
0
0
11
0
68
32
0
0
54
0
0
0
17
76
0
0
48
0
0
15
14
0
25
0
18
32
0
19
0
47
37
41
0
9
0
16
0
0
255
0
0
0
0
70
122
0
0
0
0
125
0
0
252
146
0
0
13
0
0
0
0
41
0
56
0
19
2
0
122
2
255
176
0
0
21
0
0
0
0
31
16
42
3
0
0
4
0
0
0
124
0
0
0
2
8
0
0
0
8
0
20
0
54
0
65
15
0
0
10
63
0
0
0
0
59
0
23
0
8
21
28
0
11
0
14
0
16
0
83
58
0
0
2
0
10
39
24
0
31
30
6
16
16
23
0
0
22
13
15
0
0
25
1
0
0
0
26
0
0
7
17
0
4
7
11
0
0
13
0
0
3
24
8
0
8
0
0
46
19
0
0
0
3
7
7
0
6
0
28
8
4
4
0
0
6
20
31
0
8
5
0
16
11
16
7
9
0
12
0
0
30
0
19
0
21
0
0
20
26
0
7
0
0
10
4
0
0
0
5
0
0
7
0
0
2
24
0
12
0
21
9
9
0
33
0
4
11
20
0
0
10
5
9
0
0
8
0
0
0
0
0
8
11
3
7
0
8
11
0
14
0
0
15
87
151
0
0
29
3
59
0
1
49
0
0
0
0
0
0
2
40
0
32
36
14
0
0
1
0
1
0
0
37
2
4
4
0
0
0
24
0
51
33
0
38
32
44
12
0
29
0
0
10
31
32
28
19
23
0
0
0
63
27
2
20
1
24
0
0
0
16
3
1
6
15
10
13
0
23
9
11
32
0
0
0
0
0
0
38
2
15
0
7
0
19
37
38
9
35
28
0
0
0
0
2
0
0
13
0
7
10
9
31
16
1
31
7
12
0
5
16
0
0
0
0
0
85
0
23
13
65
34
0
62
10
19
0
19
0
0
52
22
27
0
8
52
39
23
9
18
0
0
0
0
0
0
0
0
47
46
8
0
32
0
10
0
9
14
18
7
0
25
44
89
0
0
2
0
0
0
4
4
26
0
3
2
7
1
0
6
0
0
15
0
0
43
0
0
17
14
2
25
0
19
0
0
22
24
1
42
5
0
8
158
0
0
65
0
133
0
0
0
0
0
0
20
0
0
0
28
5
0
0
14
6
0
0
0
26
30
45
29
0
0
0
0
0
40
48
0
1
2
0
0
13
24
0
16
50
3
0
28
0
56
41
0
0
0
0
14
0
0
0
0
0
15
0
69
0
13
209
0
0
0
0
0
139
56
0
0
0
95
74
0
62
233
141
0
89
46
0
0
0
66
128
0
62
191
57
37
0
0
85
0
0
5
0
0
0
0
19
3
0
48
0
13
0
0
0
13
0
18
12
0
26
3
0
89
0
31
0
0
74
0
0
0
0
26
0
0
0
0
0
0
0
22
15
22
39
9
3
23
0
0
0
10
0
2
8
33
48
0
0
0
0
0
0
28
24
0
14
0
0
0
0
4
0
5
0
0
0
0
27
0
0
29
0
0
60
0
0
0
0
0
17
38
0
0
0
4
0
0
0
0
0
22
18
0
0
50
0
10
0
4
15
0
38
0
8
0
0
0
12
0
0
0
0
0
7
0
0
0
20
13
0
0
1
0
0
0
5
3
0
18
8
1
3
0
0
8
0
22
0
9
9
10
0
0
30
12
0
10
0
18
0
0
0
12
0
25
0
9
0
3
0
8
0
8
0
16
8
13
0
0
2
2
6
0
0
3
14
19
5
0
0
0
22
0
8
8
0
15
0
11
12
61
184
0
0
0
18
14
0
50
27
0
6
39
6
0
32
0
17
0
48
0
7
0
0
0
26
0
46
0
0
0
0
19
0
32
0
15
0
36
15
0
0
0
0
3
0
63
3
2
35
29
0
1
0
10
0
0
0
38
0
9
0
1
0
0
0
16
29
17
0
19
24
0
15
0
25
8
27
0
2
16
9
0
0
0
0
0
2
0
0
0
0
0
0
0
0
32
35
0
35
0
0
0
0
0
17
3
0
19
51
0
0
11
0
17
26
0
3
53
19
0
10
0
0
0
3
0
6
0
0
0
17
3
18
0
18
60
0
0
20
0
0
53
39
3
2
0
0
12
0
14
0
6
0
0
0
77
0
0
18
3
18
0
10
4
0
17
8
30
0
41
0
0
0
23
0
45
0
22
4
0
0
12
0
0
16
0
0
17
16
2
15
4
0
0
0
0
0
9
0
35
9
0
0
17
47
51
0
0
27
143
0
0
35
20
135
0
0
0
0
5
56
17
0
12
30
9
1
29
0
23
0
0
0
87
41
55
3
0
0
5
48
0
100
57
0
0
0
21
9
0
0
49
1
0
45
20
0
0
52
40
22
18
0
0
0
69
0
11
0
0
37
26
0
25
0
0
22
0
2
0
0
0
79
47
74
0
0
40
104
0
0
56
216
33
83
124
0
0
0
0
40
7
0
132
137
43
0
0
0
0
0
92
7
0
0
0
1
18
0
142
93
23
0
2
0
40
71
0
24
0
16
0
0
0
0
0
0
12
0
8
0
30
1
37
0
0
63
21
0
15
17
0
0
9
2
0
11
0
0
0
76
6
6
0
76
81
21
0
0
0
0
52
3
84
0
0
32
19
19
21
15
0
4
0
2
0
10
22
0
10
12
0
18
18
0
0
6
17
10
0
13
6
0
32
0
0
0
0
35
0
30
1
0
7
0
0
0
8
3
0
17
0
18
0
1
0
0
0
21
3
0
0
48
0
0
14
18
0
10
8
13
10
0
6
11
50
0
7
22
8
0
0
19
0
8
15
0
12
23
0
20
0
1
0
0
1
0
18
0
0
0
16
0
0
0
21
0
0
0
19
11
0
0
17
0
0
8
0
16
0
0
6
0
3
5
6
0
0
1
0
11
0
0
0
0
6
0
16
0
4
2
30
141
0
0
0
0
52
0
73
0
17
19
33
10
13
0
0
23
0
94
0
13
0
31
0
35
0
0
0
11
28
0
20
0
0
0
31
0
2
17
0
21
0
61
33
0
0
11
47
7
0
0
12
0
0
0
26
8
21
0
16
0
0
0
0
0
20
12
26
0
22
0
4
23
3
0
0
0
0
4
13
0
10
6
0
9
25
0
0
11
0
0
0
0
4
1
0
0
0
11
6
0
35
0
0
26
0
9
21
62
0
0
0
0
3
0
7
0
2
6
0
8
0
16
8
16
8
0
26
0
2
0
15
0
43
0
0
0
1
16
2
18
60
41
8
0
22
0
0
0
0
0
0
0
0
0
101
34
0
34
0
10
0
38
8
7
0
24
26
0
162
0
0
0
0
0
0
0
22
0
33
5
1
2
12
7
3
0
0
10
0
8
16
1
11
14
0
23
25
0
0
0
16
10
36
37
10
0
0
105
105
0
0
0
11
127
0
0
0
15
58
45
0
0
47
0
59
0
0
0
0
0
0
0
175
0
0
0
0
0
0
0
0
123
75
0
37
20
0
0
0
25
29
0
0
50
0
26
62
31
0
0
35
16
0
0
0
23
83
0
49
0
0
0
0
0
0
0
5
0
0
41
0
0
0
132
83
0
0
64
58
0
0
0
58
63
169
0
0
121
211
0
90
0
1
161
111
28
0
0
0
0
35
0
15
3
4
32
0
19
0
0
0
0
16
0
8
0
0
0
0
0
0
39
10
34
0
0
18
0
0
6
3
0
0
0
0
54
11
0
7
12
28
32
28
0
0
0
20
0
0
0
0
12
22
47
0
0
0
0
10
0
26
0
11
0
0
32
0
22
0
11
4
14
11
0
30
0
0
0
9
0
11
0
9
0
0
13
12
0
3
0
5
0
9
8
0
39
16
1
0
34
0
0
8
1
0
14
3
1
0
36
0
16
0
6
18
22
0
5
9
0
28
10
0
23
0
0
0
18
13
10
0
4
0
0
0
0
10
0
0
10
0
10
0
0
8
0
0
42
0
11
15
13
0
7
0
6
1
0
13
0
31
0
10
0
11
0
27
0
0
0
9
0
0
8
15
0
0
0
0
29
12
13
0
8
1
0
0
15
0
0
13
0
2
0
0
0
0
7
0
2
29
119
146
0
0
0
42
0
68
0
0
2
0
19
0
20
25
51
0
0
0
44
0
39
0
29
0
54
6
0
19
0
0
32
0
2
0
0
0
0
0
0
0
0
0
3
0
8
11
0
4
0
0
0
0
24
34
25
24
17
39
0
0
0
3
4
12
0
23
0
9
0
21
0
12
33
28
28
20
9
15
0
0
0
4
0
0
15
0
0
0
115
10
0
45
47
0
0
0
0
9
0
0
20
0
60
22
39
0
5
2
0
28
47
3
21
0
6
43
0
1
14
0
0
12
2
0
31
10
0
31
0
6
23
7
0
0
27
9
9
4
0
53
43
0
0
0
16
0
23
15
0
0
0
0
0
31
11
15
17
1
30
5
30
0
7
0
10
0
11
38
0
0
0
12
39
0
28
2
0
19
23
0
0
12
0
12
24
20
7
0
16
0
0
0
9
0
0
13
8
5
9
4
0
40
81
0
0
11
66
48
0
0
50
9
130
0
0
14
0
17
36
0
0
0
0
2
3
0
6
0
0
0
74
125
0
0
36
4
0
0
10
0
86
37
0
0
0
17
11
5
29
0
0
0
112
26
0
15
0
34
0
0
51
27
0
0
0
99
0
0
67
72
52
14
44
0
0
31
44
85
49
6
0
0
0
178
67
0
0
49
63
66
0
0
49
156
140
0
10
243
0
65
13
0
0
35
135
37
18
0
0
47
0
0
10
0
0
0
66
11
0
5
0
0
0
53
20
11
0
0
0
0
0
2
0
0
0
8
0
11
0
0
21
48
11
0
35
0
0
38
0
0
36
0
3
3
1
24
0
33
0
4
29
81
47
1
0
0
0
0
30
57
0
0
0
56
20
26
37
0
11
0
14
0
0
0
0
19
18
0
2
5
9
5
7
9
0
0
0
0
0
24
6
0
37
0
1
0
1
13
48
0
18
0
27
0
0
0
18
0
22
0
22
0
0
0
0
0
27
12
24
0
0
16
0
5
1
0
3
14
8
3
0
0
14
0
0
41
0
0
4
0
0
12
0
17
28
0
19
0
0
0
11
2
0
0
28
10
0
0
0
40
0
14
0
3
0
22
2
16
0
0
0
18
20
11
9
19
0
11
0
10
0
0
15
6
4
6
1
0
2
11
0
0
19
7
8
2
10
0
13
20
76
147
0
0
20
26
0
25
0
84
0
0
15
0
0
6
9
24
7
10
23
0
22
48
0
0
0
25
0
0
12
0
0
0
0
21
17
0
0
23
1
0
0
4
0
0
14
0
43
0
0
0
0
48
58
12
26
33
25
4
12
0
6
0
0
22
21
8
4
23
0
7
3
0
1
0
14
0
8
0
0
16
0
30
0
0
0
0
0
2
37
0
0
16
9
0
11
42
0
16
30
12
5
23
11
0
0
7
0
0
0
1
0
0
18
0
0
0
7
30
1
0
21
5
8
0
12
0
0
15
0
49
0
22
0
0
1
0
0
5
11
51
50
31
9
0
0
0
28
0
46
26
0
23
9
45
45
0
0
0
0
16
3
0
5
0
6
38
62
12
0
0
0
37
0
0
46
36
5
0
14
0
14
5
0
0
0
0
0
0
0
0
0
2
13
0
0
15
0
14
9
0
4
10
80
0
0
0
63
122
0
0
0
0
48
0
0
0
28
79
4
0
0
0
0
20
0
0
0
0
0
123
30
0
8
0
0
49
10
0
0
0
38
11
0
0
0
0
0
48
101
23
18
0
0
14
0
0
0
50
12
0
49
10
0
0
0
16
0
0
0
0
6
37
34
0
0
0
0
26
0
20
0
0
0
25
96
88
16
0
42
112
59
0
0
0
174
86
0
0
99
0
0
99
0
0
129
151
48
58
0
0
0
0
21
0
23
54
0
0
0
79
9
0
7
0
0
0
0
0
23
36
8
10
0
13
1
28
9
0
0
0
0
0
0
17
0
0
0
21
7
11
3
0
39
0
14
11
0
17
4
0
29
79
0
0
0
0
0
0
28
7
0
8
17
19
0
0
0
0
0
0
64
0
2
0
4
0
0
7
12
0
0
13
0
8
10
0
0
14
6
23
5
0
20
0
0
0
5
1
0
0
5
0
0
0
19
0
16
0
21
0
15
23
0
0
2
0
4
0
0
19
1
0
15
2
0
11
0
0
21
0
1
0
22
0
0
35
10
9
24
14
10
1
11
0
0
0
13
1
29
0
20
0
13
0
0
0
14
11
2
0
0
0
0
0
20
0
11
0
11
0
0
14
0
3
0
8
0
16
0
4
0
3
0
3
0
0
15
0
1
0
20
0
0
0
0
0
0
7
0
0
43
169
0
0
0
0
18
12
0
0
0
0
8
10
60
0
0
20
0
0
11
0
26
0
1
17
17
0
0
0
0
0
10
23
0
46
0
0
23
10
29
0
2
0
0
0
0
0
89
0
0
0
43
28
41
12
0
8
14
11
1
0
0
0
24
4
7
3
5
11
1
16
24
27
16
9
19
0
4
36
0
0
2
0
0
0
0
5
0
5
25
0
13
2
0
12
0
0
0
40
32
36
55
0
52
0
63
18
20
8
0
14
0
0
22
0
0
7
23
18
0
12
25
0
29
12
0
0
7
23
0
8
0
30
0
0
16
1
0
0
0
50
48
0
0
0
0
0
11
6
0
0
0
0
32
8
20
33
20
0
11
5
9
18
3
0
13
50
31
6
0
0
0
0
19
0
0
0
0
21
16
18
0
11
5
18
8
0
15
16
17
0
0
0
0
39
10
1
0
1
15
0
30
25
80
0
0
0
70
139
0
0
0
0
11
0
0
0
25
23
0
38
12
40
8
89
0
0
0
109
0
17
0
44
0
0
17
82
42
0
33
8
45
51
23
0
1
0
0
4
0
0
1
0
9
23
19
39
5
0
0
0
31
14
81
54
3
19
7
0
40
0
12
44
17
0
77
0
20
31
0
0
0
0
0
0
0
57
66
0
0
112
156
56
0
0
0
77
84
0
0
68
0
64
0
0
0
0
0
92
0
7
0
0
0
13
18
0
0
0
0
0
8
29
114
80
87
104
10
32
0
59
0
0
0
22
0
0
0
0
0
9
8
46
0
32
0
17
36
0
27
0
56
0
0
10
7
8
0
0
39
55
80
0
0
0
0
0
0
0
3
17
0
54
6
27
0
0
0
36
20
0
0
0
0
17
3
2
0
8
48
0
32
7
0
0
4
12
3
0
0
5
7
0
4
9
14
0
4
28
0
0
18
20
20
23
9
0
0
15
2
0
0
24
0
46
42
0
0
9
0
1
0
18
0
0
0
2
4
5
0
0
0
0
10
14
0
23
4
0
0
0
0
25
6
21
0
0
7
0
13
19
10
0
0
2
34
0
0
0
0
13
47
0
0
0
0
0
0
0
0
0
8
0
5
8
0
21
3
15
6
7
0
12
0
0
0
0
0
0
13
9
0
0
0
2
2
7
4
3
0
5
29
137
111
0
0
2
1
11
0
0
54
7
16
0
4
7
23
20
3
0
7
0
26
3
0
0
0
0
2
23
51
0
0
5
0
0
17
13
0
0
0
10
0
0
0
46
0
0
0
0
0
15
14
28
21
25
2
13
0
39
21
0
0
0
25
3
18
0
0
32
0
2
2
13
15
21
0
29
0
0
14
0
58
7
0
0
0
59
20
0
0
0
52
0
21
29
13
0
0
4
0
0
0
0
6
0
0
9
0
23
0
0
33
64
0
0
61
0
0
0
0
0
12
0
47
0
30
11
0
21
0
27
0
52
0
25
23
2
0
0
0
53
46
0
0
47
1
32
14
8
0
25
0
11
0
0
9
34
0
14
0
10
5
17
0
25
47
19
0
0
0
0
0
0
5
0
17
16
37
3
13
0
0
31
0
0
9
0
17
0
1
0
12
21
0
2
17
0
28
19
8
5
24
46
27
0
11
0
71
192
0
0
7
11
0
106
0
7
0
46
0
2
0
0
0
0
0
27
62
10
0
0
0
3
0
0
0
60
0
0
0
0
0
0
24
6
0
0
0
72
5
68
0
23
25
0
2
0
0
25
76
24
0
0
89
0
1
0
0
13
0
0
0
0
40
82
9
0
0
3
15
0
0
19
9
0
0
0
102
75
0
0
81
154
56
6
0
27
132
75
0
16
33
0
148
48
109
33
0
0
0
0
0
102
22
21
26
5
0
0
0
45
0
0
0
0
0
0
0
0
0
43
0
0
0
0
0
28
39
0
14
53
45
0
0
10
0
0
22
4
5
11
0
0
13
3
0
0
87
2
58
24
17
0
0
0
0
0
0
0
5
7
0
49
0
0
8
0
1
0
17
0
8
43
0
0
0
0
0
0
2
0
0
0
0
1
0
0
0
10
8
11
9
0
0
30
0
0
0
22
10
0
10
0
0
0
9
0
0
0
7
16
0
10
0
0
0
0
0
0
4
2
0
12
1
0
13
0
0
0
22
23
10
0
12
0
12
0
5
0
1
18
27
10
0
1
0
22
0
0
7
0
0
7
12
9
0
0
19
0
0
6
3
0
4
7
21
4
2
0
2
0
4
0
0
8
0
0
0
0
12
0
0
2
3
3
16
0
0
5
0
6
21
7
14
6
9
0
0
0
7
0
10
70
146
0
0
2
16
7
24
0
16
13
0
0
0
0
13
0
17
44
0
16
0
0
0
10
0
16
32
0
18
0
0
18
0
0
23
27
6
26
0
0
0
0
0
0
1
3
0
0
26
47
65
15
12
0
7
2
37
0
0
0
0
0
33
13
9
19
0
25
9
24
16
0
43
19
43
31
0
0
0
0
0
0
25
0
7
0
25
0
36
8
26
28
0
0
0
0
14
19
0
41
0
51
19
33
18
18
0
4
0
5
0
0
0
59
0
0
68
0
18
0
35
16
0
0
0
9
0
12
8
28
0
0
0
37
0
0
43
0
0
57
59
0
60
49
9
4
4
2
0
0
0
0
0
13
31
0
36
35
0
15
0
12
0
19
22
8
0
20
0
0
0
11
0
29
1
0
3
0
14
0
2
9
0
28
0
10
16
0
6
0
0
0
0
23
6
0
0
0
0
0
38
54
0
0
63
0
115
140
0
0
23
0
1
60
0
0
0
133
0
0
57
0
0
0
48
53
0
11
30
0
0
18
0
4
19
27
0
0
31
0
0
0
91
54
0
0
0
59
0
17
0
52
5
0
0
13
0
0
43
0
2
0
0
0
0
0
0
70
0
0
2
0
43
125
0
0
0
0
145
0
0
0
0
21
31
0
0
43
28
80
20
48
42
80
0
4
20
13
0
0
23
56
152
0
217
213
0
36
0
0
0
0
0
21
37
0
0
0
19
0
14
0
0
0
0
21
0
38
9
0
0
18
0
54
0
0
0
0
0
20
2
0
1
0
20
0
0
0
9
5
0
0
16
0
0
0
0
21
36
55
0
0
0
0
0
0
36
56
0
45
31
10
32
0
0
11
0
23
0
0
0
6
0
0
8
5
12
0
0
0
8
22
4
20
14
0
14
0
37
0
0
32
0
42
0
5
3
6
25
0
0
5
0
0
14
0
4
4
16
0
0
17
0
0
5
24
2
0
0
9
59
0
0
20
7
24
0
0
22
0
0
0
3
0
0
0
0
0
1
0
0
0
2
0
0
20
19
30
0
2
15
0
0
0
0
12
18
2
10
26
24
14
0
0
0
24
12
23
11
17
13
0
1
21
5
8
0
7
0
17
4
0
10
0
6
4
0
0
6
0
0
0
15
0
0
0
15
0
19
0
3
42
203
0
0
0
0
0
2
6
27
12
0
23
60
0
0
0
2
0
10
21
0
26
21
1
19
7
16
0
53
0
0
0
23
17
0
4
15
0
64
0
0
0
102
0
0
0
0
62
24
69
32
9
22
0
79
23
32
0
0
0
0
13
20
2
14
10
13
21
0
18
7
40
21
13
10
0
11
0
63
0
14
1
54
0
54
0
18
5
27
0
0
0
12
0
0
0
15
4
0
52
19
6
2
0
0
0
5
0
0
10
2
23
2
36
0
0
0
0
35
0
1
20
8
69
2
17
15
24
14
0
0
5
0
85
0
0
0
0
0
61
73
0
25
19
0
26
0
41
4
0
0
0
0
0
0
0
24
0
4
9
0
40
0
12
30
13
5
36
22
0
0
54
0
5
0
0
16
0
36
0
0
21
4
12
0
15
4
0
0
0
2
1
0
24
0
33
0
1
21
14
1
51
0
44
0
0
98
104
44
0
21
0
50
0
0
65
11
27
0
0
34
0
80
113
54
39
0
0
0
3
0
16
0
0
62
45
12
0
0
51
26
0
36
37
0
0
0
38
0
0
0
9
100
0
0
173
0
43
21
0
2
2
0
13
0
39
0
53
39
2
0
0
0
0
30
19
0
0
222
14
0
78
14
17
39
0
0
0
0
15
83
0
0
85
28
0
0
0
0
0
0
124
0
0
0
121
42
174
0
0
3
0
8
38
0
4
84
0
62
0
30
0
50
0
1
0
54
0
0
0
2
0
45
0
0
0
0
0
40
44
21
0
57
0
32
0
37
42
0
20
14
0
0
40
0
34
6
80
64
17
0
0
13
0
0
0
0
4
14
6
16
12
13
0
9
31
0
9
16
0
0
0
12
0
0
19
0
1
11
26
23
0
0
26
0
0
5
0
13
6
10
0
0
24
0
0
0
0
0
13
1
59
0
9
20
0
0
10
0
29
0
14
12
0
0
24
0
17
0
0
4
27
0
25
0
37
0
0
0
0
9
9
0
20
21
0
10
0
0
0
0
3
33
32
8
0
0
2
0
0
10
0
0
24
0
19
0
0
0
24
0
0
0
15
0
16
0
6
0
0
0
12
0
5
0
3
0
22
0
9
0
18
8
2
4
5
7
11
0
0
21
0
0
7
8
10
0
0
4
3
22
24
122
10
0
0
0
0
0
18
0
3
31
0
0
7
27
0
67
0
10
21
0
44
25
0
0
0
5
0
0
36
0
65
0
0
0
0
0
0
23
4
34
0
0
0
0
0
0
35
29
82
18
25
4
8
37
22
23
0
0
0
22
37
15
23
7
7
16
2
2
38
26
47
2
49
0
0
19
0
16
0
0
33
0
0
25
0
32
0
0
19
42
0
0
27
0
7
0
0
6
28
27
10
106
0
12
0
55
0
29
0
22
0
2
20
0
27
12
0
14
0
0
6
15
0
0
0
0
0
20
0
0
0
0
0
8
10
0
0
28
63
90
24
41
0
11
36
0
0
26
7
29
0
26
0
3
19
33
0
22
27
0
13
17
0
20
0
0
0
1
0
0
0
0
19
0
44
0
12
20
0
11
1
13
31
0
0
0
9
14
0
20
0
33
0
36
0
0
0
19
0
37
27
0
50
0
0
119
88
3
41
50
0
7
15
0
32
7
2
0
7
0
2
12
126
0
6
0
38
21
47
0
0
0
29
0
0
76
8
53
0
0
0
43
0
0
1
29
61
0
0
2
6
54
0
0
0
0
49
57
0
0
0
4
4
3
22
0
0
20
0
0
31
0
0
0
85
0
0
78
55
0
0
0
2
0
8
0
0
0
0
42
191
0
0
63
21
79
50
0
0
78
34
23
1
0
0
34
183
0
0
24
17
19
40
21
0
7
0
0
0
12
0
0
0
25
1
0
0
0
81
49
41
0
17
0
0
0
25
55
7
0
0
32
15
0
12
3
6
0
46
0
0
0
42
0
0
116
41
0
0
0
0
0
0
0
3
0
34
29
5
0
27
0
0
0
10
0
5
0
0
0
6
16
0
12
11
1
0
0
5
0
11
0
2
0
12
0
8
7
0
0
0
0
28
0
5
26
18
7
0
0
29
0
4
9
33
0
35
0
0
0
0
29
0
8
0
26
0
14
4
0
0
0
17
0
0
23
0
18
5
0
0
0
7
0
0
1
17
0
0
4
0
0
0
0
0
20
0
0
0
7
1
0
0
15
0
0
11
1
0
0
21
0
5
10
19
0
0
2
0
0
1
0
5
8
22
0
0
0
0
0
3
0
0
0
0
9
3
15
0
0
4
0
0
0
13
0
3
0
0
6
23
100
120
0
0
0
46
0
32
0
0
17
0
11
0
43
0
43
0
13
0
0
0
0
43
2
19
51
14
34
0
0
11
0
0
93
22
0
0
3
2
0
1
16
4
0
0
0
0
60
61
40
27
6
17
26
14
0
0
0
0
0
26
3
5
0
6
18
22
34
9
22
60
39
13
0
0
0
0
0
28
0
0
0
0
9
0
25
22
26
0
6
0
1
0
0
21
0
23
0
0
68
0
0
0
0
0
0
0
24
18
26
0
0
0
0
0
0
1
0
0
0
31
56
0
8
0
0
20
26
9
0
53
46
15
8
0
42
0
0
60
95
31
9
23
0
0
0
11
4
0
0
8
19
0
0
13
11
0
9
4
0
10
0
37
0
20
0
20
32
0
0
10
0
10
2
34
0
3
12
17
7
9
0
16
0
0
0
0
0
0
0
0
4
17
15
19
0
12
5
17
62
9
0
144
0
0
63
28
0
0
100
0
0
0
0
34
20
0
49
89
46
8
13
0
0
62
0
0
26
0
0
0
41
0
5
0
14
0
25
0
66
0
26
39
0
43
55
44
0
0
10
0
84
0
0
58
0
10
0
0
0
0
24
3
8
43
0
0
39
25
33
0
0
0
20
123
67
0
0
113
0
0
0
10
0
30
23
0
73
0
0
116
130
12
0
118
150
114
0
0
0
56
0
3
58
13
213
202
0
0
0
30
0
0
0
31
5
0
0
3
30
45
11
0
32
16
15
0
0
0
0
0
0
0
0
0
11
24
29
0
0
0
0
4
0
33
0
26
0
13
0
17
0
23
39
40
93
0
0
0
0
133
0
0
53
0
0
34
0
40
10
5
25
0
24
66
0
18
0
0
0
0
10
0
30
0
7
16
0
49
0
9
0
8
24
12
0
10
0
0
0
0
26
8
0
5
0
0
0
0
2
2
0
0
4
22
0
0
0
0
22
0
43
8
0
0
12
0
0
28
0
30
8
0
0
7
40
0
0
6
0
0
10
25
22
0
18
5
0
0
0
11
7
9
14
0
18
0
19
0
0
6
18
10
0
0
7
27
24
2
0
7
7
0
0
26
9
13
19
14
1
0
2
0
0
5
0
16
0
0
8
7
6
0
17
0
3
0
10
0
1
0
14
0
0
10
15
0
8
7
1
16
78
191
0
0
9
0
0
15
29
19
23
11
0
0
0
0
20
0
17
24
41
0
6
3
0
0
22
0
1
0
0
54
5
0
0
0
20
9
0
32
0
35
0
0
24
0
0
0
53
30
31
0
21
4
21
16
0
0
0
3
8
8
0
26
17
8
24
0
20
57
2
7
4
0
0
0
65
0
0
13
42
0
75
0
20
0
22
0
0
0
6
0
0
20
0
35
11
15
0
19
0
0
0
25
0
22
10
28
0
0
1
29
0
19
12
4
0
4
11
61
0
10
17
11
31
27
28
8
0
0
0
25
0
5
0
0
0
0
0
66
89
0
0
42
25
32
13
0
72
24
0
0
23
0
0
8
18
0
14
2
1
14
0
0
10
31
29
0
35
0
0
37
40
0
0
16
20
7
0
0
0
0
0
3
0
24
14
0
4
0
14
0
0
10
14
8
0
0
0
2
59
0
0
44
0
4
48
89
0
30
131
0
0
15
0
0
54
0
0
76
0
0
0
1
0
0
0
37
30
7
28
20
0
0
0
0
0
0
18
0
3
19
0
3
0
83
34
6
0
0
8
29
102
0
10
102
0
23
50
86
0
0
4
21
0
0
0
0
3
18
10
20
0
0
0
6
125
45
0
57
0
0
46
0
0
0
0
0
64
0
0
0
0
121
93
70
82
105
66
64
0
0
0
4
165
170
186
0
0
0
28
47
0
50
0
38
0
0
7
0
0
0
0
42
1
0
0
33
0
0
0
40
10
8
0
0
0
43
8
0
0
0
3
26
0
41
0
0
0
85
0
0
0
41
92
46
42
0
0
0
0
0
110
9
20
0
40
15
35
0
0
0
18
0
20
0
0
0
26
0
19
10
9
10
0
0
23
0
0
11
0
16
0
0
0
16
0
20
9
3
16
0
19
0
18
3
0
0
19
0
12
6
15
0
0
0
0
17
8
0
31
0
34
0
6
8
0
0
0
0
0
0
0
0
4
6
10
0
14
0
38
0
12
0
0
0
35
0
13
0
18
0
0
0
0
0
23
1
0
0
3
11
0
0
6
20
7
14
0
17
0
0
0
8
0
0
0
0
6
6
13
0
28
0
17
32
7
0
12
14
0
2
0
11
14
0
0
0
15
0
16
3
0
8
0
0
0
12
5
0
7
0
26
131
0
0
0
11
4
30
0
12
17
12
0
8
19
0
4
0
0
0
0
0
85
0
0
0
11
18
0
58
13
0
49
24
0
13
23
20
0
0
0
14
0
0
0
0
0
22
47
29
38
4
7
17
5
16
0
0
2
0
14
16
0
0
0
9
28
5
29
73
43
8
0
0
0
0
0
0
0
5
0
12
0
0
49
62
0
0
14
0
0
13
11
0
32
0
0
27
20
51
56
23
3
0
0
40
0
20
0
15
5
0
0
20
0
22
0
24
0
19
18
54
0
0
0
14
0
0
0
18
0
57
0
0
3
0
15
0
51
67
84
0
0
0
0
0
0
0
21
0
0
0
30
19
0
34
11
4
0
28
5
3
8
22
21
19
8
0
27
0
0
0
34
0
0
0
9
9
0
13
25
7
20
17
6
0
0
12
8
4
0
0
11
0
9
1
0
4
0
0
52
3
0
37
0
15
42
50
0
0
46
0
0
0
0
35
33
22
0
0
0
0
0
0
35
60
0
0
0
16
0
0
53
32
0
95
60
0
18
0
21
0
0
0
0
61
0
0
0
13
0
0
75
0
0
63
0
0
1
0
4
43
0
0
20
0
51
0
0
12
60
46
0
22
0
0
3
104
0
71
7
15
50
2
39
82
23
13
0
0
28
47
0
0
0
0
96
0
116
178
76
0
0
143
0
0
0
0
0
12
27
0
0
0
0
0
0
6
8
0
12
33
41
0
0
0
1
0
0
5
0
55
0
0
0
0
6
0
0
0
0
0
91
18
0
15
28
55
0
6
0
42
13
94
98
0
0
0
0
0
0
0
0
0
18
9
39
19
0
0
9
1
29
7
5
0
16
0
0
17
0
0
15
3
0
0
14
5
0
5
0
0
0
35
4
38
0
67
0
37
17
1
18
0
0
5
0
10
15
11
0
0
31
0
23
14
0
0
34
0
19
3
0
0
1
9
0
2
14
0
15
10
0
0
0
6
0
5
0
6
0
0
11
1
15
23
0
22
0
0
2
10
20
0
27
6
0
0
21
0
7
0
6
19
2
0
0
0
0
0
0
0
0
0
12
0
0
24
0
0
21
0
3
0
0
0
12
0
0
14
0
0
0
7
8
0
16
0
0
0
0
14
0
8
14
1
0
0
0
12
0
0
28
123
73
0
0
0
0
8
0
0
11
0
24
0
0
6
11
50
21
42
25
0
7
0
61
0
27
0
0
0
0
1
3
0
14
0
51
0
0
12
0
0
58
8
62
0
0
8
49
18
19
0
0
6
19
21
0
23
10
1
0
24
48
11
21
24
64
28
0
52
0
0
0
0
0
13
5
0
5
0
0
20
7
0
49
36
0
0
0
0
21
0
5
0
4
42
2
14
5
0
0
0
0
0
0
0
0
0
8
0
0
0
13
7
19
22
0
0
0
12
0
52
6
0
0
15
0
0
8
30
37
29
56
0
0
0
0
0
31
66
86
0
16
31
6
0
0
15
0
0
23
0
0
0
0
21
0
14
0
0
0
13
11
10
4
14
0
19
37
0
0
0
19
0
5
1
0
18
7
3
0
0
0
16
0
0
0
25
0
5
0
0
0
14
5
13
0
4
19
15
51
34
0
77
0
13
38
74
0
21
72
0
54
0
17
63
0
0
0
38
0
0
35
0
0
0
0
32
0
53
0
0
9
0
0
45
14
0
1
0
6
0
11
11
0
12
0
7
0
5
80
9
135
0
0
29
12
0
24
0
18
21
0
0
6
0
22
0
0
23
0
0
51
1
0
0
0
5
5
30
63
0
2
0
0
28
0
110
0
0
3
30
96
0
0
0
160
0
0
115
133
5
0
118
0
0
0
0
4
0
13
0
47
54
0
9
59
53
0
7
0
45
0
0
1
0
0
16
0
51
19
35
0
9
0
43
11
7
50
57
0
0
36
0
14
0
45
8
3
31
0
40
65
29
0
0
0
0
0
0
0
45
0
40
0
8
34
13
19
5
0
4
0
0
8
0
10
0
0
33
0
0
0
0
12
6
0
13
25
0
25
1
16
0
0
6
0
0
0
0
0
0
0
22
0
40
0
0
0
0
0
0
3
0
24
7
0
0
0
0
3
20
0
5
0
0
22
0
0
0
4
15
8
0
31
0
5
36
4
15
0
0
0
9
0
5
0
5
0
8
9
21
21
0
0
0
14
0
20
0
13
14
0
0
0
20
0
18
0
0
15
0
18
16
14
0
1
51
1
15
0
0
0
12
0
0
0
0
10
22
0
13
0
2
0
0
24
0
4
0
0
0
4
0
0
13
0
0
0
0
12
15
11
82
120
0
0
12
0
30
10
44
27
40
0
13
0
0
0
0
0
3
0
51
2
0
31
0
0
29
9
0
11
38
35
2
0
2
0
0
0
0
0
2
0
0
0
0
0
0
7
7
8
29
24
9
4
0
16
8
5
12
0
10
41
0
41
37
0
41
7
3
0
0
0
0
0
0
0
0
0
0
10
15
46
0
45
0
0
8
0
23
0
0
6
0
0
31
12
42
0
17
83
0
0
0
0
5
27
39
35
0
0
11
0
0
0
0
34
10
28
19
29
0
0
46
45
0
0
4
0
0
32
0
3
0
0
9
10
0
4
64
86
0
46
0
0
38
20
0
0
11
0
0
36
27
0
42
13
0
0
10
0
8
6
6
23
56
0
15
16
0
0
53
0
0
4
30
5
0
0
35
22
0
0
23
0
0
5
22
11
0
22
0
22
6
8
0
7
12
3
0
80
66
0
0
29
54
13
46
0
45
48
0
0
0
0
54
4
0
0
0
0
19
0
8
73
0
0
25
0
16
0
24
42
0
0
50
2
0
0
77
1
42
36
0
0
0
0
0
0
0
0
0
29
0
4
49
0
0
57
0
46
130
0
19
12
33
9
6
0
0
91
0
106
38
0
0
0
0
0
16
156
0
0
72
0
0
0
192
88
0
0
29
66
98
0
0
230
0
0
0
18
78
77
66
103
0
0
0
0
0
49
0
0
0
25
0
0
57
0
1
0
34
1
23
14
0
0
0
0
0
0
14
5
0
3
68
17
0
0
0
8
4
14
0
0
16
11
0
0
22
59
140
60
0
0
0
0
0
0
13
24
60
13
0
18
0
3
0
0
37
0
28
13
17
0
1
23
6
0
40
10
0
49
8
0
24
0
30
8
0
2
0
22
0
14
26
0
0
4
0
9
0
0
11
0
31
7
23
15
7
0
19
28
0
43
0
0
10
6
0
12
0
0
14
0
0
0
14
0
17
0
21
0
0
8
3
0
0
0
29
0
8
0
0
20
5
0
0
0
3
0
0
10
0
0
19
0
0
27
0
0
0
12
27
0
28
11
28
0
6
5
1
0
8
43
0
0
7
0
4
0
0
30
4
0
28
0
0
1
3
0
9
3
9
18
3
0
0
10
15
7
8
16
0
0
14
0
0
10
0
0
6
23
32
170
0
0
0
8
0
0
0
0
0
0
21
33
31
0
27
0
9
0
13
0
12
13
0
0
21
0
0
0
5
0
0
9
12
30
0
5
17
26
0
11
0
0
0
0
0
0
25
35
9
0
0
0
0
0
15
0
27
3
0
55
0
15
8
34
32
0
35
0
3
46
0
2
8
31
0
6
19
25
0
44
0
0
3
0
31
0
68
0
71
3
0
0
0
0
6
0
0
25
6
35
0
0
31
0
0
0
23
32
1
0
0
0
16
0
0
8
38
0
11
0
0
0
26
0
0
8
0
49
0
42
0
0
0
45
28
19
70
82
0
11
0
17
0
0
18
0
0
10
0
33
0
0
12
26
15
17
1
11
10
7
24
3
23
7
0
20
28
0
0
25
0
3
0
0
9
11
37
3
0
0
19
9
9
0
0
0
0
3
0
0
3
12
0
0
0
6
28
24
108
0
0
49
63
3
26
0
39
1
0
0
0
132
0
0
0
21
85
0
17
0
36
0
0
0
0
24
0
0
0
10
0
0
55
20
51
0
11
0
22
0
2
25
24
38
0
0
131
0
0
33
0
0
0
4
0
52
1
51
102
0
0
30
36
56
0
0
0
40
0
52
113
0
0
0
0
1
0
170
56
0
63
0
0
0
51
170
0
0
0
0
141
0
0
206
0
0
13
18
58
230
255
119
0
0
24
26
0
0
3
0
36
21
5
27
13
0
0
0
4
10
8
0
16
21
6
47
0
0
0
0
0
21
1
0
0
0
18
43
2
0
32
3
40
21
33
11
95
103
29
0
0
0
2
0
0
0
0
0
38
0
27
26
22
18
0
0
0
0
0
9
6
0
0
21
0
5
0
0
0
20
0
2
3
1
0
0
0
0
2
21
0
7
28
0
0
0
11
0
0
0
17
6
0
15
0
7
0
0
0
3
0
0
10
0
42
0
16
0
8
23
0
24
0
4
1
12
0
0
28
0
0
18
13
0
0
26
11
16
0
0
19
1
0
29
20
3
0
14
0
4
0
1
6
6
3
0
0
29
4
3
0
7
0
0
30
0
0
0
0
0
0
28
0
0
8
0
0
0
0
0
13
0
0
0
0
5
0
0
0
0
1
0
0
0
1
9
0
7
15
0
0
14
5
5
0
0
19
0
1
0
25
120
58
0
0
8
0
9
29
0
20
0
0
7
0
29
0
0
3
0
62
0
0
0
37
0
32
16
0
68
0
7
21
0
0
71
0
6
2
0
0
14
68
38
13
0
0
0
16
21
21
14
11
9
6
18
0
3
23
0
0
10
0
18
19
37
0
0
0
3
0
0
0
0
0
2
0
18
0
0
19
46
0
0
0
0
0
0
14
0
3
0
56
0
0
20
26
0
0
36
0
6
21
0
66
0
8
0
22
0
0
0
37
0
16
35
17
42
8
0
0
0
0
1
53
0
44
10
0
0
0
0
0
21
0
2
41
28
69
73
0
27
19
30
0
24
0
0
22
38
0
26
0
0
3
22
24
0
9
16
9
0
0
10
0
19
7
34
22
0
0
29
0
2
9
0
0
0
0
18
0
18
0
0
2
0
23
4
6
19
4
3
12
11
0
14
20
3
0
20
142
0
0
136
45
17
0
0
5
0
0
0
0
46
0
16
4
24
0
0
0
0
29
0
46
0
44
30
9
0
0
73
0
0
54
0
0
0
0
33
28
0
0
0
0
0
0
0
90
0
0
140
31
0
15
0
0
62
67
5
116
0
0
3
0
5
0
0
0
0
28
26
191
45
0
0
0
0
0
38
207
0
0
52
0
0
50
170
118
0
0
0
59
73
18
174
0
0
0
19
0
0
34
42
0
0
0
0
47
0
0
22
0
13
0
0
0
36
0
0
16
0
8
0
0
63
0
0
136
0
0
4
50
32
32
6
0
54
19
5
9
0
13
0
50
40
108
99
83
0
0
0
5
0
0
0
19
49
13
36
7
0
2
15
28
0
0
35
15
0
0
0
20
0
2
12
11
0
1
0
0
46
15
0
0
0
0
41
0
14
0
10
5
0
0
2
4
12
0
0
0
8
0
25
29
17
4
37
0
41
0
13
7
19
18
0
5
0
0
0
0
0
8
49
0
39
0
0
13
5
23
0
0
34
0
14
0
0
0
0
0
0
15
9
0
13
0
0
0
9
0
0
0
0
0
8
10
0
0
5
0
1
11
5
8
0
0
0
20
23
0
29
0
0
0
0
3
0
0
23
12
0
5
6
6
6
9
0
0
10
9
0
2
0
0
2
0
12
0
0
0
23
0
14
0
0
0
0
9
0
21
0
18
98
104
0
0
20
0
22
0
0
33
0
0
16
0
9
0
6
48
0
0
0
13
0
56
9
16
0
0
0
0
0
0
2
0
18
2
0
21
10
0
24
0
0
0
0
0
0
38
21
40
4
12
0
1
36
6
19
9
39
41
0
0
52
20
8
0
0
0
24
0
5
9
1
0
70
0
14
0
4
0
23
0
8
0
19
14
6
0
0
12
22
21
41
0
0
18
36
0
34
0
58
0
0
2
0
0
0
0
0
12
19
79
0
21
19
0
3
0
0
22
0
0
6
13
11
0
0
2
56
10
16
0
11
0
52
0
0
59
68
0
2
0
22
0
47
1
17
0
0
0
25
0
0
6
15
10
0
0
0
0
0
21
28
0
4
0
9
0
0
0
0
7
0
34
45
9
5
27
0
0
44
0
12
17
0
22
0
0
2
0
22
0
8
19
0
0
11
8
31
98
0
0
122
71
0
2
0
47
0
0
85
0
73
32
0
0
0
10
32
0
0
54
0
1
4
64
0
29
0
37
0
6
10
78
0
0
0
0
10
0
67
0
0
12
116
0
55
56
0
23
2
0
0
0
22
0
24
30
0
40
0
0
0
0
67
66
0
0
0
139
0
8
152
47
0
0
3
0
0
255
0
0
3
129
0
0
68
57
32
0
35
0
88
80
156
39
0
0
68
0
0
0
89
135
0
0
16
0
0
1
14
0
0
16
8
46
0
1
20
0
25
0
0
0
0
9
45
0
0
19
37
0
14
0
0
0
76
0
0
47
25
31
34
140
87
9
0
0
0
56
0
0
0
0
38
60
31
16
0
19
31
0
0
11
0
52
0
0
22
0
36
0
0
8
0
18
0
30
0
0
0
10
0
46
20
0
0
0
0
3
3
0
0
2
0
10
0
3
18
5
0
0
15
0
0
0
0
0
12
0
0
0
0
0
0
0
33
0
0
27
0
0
0
0
0
0
0
42
0
0
0
17
16
1
0
0
0
19
0
2
17
0
1
0
8
0
0
15
0
19
12
5
0
0
0
49
0
10
1
0
9
1
7
0
22
0
12
21
0
7
9
0
0
6
3
20
0
19
0
3
0
32
0
10
0
0
8
17
0
0
13
0
15
11
8
21
0
2
1
0
0
0
6
5
1
0
0
7
11
0
0
19
55
170
0
0
0
12
5
28
52
0
0
0
9
0
17
0
0
0
31
0
36
0
0
0
0
51
0
10
21
51
50
0
18
0
15
0
0
0
42
0
43
0
0
26
0
14
0
0
11
21
22
14
15
6
29
9
25
21
0
40
1
12
53
0
0
13
29
0
19
0
0
0
0
31
0
0
41
61
13
10
12
0
0
0
0
5
1
0
1
10
1
0
32
0
52
3
10
3
0
0
15
0
9
0
17
37
0
24
27
0
2
0
0
0
27
1
23
0
14
0
0
0
53
0
17
0
11
2
5
0
0
20
23
0
0
0
0
60
63
0
31
59
0
0
36
4
35
0
10
0
40
0
4
5
36
20
0
45
2
6
0
13
16
10
9
29
0
52
0
0
6
4
0
3
0
0
27
12
0
37
21
0
8
0
0
5
0
2
8
0
0
0
8
17
0
15
0
0
8
94
0
0
25
95
21
79
66
62
0
0
13
0
32
29
0
1
83
39
0
0
79
6
0
0
14
53
0
0
0
43
0
0
0
0
14
0
0
25
31
0
0
0
21
0
0
0
120
76
0
121
115
0
0
0
70
0
0
0
0
64
81
0
0
3
0
0
13
0
0
0
86
0
0
103
44
24
0
141
0
127
153
0
0
71
24
0
0
74
28
0
0
0
0
57
167
97
48
0
147
0
0
0
0
181
0
0
52
42
0
80
18
0
0
51
21
0
0
10
0
0
25
0
0
0
0
12
0
0
0
0
6
0
0
0
0
0
31
1
86
24
42
145
9
23
0
0
0
0
0
0
0
0
17
24
26
15
0
0
0
1
0
0
0
33
0
14
20
4
14
0
5
0
0
4
0
36
0
21
0
31
0
25
0
0
0
0
35
0
6
13
41
0
0
1
0
0
7
4
8
12
0
0
1
0
4
52
6
0
36
33
0
13
0
20
7
2
0
0
0
3
8
20
0
0
37
0
0
25
5
0
0
0
5
16
0
23
0
5
0
0
0
5
2
0
13
0
5
20
7
47
0
0
0
19
4
18
0
22
1
0
41
26
0
0
9
0
0
6
2
30
15
0
10
0
0
6
0
18
0
0
4
0
0
9
1
15
12
9
1
0
18
0
0
7
0
0
0
5
19
1
8
2
0
6
0
10
0
3
22
1
0
8
33
149
0
0
10
0
10
0
0
0
23
26
0
46
21
0
0
0
9
7
0
1
35
19
22
27
0
24
0
23
0
1
0
21
5
0
12
0
34
0
26
0
0
0
0
7
26
17
17
5
11
26
12
13
21
20
36
11
7
0
26
0
0
0
0
5
0
0
9
0
35
16
0
87
0
0
2
21
33
0
7
0
0
17
32
0
0
39
0
67
0
4
14
12
0
0
0
0
7
0
3
0
35
7
22
0
0
1
27
0
0
27
12
23
17
14
0
0
17
28
0
0
0
45
28
0
82
22
0
0
17
0
10
62
55
19
21
56
55
0
41
7
0
0
28
0
10
4
24
0
0
0
39
0
30
8
0
0
15
8
0
17
1
14
21
0
0
22
0
18
0
13
0
21
6
0
0
0
26
0
15
0
0
0
7
9
0
18
0
0
14
0
30
0
0
8
21
18
7
98
0
0
7
100
0
0
71
29
0
0
0
4
36
0
0
0
0
48
0
33
54
76
0
0
13
54
4
65
0
23
0
46
126
0
60
0
0
0
0
0
14
0
58
0
0
0
53
0
0
255
0
0
0
0
83
0
125
102
13
11
19
33
0
0
32
0
23
0
0
2
150
43
0
0
45
94
0
0
0
0
235
0
0
5
16
124
0
0
134
11
0
0
0
0
124
72
161
0
146
82
0
0
6
66
162
0
0
0
0
0
0
10
0
3
27
17
0
0
0
0
55
0
0
0
0
8
0
0
12
0
71
14
27
0
58
46
83
44
87
54
0
0
0
0
0
0
28
12
0
38
13
36
85
48
44
0
18
27
23
24
4
0
15
32
0
2
0
5
0
34
0
11
46
0
0
0
0
35
0
0
0
0
0
37
0
0
28
0
45
0
7
19
27
16
1
10
0
0
0
0
7
6
0
28
0
0
0
0
30
0
0
0
22
0
0
0
0
20
23
0
0
8
49
6
29
0
24
2
21
19
0
1
9
7
0
36
0
0
10
49
0
0
12
14
0
0
0
0
0
0
0
0
0
0
0
1
0
17
0
0
0
2
7
6
0
17
4
0
3
0
0
0
7
0
0
35
3
0
6
4
7
0
0
15
6
0
0
0
0
0
0
21
0
27
0
0
0
0
9
0
5
0
0
2
0
0
2
0
24
0
7
20
11
116
67
0
0
6
0
59
1
10
12
8
0
0
16
0
19
11
49
59
0
26
0
0
0
6
0
6
0
2
0
9
18
1
0
15
29
37
0
22
13
0
28
4
0
36
10
12
6
34
31
15
15
31
16
24
12
16
6
9
0
0
0
0
0
0
0
29
0
0
0
0
0
33
0
45
0
0
0
0
0
35
0
0
5
0
7
23
0
9
0
0
0
1
0
97
7
0
0
0
31
0
0
0
55
0
0
18
4
0
25
12
3
6
16
0
5
0
25
10
54
10
3
52
0
0
15
12
0
15
25
0
0
5
0
58
8
58
55
0
57
14
19
38
57
17
28
45
0
0
0
0
9
0
45
0
37
11
0
11
0
1
4
9
0
0
6
0
0
0
0
0
0
9
49
4
27
7
22
0
1
0
24
0
8
0
0
0
0
0
4
1
8
0
12
8
13
0
34
97
0
0
0
124
0
28
69
0
0
0
0
0
18
0
0
0
0
78
0
0
58
38
0
11
7
52
0
0
0
44
0
0
0
56
78
17
65
0
28
0
0
26
0
0
0
71
53
0
0
255
38
0
0
0
0
0
0
0
57
0
0
129
1
0
0
43
0
53
0
0
120
80
0
0
0
49
0
0
0
0
215
194
0
0
26
49
73
0
171
0
65
0
0
0
85
74
50
0
0
34
0
0
52
0
122
0
0
0
0
0
0
0
9
15
0
0
0
25
0
0
15
23
0
29
0
0
0
0
83
15
41
0
55
5
114
88
51
0
0
0
136
0
0
11
0
0
0
0
0
57
52
21
15
0
0
0
0
2
0
0
0
0
9
0
0
0
0
16
0
0
3
1
0
0
9
16
4
0
8
24
0
0
0
22
0
0
0
0
43
0
0
0
19
0
1
34
0
8
33
3
0
0
0
12
0
10
0
27
17
0
34
0
0
12
37
0
10
0
5
11
0
6
0
26
0
4
12
0
0
0
0
0
17
13
0
3
1
0
4
12
0
0
8
0
10
25
5
0
1
35
0
36
0
33
3
0
11
0
0
23
0
11
0
0
0
0
0
0
11
18
12
0
22
13
0
14
10
0
3
0
22
0
16
0
0
0
34
0
4
3
0
8
0
0
19
0
0
0
37
0
1
19
15
16
18
3
0
3
13
0
0
3
2
90
113
0
0
0
0
0
19
7
0
0
30
0
0
4
0
0
0
0
0
15
0
0
49
7
0
2
31
25
50
0
0
0
0
0
0
32
0
0
16
22
0
0
0
0
9
14
15
45
20
27
17
15
1
34
35
50
0
0
0
0
0
0
39
0
0
28
0
0
5
41
25
37
75
23
0
58
16
0
3
0
58
0
27
18
20
0
6
41
0
35
44
0
12
35
0
2
0
0
0
60
0
0
3
3
0
11
0
0
18
22
12
6
0
27
14
0
0
0
0
0
24
0
0
28
0
0
0
0
65
8
0
2
5
18
0
54
48
0
5
35
0
0
19
18
0
0
0
0
0
0
0
0
3
0
0
0
4
10
10
22
0
22
15
0
5
0
0
0
17
23
0
0
10
0
11
0
0
0
16
13
0
0
3
7
1
15
2
6
0
2
9
0
0
8
0
0
10
86
4
0
0
110
0
84
63
0
0
8
2
0
26
84
0
0
82
1
0
0
0
25
0
0
0
68
0
55
0
0
1
0
12
0
63
1
75
6
4
0
0
20
25
0
0
108
82
0
0
255
5
0
0
0
28
0
86
0
97
9
0
81
14
0
0
0
55
32
0
0
0
218
40
0
0
0
0
29
0
0
0
255
0
0
0
57
0
0
49
0
8
62
0
31
0
144
126
0
0
0
0
29
188
0
60
44
0
18
30
0
59
71
0
39
0
0
0
0
18
0
28
61
40
0
0
12
19
11
41
20
44
77
102
14
0
0
0
0
0
21
0
0
0
0
0
0
45
54
3
8
20
13
0
0
3
19
4
23
7
32
0
5
13
7
6
15
121
5
0
11
0
17
0
49
8
19
0
0
0
0
24
0
23
0
0
4
19
0
46
0
11
3
28
0
0
1
0
0
21
0
2
4
0
1
0
14
0
0
0
0
18
12
0
14
0
0
10
0
0
0
18
4
0
0
0
0
20
13
0
36
0
0
0
0
0
0
7
0
0
5
0
1
3
0
0
15
9
0
0
51
0
0
0
5
0
5
3
22
26
0
0
0
0
12
12
4
0
16
0
0
0
20
0
8
13
0
4
0
6
10
7
0
0
1
21
18
0
0
0
12
6
0
0
12
33
0
17
0
0
0
6
0
0
0
0
0
0
0
0
2
16
2
1
75
128
0
0
0
0
0
0
47
9
35
11
0
17
0
58
0
0
11
0
0
0
0
11
6
0
14
0
0
14
0
12
38
0
30
5
0
24
6
0
0
0
9
0
0
0
29
20
33
43
28
40
39
43
27
24
41
0
0
0
0
0
35
0
0
8
20
0
1
44
0
0
0
0
0
0
10
0
17
3
0
0
0
7
21
47
0
16
66
4
0
35
0
0
0
0
4
0
0
0
0
0
18
0
0
11
12
0
0
0
6
0
2
0
6
0
12
8
0
0
20
0
0
0
5
0
35
0
40
0
0
0
56
24
0
27
57
43
0
9
5
0
18
23
0
27
0
0
0
0
0
6
18
28
5
9
14
16
11
15
19
31
40
7
0
67
0
0
0
0
0
0
20
0
24
0
9
18
0
4
11
0
0
0
12
0
15
0
0
0
0
30
0
0
1
0
16
12
62
0
0
0
72
0
23
117
0
0
0
5
0
0
0
41
0
0
39
0
36
42
0
0
0
111
43
0
0
0
0
46
0
0
0
74
83
0
0
0
4
0
32
0
0
0
24
114
0
0
255
50
0
0
0
22
0
63
0
94
36
0
106
71
0
0
0
0
5
0
0
0
91
105
98
0
0
0
67
56
0
0
255
255
0
0
153
0
0
0
79
0
153
7
1
0
38
175
82
62
0
0
0
107
0
0
218
0
0
0
0
14
0
0
0
0
0
0
148
0
0
0
0
0
0
8
13
14
15
3
0
0
0
0
0
0
0
0
0
0
0
0
0
0
9
42
0
0
7
0
0
0
12
0
0
0
0
0
0
48
0
0
7
0
0
0
0
5
0
0
12
11
31
0
0
0
15
0
7
5
36
2
16
14
0
71
1
0
1
0
0
0
0
5
0
14
31
0
0
43
1
17
0
16
0
16
0
13
0
27
0
6
12
0
3
0
0
50
0
0
0
0
1
3
0
2
13
9
22
15
24
0
13
0
3
20
22
8
35
0
3
0
28
2
8
4
2
59
0
0
0
0
36
13
5
8
13
0
0
0
0
1
0
27
0
24
14
0
0
13
23
5
18
0
15
6
0
1
0
5
0
0
5
12
0
0
3
0
3
0
7
25
5
0
7
0
4
0
9
0
28
0
0
10
5
0
0
2
17
7
0
0
0
0
34
128
97
0
0
32
29
8
0
0
2
2
2
7
16
0
34
26
16
14
11
0
0
34
0
38
31
0
30
10
0
0
27
32
0
4
0
61
2
0
31
4
0
0
0
2
3
13
20
3
28
28
38
52
48
17
0
0
0
15
108
18
122
8
45
0
0
19
30
36
10
17
0
0
27
5
14
0
12
0
47
22
0
3
0
34
10
0
36
0
0
33
0
21
13
52
57
9
38
0
25
0
10
0
0
15
6
17
0
0
62
0
0
0
5
0
5
13
0
17
43
21
36
0
24
0
0
11
74
34
4
0
0
0
0
27
55
45
0
0
19
0
2
0
46
0
0
28
0
24
25
0
0
0
13
12
8
11
7
4
0
0
6
0
5
21
0
0
0
0
19
0
13
0
36
0
21
12
9
0
33
1
0
7
0
0
38
0
19
0
23
13
0
5
17
0
0
36
54
19
0
0
0
16
78
49
0
0
14
50
23
11
47
16
0
46
38
0
44
46
0
0
0
14
0
5
36
0
0
15
11
15
0
71
130
0
0
2
46
0
0
10
0
42
41
41
0
0
234
0
0
0
0
0
20
13
0
30
127
0
0
88
46
24
2
0
0
0
0
0
7
187
60
0
0
0
8
79
81
0
0
255
106
0
28
57
0
0
9
0
29
50
0
0
0
137
167
101
0
0
0
39
0
0
137
0
0
60
0
0
14
153
13
0
59
0
0
0
19
0
55
13
19
10
6
13
5
3
1
0
10
0
53
0
0
0
0
17
25
29
120
55
67
93
100
62
63
30
33
0
0
0
0
3
20
0
0
9
9
0
0
0
0
0
0
7
0
0
25
5
0
0
8
0
0
11
27
0
0
0
12
0
0
11
0
22
0
4
16
0
24
0
16
0
0
0
37
0
0
0
0
0
20
15
0
13
0
0
0
30
3
0
0
11
10
15
0
15
59
0
18
0
5
29
0
9
0
0
3
0
8
7
0
0
0
18
4
7
0
0
33
0
0
4
0
0
0
0
18
0
0
31
0
0
0
33
0
26
32
5
2
0
0
0
0
20
0
0
0
0
18
0
0
21
0
18
0
5
18
0
0
17
10
5
0
6
18
0
0
0
1
0
18
0
7
0
16
7
21
0
0
7
1
4
0
0
0
0
24
0
3
8
1
97
114
0
0
11
0
5
7
0
29
0
9
0
25
0
30
0
16
0
9
0
0
0
8
0
0
0
12
0
0
1
0
0
0
34
0
0
0
19
15
0
50
0
0
0
0
33
33
0
14
1
32
1
0
0
0
0
23
0
31
0
0
0
42
0
25
0
0
0
0
30
38
14
0
0
0
0
34
6
0
33
23
0
26
31
43
0
4
0
1
19
28
0
0
21
0
0
0
0
2
4
25
0
3
0
28
0
0
36
25
0
5
47
25
0
0
16
17
0
0
0
0
0
0
0
36
0
10
12
0
0
48
0
0
29
47
44
0
5
58
0
0
0
0
32
0
66
0
14
0
7
0
7
13
40
0
7
0
17
10
18
14
35
9
0
18
0
0
0
0
0
44
0
11
0
0
8
0
0
2
14
0
0
13
8
0
0
0
0
0
6
23
3
0
33
0
24
51
38
0
0
0
77
7
0
0
42
26
37
0
0
0
1
0
0
7
0
0
0
55
54
4
85
0
101
0
0
10
0
0
25
0
40
214
0
0
0
19
1
32
0
42
0
55
55
0
0
171
0
13
0
0
0
65
152
0
0
117
74
0
130
28
0
0
62
135
30
0
0
0
146
111
0
0
227
0
0
86
0
0
144
255
0
0
193
0
0
0
46
0
112
0
0
0
13
164
81
39
66
0
0
0
0
118
24
0
0
35
30
0
0
0
0
52
33
0
21
0
0
42
0
0
0
14
0
9
1
0
0
0
0
0
0
5
0
5
0
14
44
0
0
0
0
0
0
17
0
12
19
42
29
48
37
53
14
27
33
0
1
15
25
41
5
3
18
4
12
0
12
5
30
0
17
6
13
0
0
0
53
0
0
12
0
0
35
0
34
0
18
0
31
6
0
34
0
6
0
0
0
4
0
0
0
0
14
0
36
0
0
0
15
0
0
0
0
0
0
5
0
0
43
0
0
15
0
13
0
0
33
8
0
2
1
0
0
0
22
0
8
5
0
0
1
0
6
0
31
0
0
17
0
8
0
0
0
0
20
0
4
0
0
22
0
3
3
0
14
8
0
3
0
4
6
4
9
0
0
0
6
0
1
0
1
0
12
5
0
11
7
2
0
17
0
10
3
0
0
0
15
8
4
10
0
5
0
18
0
4
2
5
0
3
47
155
0
0
10
0
33
0
7
0
0
23
0
0
0
0
0
45
3
59
0
11
0
15
11
35
9
13
11
47
0
25
5
0
0
0
16
10
12
20
0
22
0
0
0
18
13
88
21
4
16
9
12
0
0
0
10
1
0
0
0
0
10
0
0
0
25
0
42
0
0
0
0
0
0
39
13
0
0
14
0
0
25
0
18
50
1
0
21
45
0
14
0
0
0
26
8
0
0
0
0
0
42
41
0
70
0
4
0
0
41
26
0
46
0
0
0
65
0
1
0
0
2
2
14
0
0
17
12
26
9
40
0
30
0
48
44
0
0
0
0
0
99
0
50
0
34
0
0
18
20
0
38
2
23
0
23
0
1
14
0
19
0
0
7
24
0
0
0
18
0
0
14
25
28
4
0
0
1
2
0
0
3
0
4
20
4
0
21
27
0
5
0
4
0
17
0
21
53
15
0
0
37
55
0
0
0
16
0
31
13
5
24
0
14
0
57
0
65
0
0
0
26
0
11
0
11
49
0
27
0
0
33
221
0
0
0
38
2
0
0
0
0
0
0
0
56
203
0
0
8
0
18
0
88
4
0
24
37
0
32
72
0
0
0
0
0
0
82
0
101
105
94
0
0
40
0
0
162
0
0
255
211
0
48
88
0
0
10
0
174
0
62
66
0
30
165
120
23
45
34
0
0
190
0
0
0
0
0
0
18
0
0
0
25
0
45
115
0
0
0
65
0
0
0
0
0
0
58
0
9
23
82
36
27
32
37
12
22
32
0
19
9
0
0
5
0
6
0
1
0
0
0
0
0
0
0
10
12
23
0
7
0
15
0
0
0
7
0
5
2
0
8
0
7
2
0
9
25
11
0
57
0
14
7
6
0
11
0
0
0
0
23
17
0
0
13
0
0
11
8
19
4
0
34
15
0
0
0
14
0
0
1
3
19
0
22
23
4
2
11
0
4
0
0
10
0
4
0
0
0
0
0
39
0
10
29
0
0
8
0
15
29
0
25
0
4
11
24
0
0
0
36
0
30
14
0
0
22
21
1
8
0
14
0
1
0
3
24
4
12
0
12
15
3
7
0
0
36
0
11
0
0
0
16
0
0
8
0
18
0
0
0
13
0
10
9
6
0
33
0
2
9
0
0
11
12
11
0
6
11
19
58
137
0
0
0
5
0
0
0
0
40
3
16
32
14
0
0
22
0
0
0
24
36
4
0
0
0
0
0
0
0
26
4
0
29
25
0
21
0
22
0
0
13
0
1
0
0
0
0
0
0
0
0
0
0
4
0
0
7
31
4
0
26
2
0
11
47
47
0
20
0
38
27
0
0
0
22
14
53
29
85
0
0
2
0
20
0
34
0
14
0
0
0
0
54
0
0
0
8
0
36
0
21
9
0
14
5
11
34
0
0
0
0
0
0
0
14
0
0
19
0
21
32
0
28
15
6
0
0
0
18
0
0
24
0
45
51
17
0
32
34
0
0
35
47
0
4
0
0
9
0
0
12
0
20
0
17
0
0
0
25
10
22
10
0
6
79
0
0
25
0
0
7
0
16
0
1
47
36
0
1
15
22
0
8
0
0
0
7
0
18
28
21
0
0
0
8
47
93
47
0
0
55
77
0
0
0
81
0
7
0
0
0
0
12
24
0
0
1
0
43
0
0
2
33
0
77
0
0
96
0
0
27
192
0
0
0
70
45
0
18
0
95
54
69
0
85
174
0
0
0
1
0
0
134
0
25
20
45
0
0
54
0
0
0
0
0
0
227
0
0
71
228
0
0
0
0
0
24
116
0
0
136
74
0
0
104
0
0
0
203
6
0
154
0
0
0
129
0
30
138
0
0
58
0
0
3
41
0
0
0
0
0
0
0
0
0
0
11
0
0
0
0
20
0
3
0
13
15
0
0
0
27
9
1
29
34
0
0
0
0
0
16
0
70
0
0
0
26
19
0
17
0
1
0
0
0
2
0
0
0
0
0
9
1
5
5
16
24
11
0
0
14
0
0
8
0
20
2
0
0
3
0
9
6
0
0
0
0
0
23
0
0
0
0
28
0
6
44
0
30
0
0
19
25
3
13
0
6
8
12
21
0
0
23
19
0
0
1
0
0
39
0
0
27
3
0
0
18
15
24
27
0
0
0
21
0
16
15
15
0
0
0
0
19
0
0
0
0
17
13
8
0
0
3
0
9
0
0
3
12
9
7
17
0
6
6
31
0
0
0
0
3
0
2
2
0
12
16
0
0
9
21
0
12
0
15
0
21
0
1
0
4
1
0
10
0
0
0
0
0
0
6
2
5
0
3
0
0
0
0
13
34
125
76
0
0
69
0
33
0
33
2
0
20
0
0
28
0
14
3
29
0
0
0
0
35
4
15
17
11
0
0
43
0
0
12
41
0
0
0
0
0
28
27
1
0
0
0
0
2
0
0
0
0
14
18
0
0
20
0
0
3
0
0
30
25
0
0
0
11
40
7
25
0
24
0
5
0
0
0
0
0
0
27
120
0
66
0
0
0
15
0
0
0
19
0
32
0
9
0
0
0
0
51
13
0
16
0
0
0
12
58
7
59
29
0
48
48
0
15
0
0
0
17
10
0
0
31
0
14
37
9
0
0
0
0
47
47
0
32
0
0
0
8
0
1
0
24
0
0
0
19
0
14
19
1
0
19
0
1
0
0
2
0
0
0
0
0
0
0
0
29
4
18
0
0
11
22
0
0
13
7
0
0
5
0
17
6
0
0
0
3
0
0
0
0
25
0
40
78
30
0
0
0
140
0
0
0
29
0
66
0
43
155
136
0
0
0
0
75
0
0
25
34
16
0
0
44
5
0
42
49
0
0
255
5
0
0
0
10
0
30
0
15
0
0
0
25
99
0
16
0
6
0
0
0
0
28
0
15
134
0
126
115
0
0
55
0
0
114
147
0
11
171
143
0
0
0
0
0
124
106
0
0
243
46
0
124
101
0
0
173
90
0
89
117
0
0
29
111
0
157
5
0
61
0
8
0
50
56
79
96
156
83
112
41
0
18
5
1
0
0
0
0
0
12
0
1
49
0
0
53
0
37
0
0
0
26
0
0
0
31
31
10
0
5
10
46
24
3
0
0
0
0
11
0
15
0
22
4
17
0
4
33
0
0
22
0
0
8
0
0
13
0
39
13
30
0
0
0
0
19
19
0
27
11
0
8
19
0
17
0
0
34
47
0
12
3
5
0
0
17
0
17
2
0
0
0
66
0
0
19
0
14
13
0
10
0
2
0
8
8
42
0
0
6
11
4
3
12
0
0
0
18
9
16
0
9
0
0
9
14
0
0
0
23
11
6
2
0
0
0
16
25
9
4
0
0
18
0
0
0
0
0
0
0
0
32
14
0
0
21
0
6
0
0
18
0
9
20
0
16
5
0
0
3
0
0
11
0
1
0
0
11
22
0
0
0
19
0
0
7
29
7
0
0
0
0
0
18
0
17
0
6
85
101
0
0
35
0
0
0
45
1
0
44
0
0
0
0
0
27
9
0
45
17
0
28
0
0
2
6
5
21
0
59
0
5
3
1
54
0
64
0
0
3
0
5
0
31
12
10
18
0
9
0
0
0
0
15
1
42
4
0
0
51
22
21
0
42
24
32
0
0
0
0
29
0
0
11
9
0
22
52
45
0
0
0
0
91
2
11
0
33
0
45
20
0
29
8
0
18
0
18
20
40
0
48
0
0
0
0
19
0
0
0
0
36
0
0
5
5
4
18
35
0
0
0
0
0
0
0
0
41
0
4
0
85
56
50
0
28
0
0
0
27
0
24
32
26
25
0
16
60
0
0
14
25
0
5
0
17
13
12
7
9
13
0
55
71
0
0
5
0
0
0
0
0
0
0
0
8
0
0
32
0
0
8
5
0
10
0
12
8
13
0
15
0
0
5
33
106
21
0
0
84
31
0
0
55
0
0
0
0
47
0
0
0
66
0
0
0
0
7
34
14
68
110
0
41
0
0
48
36
0
0
207
91
0
0
86
0
0
6
0
19
0
79
51
53
61
0
0
0
8
0
0
20
23
125
0
0
165
34
32
76
0
0
59
0
0
0
109
0
0
12
189
0
0
0
9
103
0
172
0
0
196
234
0
0
187
75
0
57
137
0
79
112
13
0
0
127
91
3
64
0
19
0
16
5
0
0
0
0
0
0
0
0
10
0
0
17
0
44
59
42
60
65
37
25
0
36
38
25
0
25
0
36
5
0
30
31
11
24
0
29
0
0
0
0
0
0
0
11
0
8
0
22
23
1
0
6
0
18
28
4
8
0
1
16
6
0
0
7
13
0
0
24
7
10
7
17
0
0
0
0
8
0
0
0
0
0
6
27
28
0
18
0
24
0
0
1
18
15
11
13
0
0
0
0
0
0
21
1
0
0
24
0
1
2
0
0
14
15
10
0
1
0
2
0
4
31
5
0
0
0
14
0
16
0
8
3
0
0
0
0
24
0
8
0
1
0
19
21
0
0
6
20
0
0
17
0
10
3
10
0
0
14
0
0
0
3
10
11
32
0
0
27
5
0
4
0
17
0
17
28
11
19
10
0
0
0
20
1
17
18
0
0
13
12
0
0
0
0
4
0
0
0
0
4
0
22
0
19
0
0
72
136
0
0
9
0
28
18
0
0
0
0
1
8
0
17
0
34
0
2
0
35
0
1
24
0
0
19
0
32
0
9
0
0
1
0
16
0
1
8
20
51
1
0
0
22
0
0
0
0
0
3
29
0
0
0
0
10
0
5
0
35
0
5
7
0
0
28
0
6
7
24
10
0
8
0
0
22
0
1
13
1
98
0
0
66
0
4
68
0
0
19
0
2
0
0
0
32
0
0
3
0
0
0
24
24
11
15
57
0
23
0
0
16
6
36
0
31
0
29
21
9
0
0
0
14
23
50
6
5
0
21
0
38
48
58
22
19
0
17
0
0
0
6
0
2
0
0
0
19
0
33
10
10
7
5
6
0
0
0
0
0
0
0
0
0
0
0
27
0
11
0
1
22
0
16
0
15
5
0
8
6
6
0
18
0
14
0
17
1
0
12
0
2
2
23
52
46
0
0
0
41
47
0
0
0
31
0
110
0
0
7
0
0
91
0
0
0
0
0
0
44
0
0
0
153
0
0
9
0
0
0
2
150
0
0
31
3
0
74
6
0
0
0
54
173
0
0
23
16
0
0
0
0
65
108
0
0
101
85
17
115
0
0
0
30
0
0
0
163
6
0
227
35
0
0
0
0
0
15
67
0
0
133
68
0
0
69
0
0
117
0
0
34
182
59
0
0
127
0
146
20
0
0
0
0
19
0
253
59
0
0
0
0
0
13
0
0
32
8
0
0
0
2
0
9
19
1
17
0
0
21
0
22
24
0
0
0
55
0
11
5
23
34
0
20
8
17
0
0
4
0
16
0
0
0
35
0
1
2
16
0
15
0
0
0
8
0
0
19
0
17
0
0
0
0
0
0
22
0
7
2
0
0
2
11
0
0
20
0
44
0
51
0
0
4
0
15
0
0
5
0
0
9
7
0
0
50
0
0
15
0
13
0
0
11
34
0
7
0
0
2
9
0
13
0
0
7
7
0
13
10
16
0
12
0
18
0
0
3
0
18
18
9
0
0
9
1
9
0
0
10
0
9
0
0
13
20
0
5
11
0
0
40
0
7
0
0
20
0
0
2
0
29
0
0
0
0
24
0
0
0
0
19
0
4
0
0
0
6
0
0
0
9
1
11
2
11
10
0
22
0
12
4
11
20
0
0
0
9
0
0
60
128
0
0
0
0
0
46
3
32
0
0
29
0
0
8
0
0
12
14
0
44
14
0
0
0
9
0
0
18
0
37
0
6
3
0
6
0
1
8
0
0
22
17
14
12
0
9
7
6
0
0
0
0
0
0
10
13
14
17
0
0
48
1
0
0
58
3
0
0
34
11
0
0
0
8
0
72
45
24
15
16
0
0
43
0
1
18
0
57
0
50
0
38
27
0
0
29
37
24
0
106
31
0
4
30
0
53
0
0
0
0
0
0
3
35
14
0
10
0
0
0
20
15
7
0
39
10
0
18
0
0
41
1
51
50
0
86
0
19
7
22
0
12
40
13
34
0
2
54
0
19
13
0
0
0
1
32
14
26
11
0
19
0
44
44
18
0
17
0
30
0
0
4
9
1
26
18
6
19
6
0
1
0
0
0
15
7
21
17
0
0
6
0
0
51
167
40
30
23
0
32
44
0
126
102
0
0
0
0
22
43
0
0
47
13
0
34
37
0
0
58
23
8
0
11
19
45
21
22
0
0
0
182
49
0
15
0
0
0
0
0
25
0
87
93
0
0
0
35
12
0
0
0
76
49
125
0
0
95
57
46
88
0
0
2
0
0
0
135
71
0
251
40
0
0
0
0
0
0
0
164
0
108
176
0
0
0
65
0
98
96
0
28
44
79
106
3
0
0
14
71
0
0
0
0
16
0
44
0
0
0
0
19
19
110
0
0
0
9
2
0
0
0
13
0
0
0
0
30
0
27
33
5
7
0
5
0
0
0
0
0
0
0
2
7
0
34
0
39
17
0
20
16
17
0
0
17
15
0
1
0
0
16
19
0
6
16
0
2
0
28
15
10
9
15
0
7
82
0
1
32
6
31
6
0
19
5
1
0
18
0
2
6
11
27
0
0
20
0
6
0
2
13
5
26
0
0
13
40
0
1
0
3
7
0
51
0
25
10
2
22
0
10
0
0
37
0
50
3
0
0
9
0
25
16
5
29
0
0
0
19
0
10
0
2
32
0
0
0
0
6
0
27
0
0
0
0
0
0
0
14
0
9
0
0
8
0
19
0
8
18
0
0
0
11
0
0
6
0
0
0
0
8
0
3
0
0
0
4
4
4
0
0
0
0
5
0
12
0
17
0
0
0
0
0
0
0
20
0
5
28
15
121
68
0
0
0
37
0
21
21
10
0
16
3
1
20
1
0
52
0
3
0
0
0
47
0
41
0
0
0
11
0
22
22
25
22
11
0
21
15
0
0
49
0
0
1
0
22
10
0
40
21
12
17
11
0
22
10
22
0
4
0
0
1
11
0
1
0
0
26
26
3
6
0
22
16
0
0
0
0
0
14
0
24
0
0
0
7
0
29
0
72
22
14
39
0
15
0
0
0
0
0
3
0
3
17
8
13
14
0
0
41
59
0
13
0
0
0
47
0
0
0
11
0
63
0
0
0
0
0
47
0
27
0
45
53
0
11
0
62
35
0
0
12
0
0
7
0
0
14
0
20
10
0
26
4
25
7
0
9
10
15
37
0
0
0
0
0
0
3
0
0
2
17
0
0
5
0
8
7
2
0
0
57
0
0
10
2
0
0
25
0
39
42
47
65
0
0
0
0
0
27
79
10
10
0
3
0
19
0
12
5
0
43
7
0
0
69
12
0
1
39
0
0
0
0
0
0
27
63
11
0
0
106
126
0
0
0
20
21
0
0
46
0
123
86
0
0
0
0
0
0
0
0
58
42
151
0
0
57
135
21
128
0
0
0
0
29
0
0
63
0
154
92
0
93
0
0
0
0
2
103
11
0
199
61
0
0
0
17
0
84
21
71
4
0
0
0
13
41
0
149
0
0
21
43
0
9
26
0
0
5
39
30
0
0
29
45
0
0
0
5
0
0
6
18
9
0
31
0
23
24
17
0
20
16
12
0
66
3
14
18
0
5
0
0
0
3
0
27
7
8
0
4
0
2
34
0
0
0
9
0
15
0
9
14
8
0
8
18
0
66
0
0
0
0
29
0
0
0
11
10
0
0
0
8
0
3
1
0
41
0
0
17
0
0
0
4
0
4
34
0
0
0
2
0
0
0
0
0
17
0
12
21
18
0
0
0
0
0
4
1
0
17
0
0
18
0
13
37
0
0
29
0
16
0
37
17
1
0
0
0
0
1
38
3
1
3
69
6
0
0
3
21
19
14
0
13
8
20
0
8
0
6
0
9
9
0
0
12
0
0
4
35
0
0
15
21
0
0
0
0
0
0
15
0
0
0
1
10
19
0
0
0
0
18
9
4
13
0
10
12
3
5
7
0
0
10
7
0
0
0
8
89
132
0
0
0
0
1
0
0
0
0
28
0
0
1
0
0
1
0
15
13
24
14
0
0
15
0
37
2
15
0
0
28
10
0
23
0
0
0
53
0
0
4
2
0
9
0
0
0
29
6
0
0
16
0
17
0
11
30
9
26
58
0
33
6
0
5
0
0
0
0
0
14
0
0
20
34
12
0
0
0
22
0
0
34
0
24
0
12
0
1
0
0
7
5
0
0
4
0
0
44
0
0
10
0
8
18
0
0
0
24
15
0
8
15
0
0
34
0
18
0
23
3
0
1
0
0
2
2
0
0
0
0
55
52
0
10
12
0
5
0
11
32
0
0
26
0
0
35
0
1
9
0
51
0
17
6
28
0
27
44
48
0
1
5
0
0
17
0
25
2
5
13
0
3
0
34
0
1
0
21
0
10
0
0
34
0
10
26
10
0
6
17
37
0
0
0
0
0
0
0
0
0
0
51
66
3
0
39
73
59
0
0
5
0
0
58
0
0
26
45
0
6
26
21
0
0
2
36
21
0
0
32
147
82
0
0
7
33
94
0
0
0
171
126
0
161
0
85
31
5
0
0
104
0
204
0
0
0
193
0
84
33
0
2
20
0
0
70
196
0
53
114
0
55
34
0
24
0
0
0
37
0
187
226
0
0
0
0
0
93
0
0
15
113
51
0
0
0
0
60
0
0
11
78
0
0
41
0
38
22
0
0
0
3
0
0
0
11
0
60
25
4
14
0
25
2
0
31
0
0
0
11
0
18
0
0
0
0
4
0
2
5
15
13
9
4
0
0
0
0
37
0
0
0
45
3
0
24
43
0
8
11
0
2
5
0
0
0
0
21
19
0
9
15
29
20
0
0
1
29
0
5
51
20
0
12
0
0
12
1
23
0
7
0
0
21
22
0
2
8
23
19
32
0
4
0
44
4
5
0
18
0
11
0
0
0
23
8
13
7
0
0
15
0
0
6
0
0
0
4
5
8
0
0
0
0
4
0
0
0
49
0
0
0
0
0
0
0
0
0
23
0
0
5
0
0
0
15
0
26
10
0
13
9
0
7
1
9
0
0
0
11
0
30
3
0
29
7
12
29
0
24
15
0
12
0
0
0
0
32
1
8
0
0
0
0
16
0
0
14
0
0
8
0
19
0
11
24
15
0
8
49
161
0
0
0
9
45
0
0
80
6
0
14
19
21
2
0
0
12
20
2
0
0
14
0
82
0
23
0
3
0
24
14
0
0
18
17
28
0
31
0
1
8
16
0
25
0
4
1
0
0
0
0
0
22
20
0
0
12
0
6
0
0
0
0
18
0
29
0
40
3
0
22
44
0
25
0
23
14
50
7
30
0
0
0
20
0
29
0
0
63
0
0
23
0
0
36
18
23
0
25
0
0
255
0
20
15
12
0
0
10
0
17
0
37
0
27
0
21
22
0
20
16
0
80
7
0
23
15
40
0
26
0
51
50
0
0
0
0
0
0
0
69
0
19
8
0
0
0
1
0
50
25
35
0
41
5
10
4
0
40
14
26
15
0
0
0
107
0
0
0
7
22
0
15
1
19
8
0
0
1
0
34
0
0
0
14
0
0
11
14
10
0
10
0
0
0
11
0
0
41
44
21
0
0
0
0
0
0
45
6
0
0
79
0
0
16
0
0
69
34
1
0
0
0
44
22
0
0
29
0
0
0
22
209
0
0
0
0
0
0
0
51
196
79
0
0
0
12
0
10
0
0
208
0
198
0
0
0
86
94
21
111
0
0
33
0
0
82
34
51
0
244
0
4
151
0
0
0
0
0
124
0
0
255
150
0
0
0
0
0
0
0
0
67
154
97
0
0
0
8
109
0
0
0
0
26
106
12
83
58
0
5
13
0
22
0
0
0
20
0
0
25
0
49
0
21
0
47
0
26
0
5
0
54
0
0
0
8
0
7
0
0
4
4
0
11
0
0
20
0
15
31
19
5
0
0
0
2
5
0
0
0
2
9
19
0
39
0
0
15
0
3
0
0
3
0
0
15
0
0
0
0
0
0
0
0
21
39
0
0
0
0
14
0
23
20
0
0
5
0
0
0
0
0
10
9
8
0
34
0
26
0
12
21
18
0
12
9
0
15
0
20
10
10
0
14
0
3
0
21
0
11
0
0
0
10
0
0
0
21
16
4
0
16
0
13
0
15
13
7
0
4
0
5
4
6
3
22
0
4
0
9
0
15
0
0
0
29
0
33
0
28
0
2
3
0
0
3
0
0
0
3
0
0
5
0
9
1
0
0
0
12
7
0
17
5
0
5
6
0
1
3
9
0
3
0
0
0
22
21
8
43
138
0
0
0
34
37
0
30
0
0
32
61
48
22
64
19
0
39
0
0
0
19
18
0
0
3
0
0
17
3
35
0
0
0
0
0
0
0
0
15
23
0
0
18
37
0
0
0
29
0
0
0
0
2
0
43
10
57
4
0
2
0
39
0
0
0
0
9
44
25
21
0
16
0
22
0
19
0
12
0
0
23
0
34
0
0
21
2
0
209
0
0
38
0
29
0
12
12
8
21
12
0
0
0
1
0
3
38
2
25
4
25
12
0
0
4
1
4
0
0
7
0
0
47
0
0
0
0
15
0
0
30
64
48
0
21
60
51
0
0
1
8
10
0
0
58
0
45
5
0
34
27
43
0
9
4
0
0
2
20
13
31
84
15
0
0
8
0
35
0
0
19
0
15
0
0
20
11
20
20
0
35
0
0
14
11
16
5
30
7
0
7
47
1
0
11
59
0
0
0
0
22
0
13
12
54
0
0
37
0
0
0
0
7
0
27
0
0
22
17
0
20
12
0
0
0
86
0
6
0
2
4
0
208
47
0
0
5
1
0
0
47
228
0
0
0
0
34
22
42
0
0
182
0
225
0
0
0
0
142
15
76
73
0
0
0
0
0
0
2
36
128
7
0
123
63
0
0
0
0
150
32
0
67
214
43
0
0
0
0
146
0
0
4
134
93
115
67
0
0
178
0
0
52
0
22
0
0
0
13
0
7
31
0
0
0
0
40
0
33
0
34
0
12
0
0
0
14
10
3
18
14
0
9
0
0
0
0
0
0
18
0
14
19
0
0
26
3
1
0
0
12
0
2
27
0
0
23
0
17
0
17
0
0
17
25
0
0
0
5
0
0
0
0
9
0
34
0
0
0
38
15
0
18
20
0
6
0
0
0
21
0
0
17
8
0
10
0
14
0
20
0
9
0
0
0
14
15
7
0
1
25
10
23
0
19
0
0
26
2
0
9
0
20
0
43
0
0
0
12
0
7
25
0
10
27
3
0
0
0
19
2
0
0
0
17
1
0
0
0
1
0
15
0
0
0
0
14
0
0
46
0
0
0
0
12
0
0
0
0
35
0
0
0
8
22
2
11
26
0
0
7
3
19
0
0
0
0
17
1
23
8
0
1
17
0
2
0
0
6
1
0
12
0
3
0
28
0
22
0
1
17
102
105
0
0
13
2
0
4
8
0
0
0
0
0
0
0
47
15
5
0
0
0
8
19
11
22
24
0
20
8
0
0
0
24
0
20
0
16
0
0
0
27
0
38
0
0
6
0
1
0
18
0
0
14
0
0
0
0
7
0
29
0
0
10
0
0
0
0
17
0
0
12
37
18
57
0
5
11
21
0
0
32
0
0
66
0
0
0
0
0
0
0
73
0
20
0
0
0
11
4
0
1
0
31
0
0
13
19
0
0
37
0
26
0
69
0
42
0
36
0
45
0
0
0
0
11
62
21
24
0
0
0
82
49
0
11
0
10
0
0
0
0
0
0
4
0
0
35
0
0
72
35
1
0
12
6
3
6
0
20
22
0
6
47
0
0
49
0
0
0
0
7
13
3
5
11
9
7
0
0
0
22
0
0
0
0
5
0
0
0
18
27
59
53
7
4
79
0
17
19
0
5
0
0
20
164
26
0
68
0
20
0
6
30
0
59
55
0
0
0
26
0
60
44
32
42
0
4
129
2
0
0
0
75
156
0
0
34
0
0
0
142
179
0
17
0
0
20
26
0
0
0
146
0
255
0
0
0
0
141
92
40
53
0
0
5
2
0
0
0
74
68
114
0
0
133
9
0
0
0
100
28
0
0
75
238
46
0
0
0
160
0
48
0
85
0
0
96
71
0
132
0
0
104
0
4
18
0
13
0
5
25
0
16
0
35
0
9
54
0
1
0
13
0
24
12
0
0
0
14
0
1
0
22
0
46
0
22
26
0
0
21
0
26
0
15
0
0
0
0
0
35
10
0
0
0
0
4
34
21
7
1
18
0
38
0
0
0
24
0
7
4
8
0
22
0
16
0
0
9
17
0
2
1
0
0
19
0
22
0
35
0
0
4
3
0
3
1
30
0
47
17
0
0
0
0
16
0
4
20
0
0
0
6
0
13
0
0
0
25
5
23
0
0
2
25
13
0
0
7
14
13
0
0
18
0
32
0
57
15
19
19
0
6
0
0
27
8
3
13
0
14
10
1
32
8
10
0
2
0
0
0
0
20
0
13
0
34
13
9
21
0
3
7
0
12
0
0
39
0
0
9
21
0
6
22
0
4
14
6
16
0
0
11
0
0
4
12
5
2
0
0
15
0
0
7
3
5
7
9
2
2
114
121
0
0
0
5
25
0
19
50
7
0
30
33
17
12
3
0
32
0
26
5
2
26
0
0
0
27
0
0
32
5
0
20
0
38
0
0
9
8
0
27
0
46
0
0
10
0
1
0
0
39
16
21
8
9
0
0
24
0
24
0
19
22
29
2
15
0
0
9
1
38
0
13
27
16
0
0
0
34
0
0
2
0
0
0
125
13
0
0
0
0
0
7
52
3
0
7
20
0
7
5
0
24
0
0
42
0
0
28
25
0
60
0
13
0
7
18
0
0
27
64
32
0
0
0
0
0
18
0
7
0
92
48
0
14
0
0
42
0
0
24
71
0
4
0
0
22
15
0
113
6
0
0
8
6
0
10
1
16
25
15
28
102
0
0
39
0
24
0
25
0
0
7
0
0
9
0
0
30
0
32
0
0
0
31
4
6
0
0
40
0
67
2
0
89
89
0
0
0
5
0
2
0
0
59
0
7
42
82
0
0
0
115
0
208
24
0
25
0
10
0
0
0
8
0
0
0
0
55
0
9
0
56
255
0
0
42
0
0
0
207
138
0
0
0
0
13
0
4
0
17
132
0
255
0
0
115
0
16
84
127
99
0
0
0
0
0
0
0
0
0
182
0
0
4
137
45
0
0
0
59
90
0
0
130
211
0
0
0
232
0
0
0
148
57
0
26
112
71
96
0
0
0
0
0
0
0
6
0
0
3
0
0
8
0
13
0
0
0
21
28
30
51
0
14
29
4
13
0
0
0
3
6
2
32
0
0
3
0
26
6
0
28
0
24
15
2
0
0
0
2
0
0
2
5
7
0
0
0
15
5
0
0
58
5
11
0
23
0
12
25
0
0
0
0
7
0
0
0
6
16
0
11
45
0
10
0
13
0
58
0
26
0
35
0
0
24
0
0
0
0
0
0
13
15
10
0
3
0
0
10
30
0
0
0
0
52
4
0
0
0
3
0
21
0
3
13
6
0
0
0
19
0
36
0
5
0
0
0
0
0
1
35
0
0
28
0
3
0
9
0
7
1
0
0
17
0
0
16
0
0
8
4
6
6
0
0
20
0
0
0
0
22
3
20
4
0
16
0
0
9
0
1
6
30
0
0
6
0
11
0
0
63
3
22
6
0
0
1
0
0
7
0
4
7
3
2
0
10
6
13
58
146
4
0
0
0
7
0
8
0
110
71
23
3
0
41
18
0
0
28
38
0
21
36
0
0
16
20
9
0
0
0
0
30
0
0
0
0
0
0
20
0
9
0
0
6
15
11
5
0
4
0
0
0
8
9
17
13
0
0
3
0
0
0
5
13
0
39
25
7
3
41
0
15
25
0
0
0
11
42
0
0
18
23
130
0
0
0
49
47
0
0
24
16
0
22
17
3
6
0
55
24
12
34
0
10
64
0
34
0
22
0
42
0
46
0
31
10
0
1
5
2
0
0
153
0
0
0
31
0
0
0
86
47
0
33
1
0
19
0
0
0
22
0
0
0
0
38
0
0
114
4
0
0
10
4
20
0
16
0
0
0
18
100
0
0
0
0
8
0
22
0
13
0
0
19
27
2
0
6
0
0
19
0
0
1
0
20
11
12
5
0
81
0
0
103
17
54
0
28
0
29
0
0
17
81
0
0
0
11
11
0
0
115
0
0
9
52
49
0
34
0
76
0
0
77
0
23
0
134
0
0
0
0
255
0
0
13
0
0
21
255
0
0
71
27
0
30
0
35
0
58
124
0
255
0
0
114
0
0
0
196
78
53
0
0
5
83
0
0
35
4
124
110
0
0
12
143
0
0
0
41
103
0
0
0
109
150
0
0
63
43
0
0
108
199
0
88
30
118
124
0
0
0
0
10
0
0
2
11
0
0
43
4
29
19
3
58
53
0
40
0
23
8
0
0
0
0
53
0
0
0
22
2
0
8
0
12
53
0
0
10
0
0
0
12
10
10
0
14
9
0
30
0
4
0
3
0
4
3
32
0
26
0
0
3
8
0
20
0
14
0
0
0
0
0
18
0
0
4
18
0
20
0
0
0
0
0
13
14
15
0
0
0
0
0
13
17
0
0
0
12
2
26
0
0
33
0
10
0
0
0
11
0
0
24
0
13
7
0
4
20
19
0
3
1
0
0
32
0
11
22
0
16
7
3
23
0
13
4
16
21
0
0
0
0
10
0
3
0
4
5
2
7
5
7
4
0
0
7
11
21
3
0
15
11
7
3
17
7
0
5
0
12
0
21
0
0
0
8
0
18
0
12
0
0
0
2
0
0
3
10
0
12
0
0
0
11
17
12
1
0
7
0
4
0
0
0
0
9
0
6
38
132
0
0
21
49
0
44
4
1
0
0
82
12
16
4
0
0
28
0
0
10
29
0
14
18
0
0
0
0
0
52
0
9
0
55
17
0
27
7
12
13
0
0
0
16
0
0
5
6
0
20
20
4
47
0
5
0
0
18
0
0
1
24
6
0
9
31
46
22
0
21
0
0
29
0
56
11
17
0
52
43
0
0
0
0
25
0
0
0
0
1
0
0
0
0
0
14
11
0
13
0
23
0
8
19
10
0
19
0
65
0
0
0
0
0
0
0
0
0
0
0
0
0
64
0
0
23
14
21
0
44
94
48
0
52
0
15
15
0
21
54
0
0
12
23
0
48
2
0
119
0
6
9
0
0
29
0
9
6
13
13
31
88
0
0
0
0
7
0
15
0
39
0
0
4
2
7
3
7
0
0
9
0
16
0
14
0
21
0
0
42
96
0
0
110
0
94
0
0
0
0
13
0
0
75
0
0
37
40
7
0
202
0
0
0
13
5
0
0
50
0
38
0
36
122
0
102
0
91
12
31
22
0
0
28
57
0
0
0
9
215
0
0
65
0
0
0
0
12
0
0
37
0
255
0
0
191
0
32
0
140
173
64
31
0
0
0
8
0
11
176
0
244
0
0
0
115
90
0
0
0
125
77
0
0
0
169
0
0
0
91
43
0
97
211
0
0
0
49
166
86
0
0
0
9
0
0
11
0
0
0
0
0
1
7
0
15
0
0
0
0
0
0
15
11
0
6
32
9
19
2
0
7
47
0
5
0
2
0
0
0
0
1
0
11
15
0
15
0
1
0
13
0
0
8
0
0
31
0
8
0
9
5
0
21
12
0
19
0
0
0
0
67
13
0
0
8
21
0
36
0
11
1
23
6
4
0
0
7
0
8
0
0
0
0
21
0
2
9
11
8
0
24
0
0
24
0
0
9
0
29
2
22
0
24
0
0
0
0
41
0
4
0
11
0
5
0
0
0
25
0
0
3
34
0
0
54
0
11
21
0
0
18
0
2
7
9
0
0
33
9
4
19
0
20
33
8
8
0
0
24
8
0
18
0
16
0
6
0
0
18
0
0
0
24
20
0
0
6
0
20
0
7
0
0
18
0
3
0
0
1
0
19
5
2
0
0
0
0
0
0
32
0
0
9
10
0
6
0
0
8
8
122
76
0
0
35
0
0
0
0
0
0
0
0
0
36
0
0
31
0
3
22
15
0
0
6
38
0
40
0
13
0
1
55
0
0
19
0
2
0
0
0
10
15
10
12
14
0
0
0
17
0
17
0
55
0
7
24
0
20
0
0
0
2
0
13
0
13
0
0
4
9
27
0
0
33
0
0
47
7
0
41
0
0
53
0
0
0
34
0
0
0
55
4
1
27
43
0
30
14
16
0
0
11
16
0
14
17
0
0
20
9
19
75
16
0
0
0
71
21
12
5
18
65
40
0
0
0
0
96
3
0
95
54
35
0
0
13
12
0
3
4
39
0
0
0
0
7
0
7
86
2
0
0
21
0
0
1
4
0
14
17
5
107
0
0
47
4
0
15
22
0
8
0
6
3
34
0
0
1
1
17
23
0
0
2
0
1
49
0
0
60
16
0
0
9
0
95
0
0
7
14
0
0
69
0
8
0
0
0
48
0
0
0
1
19
0
73
0
0
104
0
24
0
26
66
0
119
0
50
28
0
0
0
6
0
102
0
0
0
210
225
0
0
44
26
0
0
0
21
0
0
88
0
255
0
0
120
93
0
0
80
155
135
81
0
0
0
3
0
0
245
0
149
87
0
0
0
0
107
115
0
2
91
100
0
0
0
54
0
25
0
96
4
0
120
0
0
0
0
131
95
139
76
0
0
0
0
0
0
31
0
15
9
0
0
0
36
2
11
0
31
57
0
0
0
0
34
0
0
19
0
48
0
0
0
17
0
0
40
7
17
40
0
0
8
6
1
0
0
0
11
0
1
30
67
3
0
5
0
14
0
0
27
0
17
2
39
0
0
8
27
0
11
0
0
4
42
24
0
25
0
14
0
0
0
0
12
16
24
1
13
14
21
0
34
25
12
18
2
0
0
0
13
0
0
6
0
0
0
18
6
0
0
0
24
0
2
0
0
0
31
0
0
3
3
0
0
2
26
9
7
7
5
0
1
0
11
0
0
0
0
0
14
2
0
23
4
0
0
0
13
0
3
0
8
0
0
0
24
16
0
0
8
28
0
3
0
0
0
0
0
6
42
0
9
12
0
16
0
39
0
23
30
2
0
15
0
13
9
8
0
8
0
14
14
0
0
9
11
0
0
2
0
0
19
7
0
28
0
0
0
4
95
123
0
0
0
0
27
0
0
26
11
13
0
32
34
0
0
14
0
0
0
6
0
24
0
4
0
0
0
0
19
0
1
10
4
45
0
8
0
0
0
1
15
0
0
12
0
5
0
34
0
19
0
19
0
0
0
0
20
33
0
2
71
0
31
11
57
13
17
0
20
0
35
0
0
0
0
10
0
0
4
0
17
0
0
30
41
0
3
72
10
12
0
12
3
0
22
0
0
6
0
0
24
31
12
0
0
55
0
0
0
0
0
41
0
36
29
0
0
0
21
0
0
0
0
33
18
0
0
0
0
90
46
0
15
0
16
0
0
0
31
0
35
1
0
0
0
0
19
109
16
0
1
0
5
0
23
0
3
8
0
0
100
0
0
0
0
0
0
0
6
15
0
28
0
29
0
0
0
0
0
7
0
0
0
10
3
3
15
0
35
38
0
0
36
0
60
0
0
6
91
0
0
10
0
0
0
37
32
16
0
0
21
111
2
0
154
0
0
52
0
57
0
28
45
0
170
0
7
89
0
0
13
0
0
101
0
0
0
255
183
0
0
69
13
0
0
93
14
0
0
146
12
243
0
0
58
122
0
0
0
0
40
174
49
0
0
0
0
0
203
0
93
131
0
0
0
0
0
18
0
22
71
39
7
0
0
100
0
0
0
7
0
0
96
53
0
23
0
0
122
165
199
73
0
0
46
0
0
54
0
21
3
117
0
0
12
0
0
0
26
25
18
9
16
0
9
41
8
31
0
3
7
0
22
0
0
20
0
0
20
5
0
0
25
0
3
5
12
10
0
8
26
0
0
12
0
20
0
33
0
3
0
0
13
0
0
0
0
27
15
0
20
28
2
0
0
24
0
21
0
0
29
0
17
0
0
0
0
0
0
0
38
0
0
16
0
0
6
0
5
28
0
24
26
0
0
16
0
7
0
7
0
11
24
25
0
0
45
0
2
0
27
7
20
11
0
0
2
0
6
0
0
0
0
0
39
0
7
4
36
0
0
0
0
0
30
0
7
0
0
0
0
17
4
0
17
0
2
0
16
0
0
0
33
0
0
0
14
12
0
11
0
0
0
24
0
0
19
0
0
0
6
0
0
30
0
0
10
0
0
14
11
0
3
30
0
6
7
0
2
11
0
7
0
0
0
22
0
4
25
21
75
159
0
0
0
0
0
1
25
10
2
30
0
0
33
0
0
8
23
41
0
69
18
14
0
0
8
9
29
3
14
36
0
0
14
0
26
0
0
17
7
13
11
0
31
4
16
2
17
16
0
1
0
14
0
27
36
8
0
0
35
0
6
11
0
32
0
0
5
0
43
8
0
0
45
0
6
0
8
13
10
0
5
23
0
0
0
72
0
0
0
9
31
5
13
0
7
7
7
28
47
11
0
9
0
0
13
17
0
0
12
0
41
0
27
0
16
0
16
0
7
23
0
27
12
0
22
6
34
37
7
96
43
0
14
0
35
0
6
0
52
0
0
21
0
0
0
0
0
122
4
11
0
16
10
0
0
12
0
0
4
32
85
0
0
0
15
35
10
0
15
18
0
21
0
32
0
26
0
17
3
0
14
5
7
0
6
1
4
0
35
101
0
0
0
52
0
0
0
96
34
3
0
44
9
4
0
46
24
51
0
0
0
151
0
0
30
0
21
54
0
22
0
63
15
0
52
0
0
124
0
0
2
0
0
43
63
0
0
255
60
0
0
0
92
0
0
148
23
0
0
148
0
206
0
0
0
142
0
82
0
0
0
196
63
0
0
0
0
0
127
125
0
133
0
0
34
0
0
4
43
0
159
0
65
31
0
32
71
0
0
30
0
0
5
187
0
0
56
0
45
6
0
192
63
0
0
0
0
50
27
12
0
0
15
0
0
0
41
0
25
0
0
7
20
0
25
0
0
13
0
0
0
15
20
11
0
17
2
3
16
0
35
0
0
0
0
0
0
45
4
0
0
9
22
0
0
10
7
0
2
0
0
0
11
19
0
35
0
0
0
0
0
0
0
0
0
4
0
2
27
12
55
0
3
0
0
29
0
0
12
0
10
9
0
0
0
4
0
41
0
3
3
0
8
12
0
25
1
0
0
8
24
0
0
0
0
0
0
31
40
0
0
10
0
0
0
17
9
0
0
39
0
15
0
8
0
0
26
0
17
0
0
0
10
6
0
15
18
0
0
0
10
0
33
0
0
7
15
0
0
16
0
12
0
9
14
23
6
0
0
11
0
10
0
2
3
0
0
0
12
0
0
0
7
16
0
15
0
0
0
0
9
0
19
0
0
16
0
3
0
0
0
20
20
28
0
0
4
0
0
0
47
124
0
0
0
20
5
0
0
0
16
8
15
0
0
0
43
0
0
47
0
0
5
0
47
0
0
2
0
26
0
0
37
0
0
0
9
0
0
3
0
0
0
0
33
0
11
0
46
0
37
0
0
32
0
19
0
6
12
0
0
58
0
6
0
40
8
0
23
0
0
0
0
15
38
31
62
0
9
16
0
10
0
30
0
0
13
0
6
0
12
0
8
0
24
23
0
0
34
0
20
0
0
0
0
33
8
0
0
0
0
29
0
0
23
0
0
16
0
0
0
0
7
0
0
0
7
0
0
23
0
98
44
0
40
0
19
0
8
0
47
0
0
1
0
0
0
0
0
72
22
3
0
16
0
0
19
0
0
21
0
30
42
0
0
0
0
21
0
0
24
0
19
0
0
39
0
29
0
0
0
9
0
13
0
11
0
24
0
31
18
86
52
0
71
90
0
0
0
106
0
0
0
16
0
0
17
10
56
45
0
0
0
136
0
0
114
30
0
164
0
32
0
29
24
0
26
5
0
104
0
0
0
0
0
156
88
0
146
255
0
0
0
0
101
76
0
0
7
0
0
122
0
192
0
0
0
89
0
5
0
0
0
74
148
95
93
0
0
0
129
232
0
68
0
0
44
43
33
0
0
0
30
0
35
56
0
0
98
0
0
55
6
0
0
209
113
0
0
0
39
60
0
0
240
70
0
0
54
47
0
7
0
0
53
0
19
0
0
25
0
20
0
0
0
0
0
0
0
33
0
30
0
36
0
0
0
25
0
11
0
0
5
0
35
16
16
26
0
0
7
0
0
6
11
0
0
6
1
0
12
9
23
0
3
12
0
27
0
19
3
0
2
5
0
15
0
12
0
22
7
0
0
12
0
0
0
30
0
18
0
0
8
0
10
13
14
0
20
2
0
9
0
0
0
12
0
0
2
22
0
0
0
0
15
2
0
6
0
20
0
6
0
2
0
8
0
2
0
16
0
11
0
29
0
5
0
0
0
11
0
16
0
17
18
0
0
13
0
25
0
13
29
0
61
0
5
14
0
0
12
0
26
0
1
0
15
0
0
16
0
13
4
0
0
7
0
4
21
0
7
19
5
7
0
0
18
0
0
0
11
0
4
0
6
0
0
13
0
0
0
4
0
0
0
0
0
0
9
2
0
3
30
142
19
0
14
81
28
9
32
0
16
0
15
0
15
30
0
0
0
25
0
2
0
0
47
27
26
11
8
12
22
0
14
4
0
34
0
30
3
13
23
0
11
3
3
25
15
8
18
0
16
2
0
0
18
0
0
0
0
13
0
0
0
0
0
0
2
0
0
38
0
28
21
10
4
0
13
0
14
28
0
25
0
0
2
8
36
0
0
18
17
29
31
0
12
0
13
0
3
0
10
0
13
0
0
0
0
0
0
26
0
16
0
0
0
32
0
18
6
18
50
34
24
23
84
0
23
46
0
14
9
108
44
44
55
66
54
47
50
51
59
51
47
51
53
53
79
109
145
184
195
196
196
200
198
198
199
193
192
191
183
178
159
120
105
110
119
131
135
142
155
159
165
163
167
178
174
182
180
179
180
181
178
182
180
183
182
183
175
179
173
163
127
78
95
94
69
56
53
71
48
43
39
43
40
41
54
62
70
60
34
38
54
73
43
47
75
71
63
85
56
64
62
72
70
57
70
72
69
84
65
57
53
58
73
104
97
70
136
162
92
58
53
54
76
67
37
51
59
58
72
114
113
113
50
38
48
81
78
75
68
72
63
118
138
118
93
59
53
64
127
148
93
85
45
36
50
53
50
40
48
50
69
66
79
81
67
64
71
47
40
54
53
52
74
116
96
45
41
62
95
102
73
83
121
90
58
57
75
83
81
82
82
84
94
90
91
89
93
102
100
107
107
108
110
110
112
113
112
121
118
122
118
126
121
121
120
126
123
125
122
124
126
125
131
130
130
130
125
123
127
126
127
129
129
125
127
129
128
126
130
132
134
132
133
134
132
135
130
133
131
130
131
132
131
135
135
137
137
141
139
133
134
136
133
132
132
138
134
137
134
135
138
137
140
141
141
138
144
142
140
141
139
139
143
146
144
143
146
148
144
141
143
143
145
143
142
143
143
149
146
147
144
146
146
146
144
147
148
151
149
151
149
153
149
149
148
148
148
151
148
151
149
152
152
147
149
152
150
153
149
155
159
156
164
152
156
158
155
157
160
159
164
159
163
165
168
165
163
166
163
168
169
169
169
172
172
174
176
172
179
184
184
185
184
186
192
191
192
192
195
194
195
193
198
199
199
203
202
203
204
206
207
207
209
209
207
208
211
211
210
212
212
204
157
118
109
112
102
95
94
88
93
91
93
90
94
98
94
97
98
107
104
106
105
102
120
124
126
127
130
133
135
132
132
129
126
128
121
127
125
126
126
121
125
128
132
138
139
140
140
135
135
130
124
119
118
108
100
95
86
92
90
89
84
81
78
72
77
74
72
78
69
81
86
89
91
90
93
90
92
92
84
87
83
80
84
89
96
94
102
112
119
126
128
122
129
129
129
124
123
119
113
101
96
84
75
62
60
59
58
58
51
51
44
41
42
50
46
52
54
59
68
72
76
83
94
90
97
104
100
104
105
108
